<?xml version="1.0" encoding="UTF-8"?>
<map version="1.10" tiledversion="1.11.2" orientation="orthogonal" renderorder="right-down" width="128" height="128" tilewidth="64" tileheight="64" infinite="0" nextlayerid="13" nextobjectid="7">
 <tileset firstgid="1" source="tsx/TilesetWater.tsx"/>
 <tileset firstgid="477" source="tsx/TilesetField.tsx"/>
 <tileset firstgid="552" source="tsx/TilesetFloorSnow.tsx"/>
 <tileset firstgid="629" source="tsx/TilesetRelief.tsx"/>
 <tileset firstgid="869" source="tsx/TilesetHouse.tsx"/>
 <tileset firstgid="1628" source="tsx/TilesetFloorDetail.tsx"/>
 <tileset firstgid="1708" source="tsx/TilesetNature.tsx"/>
 <tileset firstgid="1828" source="tsx/TilesetFloor.tsx"/>
 <tileset firstgid="2400" source="tsx/TilesetReliefDetail.tsx"/>
 <layer id="5" name="Floor" width="128" height="128">
  <data encoding="csv">
198,198,198,198,198,198,198,198,198,198,198,198,198,198,198,198,198,198,198,198,198,198,198,198,198,198,198,198,198,198,198,198,198,198,198,198,198,198,198,198,198,198,198,198,198,198,198,198,198,198,198,198,198,198,198,198,198,198,198,198,198,198,198,198,198,198,198,198,198,198,198,198,198,198,198,198,198,198,198,198,198,198,198,198,198,198,198,198,198,198,198,198,198,198,198,198,198,198,198,198,198,198,198,198,198,198,198,198,198,198,198,198,198,198,198,198,198,198,198,198,198,198,198,198,198,198,198,198,
198,198,198,198,198,198,198,198,198,198,198,198,198,198,198,198,198,198,198,198,198,198,198,198,198,198,198,198,198,198,198,198,198,198,198,198,198,198,198,198,198,198,198,198,198,198,198,198,198,198,198,198,198,198,198,198,198,198,198,198,198,198,198,198,198,198,198,198,198,198,198,198,198,198,198,198,198,198,198,198,198,198,198,198,198,198,198,198,198,198,198,198,198,198,198,198,198,198,198,198,198,198,198,198,198,198,198,198,198,198,198,198,198,198,198,198,198,198,198,198,198,198,198,198,198,198,198,198,
198,198,198,198,198,198,198,198,198,198,198,198,198,198,198,198,198,198,198,198,198,198,198,198,198,198,198,198,198,198,198,198,198,198,198,198,198,198,198,198,198,198,198,198,198,198,198,198,198,198,198,198,198,198,198,198,198,198,198,198,198,198,198,198,198,198,198,198,198,198,198,198,198,198,198,198,198,198,198,198,198,198,198,198,198,198,198,198,198,198,198,198,198,198,198,198,198,198,198,198,198,198,198,198,198,198,198,198,198,198,198,198,198,198,198,198,198,198,198,198,198,198,198,198,198,198,198,198,
198,198,198,198,198,198,198,198,198,198,198,198,198,198,198,198,198,198,198,198,198,198,198,198,198,198,198,198,198,198,198,198,198,198,198,198,198,198,198,198,198,198,198,198,198,198,198,198,198,198,198,198,198,198,198,198,198,198,198,198,198,198,198,198,198,198,198,198,198,198,198,198,198,198,198,198,198,198,198,198,198,198,198,198,198,198,198,198,198,198,198,198,198,198,198,198,198,198,198,198,198,198,198,198,198,198,198,198,198,198,198,198,198,198,198,198,198,198,198,198,198,198,198,198,198,198,198,198,
198,198,198,198,198,198,198,198,198,198,198,198,198,198,198,198,198,198,198,198,198,198,198,198,198,198,198,198,198,198,198,198,198,198,198,198,198,198,198,198,198,198,198,198,198,198,198,198,198,198,198,198,198,198,198,198,198,198,198,198,198,198,198,198,198,198,198,198,198,198,198,198,198,198,198,198,198,198,198,198,198,198,198,198,198,198,198,198,198,198,198,198,198,198,198,198,198,198,198,198,198,198,198,198,198,198,198,198,198,198,198,198,198,198,198,198,198,198,198,198,198,198,198,198,198,198,198,198,
198,198,198,198,198,198,198,198,198,198,198,198,198,198,198,198,198,198,198,198,198,198,198,198,198,198,198,198,198,198,198,198,198,198,198,198,198,198,198,198,198,198,198,198,198,198,198,198,198,198,198,198,198,198,198,198,198,198,198,198,198,198,198,198,198,198,198,198,198,198,198,198,198,198,198,198,198,198,43,43,43,43,198,198,198,198,198,198,198,198,198,198,198,198,198,198,198,198,198,198,198,198,198,198,198,198,198,198,198,198,198,198,198,198,198,198,198,198,198,198,198,198,198,198,198,198,198,198,
198,198,198,198,198,198,198,198,198,198,198,198,198,198,198,198,198,198,198,198,198,198,198,198,198,198,198,198,198,198,198,198,198,198,564,564,564,2247,2249,564,564,564,564,198,198,198,198,198,198,198,198,198,198,198,198,198,198,198,198,198,198,198,198,198,198,198,43,43,43,43,43,43,43,43,43,43,43,43,43,43,43,43,43,198,198,198,198,198,198,198,198,198,198,198,198,198,198,198,43,43,43,43,43,43,43,43,43,43,43,198,198,198,198,198,198,198,198,198,198,198,198,198,198,198,198,198,198,198,
198,198,198,198,198,198,198,198,198,198,198,198,198,198,198,198,198,198,198,198,198,198,198,198,198,198,198,198,198,198,198,198,198,564,2249,564,564,2250,564,2250,564,564,2250,564,198,198,198,198,198,198,198,198,198,198,198,198,198,198,198,198,198,198,198,198,198,198,43,43,43,43,43,43,43,43,43,43,43,43,43,43,43,43,43,43,43,43,43,43,43,43,43,198,198,198,198,198,198,43,43,43,43,43,43,43,43,43,43,43,43,43,43,43,198,198,198,198,198,198,198,198,198,198,198,198,198,198,198,198,
198,198,198,198,198,198,198,198,198,198,198,198,198,198,198,198,198,198,198,198,198,198,198,198,198,198,198,198,198,198,198,198,564,564,564,2250,564,2248,2250,2249,564,2249,564,564,564,198,198,198,198,198,198,198,198,198,198,198,198,198,198,198,198,198,198,198,198,198,43,43,43,43,43,43,43,43,43,43,43,43,43,43,43,43,43,43,43,43,43,43,43,43,43,43,43,198,43,43,43,43,43,43,43,43,43,43,43,43,43,43,43,43,43,43,43,198,198,198,198,198,198,198,198,198,198,198,198,198,198,198,
198,198,198,198,198,198,198,198,198,198,198,198,198,198,198,198,198,198,198,198,198,198,198,198,198,198,198,198,198,198,198,564,2248,564,2247,564,2136,2137,2137,2137,2138,564,564,564,2249,564,198,198,198,198,198,198,198,198,198,198,198,198,198,198,198,198,198,198,198,43,43,43,43,43,43,43,43,43,43,43,43,43,43,43,43,43,43,43,43,43,43,43,43,43,43,43,43,43,43,43,43,43,43,43,43,43,43,43,43,43,43,43,43,43,43,43,43,198,198,198,198,198,198,198,198,198,198,198,198,198,198,198,
198,198,198,198,198,198,198,198,198,198,202,226,226,226,226,226,226,226,226,226,226,226,226,226,226,226,203,198,198,198,198,564,2249,564,2248,2250,2158,2159,2159,2159,2160,564,2249,564,564,564,198,198,198,198,202,226,226,226,226,226,226,226,226,226,226,226,203,198,198,43,43,43,47,71,71,71,71,71,71,71,71,71,48,43,43,43,43,43,43,43,43,43,43,43,43,43,43,43,43,43,43,43,43,43,47,71,71,71,71,71,71,48,43,43,43,43,43,198,198,198,198,198,198,198,198,198,198,198,198,198,198,198,
198,198,198,198,198,198,198,198,198,198,199,498,498,498,498,498,498,498,498,498,498,498,498,498,498,498,197,198,198,198,198,564,564,2248,2249,564,2158,2159,2159,2159,2160,564,564,2248,2250,564,198,198,198,198,199,498,498,498,498,498,498,498,498,498,498,498,197,198,198,43,43,43,44,564,564,564,564,564,564,564,564,564,42,43,43,43,43,43,43,43,43,43,43,43,43,43,43,43,43,43,43,43,43,43,44,564,564,564,564,564,564,42,43,43,43,43,43,198,198,198,198,198,198,198,198,198,198,198,198,198,198,198,
198,198,198,198,198,198,198,198,198,198,199,498,498,498,498,498,498,498,498,498,498,498,498,498,498,498,197,198,198,198,198,564,2250,564,564,2248,2180,2181,2181,2181,2182,2250,2249,564,564,564,198,198,198,198,199,498,498,498,498,498,498,498,498,498,498,498,197,198,198,43,43,43,44,564,564,564,564,564,564,564,564,564,70,71,71,71,71,48,43,43,43,43,43,43,43,43,43,43,43,43,43,43,43,43,44,564,564,564,564,564,564,42,43,43,43,43,198,198,198,198,198,198,198,198,198,198,198,198,198,198,198,198,
198,198,198,198,198,198,198,198,198,198,199,498,498,498,498,498,498,498,498,498,498,498,498,498,498,498,197,198,198,198,198,564,564,2249,564,2249,564,564,564,2250,564,564,564,2247,2249,564,198,198,198,198,199,498,498,498,498,498,498,498,498,498,498,498,197,198,198,43,43,43,44,564,564,564,564,564,564,564,564,564,564,564,564,564,564,42,43,43,43,43,43,43,43,43,43,43,43,43,43,43,43,43,44,564,564,564,564,564,564,42,43,43,43,43,198,198,198,198,198,198,198,198,198,198,198,198,198,198,198,198,
198,198,198,198,198,198,198,198,198,198,199,498,498,498,498,498,498,498,498,498,498,498,498,498,498,498,197,198,198,198,198,198,198,198,198,198,564,564,564,564,564,198,198,198,198,198,198,198,198,198,199,498,498,498,498,498,498,498,498,498,498,498,197,198,198,43,43,43,44,564,564,564,564,564,564,564,564,564,564,564,564,564,564,42,43,43,43,43,43,43,43,43,43,43,43,43,43,43,43,43,44,564,564,564,564,564,564,42,43,43,43,43,198,198,198,198,198,198,198,198,198,198,198,198,198,198,198,198,
198,198,198,198,198,198,198,198,198,198,199,498,498,498,498,498,498,498,498,498,498,498,498,498,498,498,197,198,198,198,198,198,654,654,654,198,1539,1540,1540,1540,1541,198,654,654,654,198,198,198,198,198,199,498,498,498,498,498,498,498,498,498,498,498,197,198,198,43,43,43,44,564,564,564,564,564,564,564,564,564,564,564,564,564,564,70,71,71,71,71,71,71,71,71,71,71,71,71,71,71,71,71,72,564,564,564,564,564,564,42,43,43,43,43,198,198,198,198,198,198,198,198,198,198,198,198,198,198,198,198,
198,198,198,198,198,198,198,198,198,198,199,498,498,498,498,498,498,498,498,498,498,498,498,498,498,498,197,198,198,198,198,198,654,654,654,198,1539,1540,1540,1540,1541,198,654,654,654,198,198,198,198,198,199,498,498,498,498,498,498,498,498,498,498,498,197,198,198,43,43,43,44,564,564,564,564,564,564,564,564,564,564,564,564,564,564,564,564,564,564,564,564,564,564,564,564,564,564,564,564,564,564,564,564,564,564,564,564,564,564,42,43,43,43,43,198,198,198,198,198,198,198,198,198,198,198,198,198,198,198,198,
198,198,198,198,198,198,198,198,198,198,230,170,170,170,170,171,498,498,498,498,498,498,498,498,498,498,197,198,198,198,198,198,654,654,654,198,1539,1540,1540,1540,1541,198,654,654,654,198,198,198,198,198,199,498,498,498,498,498,498,498,498,498,169,170,231,198,198,43,43,43,44,564,564,564,564,564,564,564,564,564,564,564,564,564,564,564,564,564,564,564,564,564,564,564,564,564,564,564,564,564,564,564,564,564,564,564,564,564,564,42,43,43,43,43,198,198,198,198,198,198,198,198,198,198,198,198,198,198,198,198,
198,198,198,198,198,198,198,198,198,198,198,198,198,198,198,199,498,498,498,498,498,498,498,498,498,498,197,198,198,198,198,198,654,654,654,198,1539,1540,1540,1540,1541,198,654,654,654,198,198,198,198,198,199,498,498,498,498,498,498,498,498,498,197,198,198,43,43,43,43,43,44,564,564,564,564,564,564,564,564,564,564,564,564,564,564,564,564,564,564,564,564,564,564,564,564,564,564,564,564,564,564,564,564,564,564,564,564,564,564,42,43,43,43,43,43,43,43,43,43,43,43,43,43,198,198,198,198,198,198,198,
198,198,198,198,198,198,198,198,198,198,198,198,198,198,198,199,498,498,498,498,498,498,498,498,498,498,197,198,198,198,198,198,654,654,654,198,1539,1540,1540,1540,1541,198,654,654,654,198,198,198,198,198,199,498,498,498,498,498,498,498,498,498,197,198,198,43,43,43,43,43,44,564,564,564,564,564,564,564,564,564,564,564,564,564,564,564,564,564,564,564,564,564,564,564,564,564,564,564,564,564,564,564,564,564,564,564,564,564,564,42,43,43,43,43,43,43,43,43,43,43,43,43,43,43,198,198,198,198,198,198,
198,198,198,198,198,198,198,198,198,198,198,198,198,198,198,199,498,498,498,498,498,498,498,498,498,498,225,226,226,226,226,226,226,226,226,226,226,226,226,226,226,226,226,226,226,226,226,226,226,226,227,498,498,498,498,498,498,498,498,498,197,198,198,43,43,47,71,71,72,564,564,564,564,564,564,564,564,564,564,564,564,564,564,564,564,564,564,564,564,564,564,564,564,564,564,564,564,564,564,564,564,564,564,564,564,564,564,42,43,43,43,43,43,43,43,43,43,43,43,43,43,43,198,198,198,198,198,198,
198,198,198,198,198,198,198,198,198,198,198,198,198,198,198,199,498,498,498,498,498,498,498,498,498,498,498,498,498,498,498,498,498,498,498,498,498,498,498,498,498,498,498,498,498,498,498,498,498,498,498,498,498,498,498,498,498,498,498,498,197,198,198,43,43,44,564,564,564,564,564,564,564,564,564,564,564,564,564,564,564,564,564,564,564,564,564,564,564,564,564,564,564,564,564,564,564,564,564,564,564,564,564,564,564,564,564,70,71,71,71,71,71,71,71,71,71,48,43,43,43,43,198,198,198,198,198,198,
198,198,198,198,198,198,198,198,198,198,198,198,198,198,198,199,498,498,498,498,498,498,498,498,498,498,498,498,498,498,498,498,498,498,498,498,498,498,498,498,498,498,498,498,498,498,498,498,498,498,498,498,498,498,498,498,498,498,498,498,197,198,198,43,43,44,564,564,564,564,564,564,564,564,564,564,564,564,564,564,564,564,564,564,564,564,564,564,564,564,564,564,564,564,564,564,564,564,564,564,564,564,564,564,564,564,564,564,564,564,564,564,564,564,564,564,564,42,43,43,43,43,198,198,198,198,198,198,
198,198,198,198,198,198,198,198,198,198,198,198,198,198,198,199,498,498,498,498,498,498,498,498,498,498,498,498,498,498,498,498,498,498,498,498,498,498,498,498,498,498,498,498,498,498,498,498,498,498,498,498,498,498,498,498,498,498,498,498,197,198,198,43,43,44,564,564,564,564,564,564,564,564,564,564,564,564,564,564,564,564,564,564,564,564,564,564,564,564,564,564,564,564,564,564,564,564,564,564,564,564,564,564,564,564,564,564,564,564,564,564,564,564,564,564,564,42,43,43,43,43,198,198,198,198,198,198,
198,198,198,198,198,198,198,198,198,198,198,198,198,202,226,227,498,498,498,498,498,498,498,498,498,498,498,498,498,498,498,498,498,498,498,498,498,498,498,498,498,498,498,498,498,498,498,498,498,498,498,498,498,498,498,498,498,498,498,498,197,198,198,43,43,44,564,564,564,564,564,564,564,564,564,564,564,564,564,564,564,564,564,564,564,564,564,564,564,564,564,564,564,564,564,564,564,564,564,564,564,564,564,564,564,564,564,564,564,564,564,564,564,564,564,564,564,42,43,43,43,43,198,198,198,198,198,198,
198,198,198,198,198,198,198,198,198,198,198,198,198,199,498,498,498,498,498,498,498,498,498,498,498,498,498,498,498,498,498,498,498,498,498,498,498,498,498,498,498,498,498,498,498,498,498,498,498,498,498,498,498,498,498,498,498,498,498,498,197,198,198,43,43,44,564,564,564,564,564,564,564,564,564,564,564,564,564,564,564,564,564,564,564,564,564,564,564,564,564,564,564,564,564,564,564,564,564,564,564,564,564,564,564,564,564,564,564,564,564,564,564,564,564,564,564,42,43,43,43,43,198,198,198,198,198,198,
198,198,198,198,198,198,198,198,198,198,198,198,198,199,498,498,498,498,498,498,498,498,498,498,498,498,498,498,498,498,498,498,498,498,498,498,498,498,498,498,498,498,498,498,498,498,498,498,498,498,498,498,498,498,498,498,498,498,498,498,197,198,198,43,43,44,564,564,564,564,564,564,564,564,564,564,564,564,564,564,564,564,564,564,564,564,564,564,564,564,564,564,564,564,564,564,564,564,564,564,564,564,564,564,564,564,564,564,564,564,564,564,564,564,564,564,564,42,43,43,43,43,198,198,198,198,198,198,
198,198,198,198,198,198,198,198,198,198,198,198,198,199,498,498,498,498,498,498,498,498,498,498,498,498,498,498,498,498,498,498,498,498,498,498,498,498,498,498,498,498,498,498,498,498,498,498,498,498,498,498,498,498,498,498,498,498,498,498,197,198,198,43,43,75,15,15,15,16,564,564,564,564,564,564,564,564,564,564,564,564,564,564,564,564,564,564,564,564,564,564,564,564,564,564,564,564,564,564,564,564,564,564,564,564,564,564,564,564,564,564,564,14,15,15,15,76,43,43,43,43,198,198,198,198,198,198,
198,198,198,198,198,198,198,198,198,198,198,198,198,199,498,498,498,498,498,498,498,498,498,498,498,498,498,498,498,498,498,498,498,498,498,498,498,498,498,498,498,498,498,498,498,498,498,498,498,498,498,498,498,498,498,498,498,498,498,498,197,198,198,43,43,43,43,43,43,44,564,564,564,564,564,564,564,564,564,564,564,564,564,564,564,564,564,564,564,564,564,564,564,564,564,564,564,564,564,564,564,564,564,564,564,564,564,564,564,564,564,564,564,42,43,43,43,43,43,43,43,198,198,198,198,198,198,198,
198,198,198,198,198,198,198,198,198,198,198,198,198,230,170,170,170,171,498,498,498,498,498,498,498,498,498,498,498,498,498,498,498,498,498,498,498,498,498,498,498,498,498,498,498,498,498,498,498,498,498,498,498,498,498,498,498,498,498,498,197,198,198,198,198,43,43,43,43,44,564,564,564,564,564,564,564,564,564,564,564,564,564,564,564,564,564,564,564,564,564,564,564,564,564,564,564,564,564,564,564,564,564,564,564,564,564,564,564,564,564,564,564,42,43,43,43,43,43,43,198,198,198,198,198,198,198,198,
198,198,198,198,198,198,198,198,198,198,198,198,198,198,198,198,198,199,498,498,498,498,498,498,498,498,498,498,498,498,498,498,498,498,498,498,498,498,498,498,498,498,498,498,498,498,498,498,498,498,498,498,498,498,498,498,498,498,498,498,225,226,226,203,198,198,43,43,43,44,564,564,564,564,564,564,564,564,564,564,564,564,564,564,564,564,564,564,564,564,564,564,564,564,564,564,564,564,564,564,564,564,564,564,564,564,564,564,564,564,564,564,564,42,43,43,43,43,43,43,198,198,198,198,198,198,198,198,
198,198,198,198,198,198,198,198,198,198,198,198,198,198,198,198,198,199,498,498,498,498,498,498,498,498,498,498,498,498,498,498,498,498,498,498,498,498,498,498,498,498,498,498,498,498,498,498,498,498,498,498,498,498,498,498,498,498,498,498,498,498,498,197,198,198,43,43,43,44,564,564,564,564,564,564,564,564,564,564,564,564,564,564,564,564,564,564,564,564,564,564,564,564,564,564,564,564,564,564,564,564,564,564,564,564,564,564,564,564,564,564,564,42,43,43,43,43,43,43,198,198,198,198,198,198,198,198,
198,198,198,198,198,198,198,198,198,198,198,198,198,198,198,198,198,199,498,498,498,498,498,498,498,498,498,498,498,498,498,498,498,498,498,498,498,498,498,498,498,498,498,498,498,498,498,498,498,498,498,498,498,498,498,498,498,498,498,498,498,498,498,197,198,198,43,43,43,44,564,564,564,564,564,564,564,564,564,564,564,564,564,564,564,564,564,564,564,564,564,564,564,564,564,564,564,564,564,564,564,564,564,564,564,564,564,564,564,564,564,564,564,42,43,43,43,43,43,43,198,198,198,198,198,198,198,198,
198,198,198,198,198,198,198,198,198,198,198,198,198,198,198,198,198,199,498,498,498,498,498,498,498,498,498,498,498,498,498,498,498,498,498,498,498,498,498,498,498,498,498,498,498,498,498,498,498,498,498,498,498,498,498,498,498,498,498,498,498,498,498,197,198,198,43,43,43,44,564,564,564,564,564,564,564,564,564,564,564,564,564,564,564,564,564,564,564,564,564,564,564,564,564,564,564,564,564,564,564,564,564,564,564,564,564,564,564,564,564,564,564,42,43,43,43,43,43,43,43,198,198,198,198,198,198,198,
198,198,198,198,198,198,198,198,198,198,198,198,198,198,198,198,198,199,498,498,498,498,498,498,498,498,498,498,498,498,498,498,498,498,498,498,498,498,498,498,498,498,498,498,498,498,498,498,498,498,498,498,498,498,498,498,498,498,498,498,498,498,498,197,198,198,43,43,43,44,564,564,564,564,564,564,564,564,564,564,564,564,564,564,564,564,564,564,564,564,564,564,564,564,564,564,564,564,564,564,564,564,564,564,564,564,564,564,564,564,564,564,564,42,43,43,43,43,43,43,43,43,198,198,198,198,198,198,
198,198,198,198,198,198,198,198,198,198,198,198,198,198,198,198,198,199,498,498,498,498,498,498,498,498,498,498,498,498,498,498,498,498,498,498,498,498,498,498,498,498,498,498,498,498,498,498,498,498,498,498,498,498,498,498,498,498,498,498,498,498,498,197,198,198,43,43,43,44,564,564,564,564,564,564,564,564,564,564,564,564,564,564,564,564,564,564,564,564,564,564,564,564,564,564,564,564,564,564,564,564,564,564,564,564,564,564,564,564,564,564,564,70,71,71,71,48,43,43,43,43,198,198,198,198,198,198,
198,198,198,198,198,198,198,198,198,198,198,198,198,198,198,198,198,199,498,498,498,498,498,498,498,498,498,498,498,498,498,498,498,498,498,498,498,498,498,498,498,498,498,498,498,498,498,498,498,498,498,498,498,498,498,498,498,498,498,498,498,498,498,197,198,198,43,43,43,44,564,564,564,564,564,564,564,564,564,564,564,564,564,564,564,564,564,564,564,564,564,564,564,564,564,564,564,564,564,564,564,564,564,564,564,564,564,564,564,564,564,564,564,564,564,564,564,42,43,43,43,43,198,198,198,198,198,198,
198,198,198,198,198,198,198,198,198,198,198,198,198,198,198,198,198,199,498,498,498,498,498,498,498,498,498,498,498,498,498,498,498,498,498,498,498,498,498,498,498,498,498,498,498,498,498,498,498,498,498,498,498,498,498,498,498,498,498,498,498,498,169,231,198,198,43,43,43,44,564,564,564,564,564,564,564,564,564,564,564,564,564,564,564,564,564,564,564,564,564,564,564,564,564,564,564,564,564,564,564,564,564,564,564,564,564,564,564,564,564,564,564,564,564,564,564,42,43,43,43,43,198,198,198,198,198,198,
198,198,198,198,198,198,198,198,198,198,198,198,198,198,198,198,198,199,498,498,498,498,498,498,498,498,498,498,498,498,498,498,498,498,498,498,498,498,498,498,498,498,498,498,498,498,498,498,498,498,498,498,498,498,498,498,498,498,498,498,498,498,197,198,198,43,43,43,43,44,564,564,564,564,564,564,564,564,564,564,564,564,564,564,564,564,564,564,564,564,564,564,564,564,564,564,564,564,564,564,564,564,564,564,564,564,564,564,564,564,564,564,564,564,564,564,564,42,43,43,43,43,198,198,198,198,198,198,
198,198,198,198,198,198,198,198,198,198,198,198,198,198,198,198,198,199,498,498,498,498,498,498,498,498,498,498,498,498,498,498,498,498,498,498,498,498,498,498,498,498,498,498,498,498,498,498,498,498,498,498,498,498,498,498,498,498,498,498,498,498,197,198,43,43,43,43,43,44,564,564,564,564,564,564,564,564,564,564,564,564,564,564,564,564,564,564,564,564,564,564,564,564,564,564,564,564,564,564,564,564,564,564,564,564,564,564,564,564,564,564,564,564,564,564,564,42,43,43,43,43,198,198,198,198,198,198,
198,198,198,198,198,198,198,198,198,198,198,198,198,198,198,198,198,199,498,498,498,498,498,498,498,498,498,498,498,498,498,498,498,498,498,498,498,498,498,498,498,498,498,498,498,498,498,498,498,498,498,498,498,498,498,498,498,498,498,498,498,498,197,198,43,43,47,71,71,72,564,564,564,564,564,564,564,564,564,564,564,564,564,564,564,564,564,564,564,564,564,564,564,564,564,564,564,564,564,564,564,564,564,564,564,564,564,564,564,564,564,564,564,14,15,15,15,76,43,43,43,43,198,198,198,198,198,198,
198,198,198,198,198,198,198,198,198,198,198,198,198,198,198,198,198,199,498,498,498,498,498,498,498,498,498,498,498,498,498,498,498,498,498,498,498,498,498,498,498,498,498,498,498,498,498,498,498,498,498,498,498,498,498,498,498,498,498,498,498,498,197,198,43,43,44,564,564,564,564,564,564,564,564,564,564,564,564,564,564,564,564,564,564,564,564,564,564,564,564,564,564,564,564,564,564,564,564,564,564,564,564,564,564,564,564,564,564,564,564,564,564,42,43,43,43,43,43,43,198,198,198,198,198,198,198,198,
198,198,198,198,198,198,198,198,198,198,198,198,198,198,198,198,198,199,498,498,498,498,498,498,498,498,498,498,498,498,498,498,498,498,498,498,498,498,498,498,498,498,498,498,498,498,498,498,498,498,498,498,498,498,498,498,498,498,498,498,498,498,197,198,43,43,44,564,564,564,564,564,564,564,564,564,564,564,564,564,564,564,564,564,564,564,564,564,564,564,564,564,564,564,564,564,564,564,564,564,564,564,564,564,564,564,564,564,564,564,564,564,564,42,43,43,43,43,43,43,198,198,198,198,198,198,198,198,
198,198,198,198,198,198,198,198,198,198,198,198,198,198,198,198,198,199,498,498,498,498,498,498,498,498,498,498,498,498,498,498,498,498,498,498,498,498,498,498,498,498,498,498,498,498,498,498,498,498,498,498,498,498,498,498,498,498,498,498,498,337,338,338,338,338,338,339,564,564,564,564,564,564,564,564,564,564,564,564,564,564,564,564,564,564,564,564,564,564,564,564,564,564,564,564,564,564,564,564,564,564,564,564,564,564,564,564,564,564,564,564,564,42,43,43,43,43,43,43,198,198,198,198,198,198,198,198,
198,198,198,198,198,198,198,198,198,198,198,198,198,198,198,198,198,199,498,498,498,498,498,498,498,498,498,498,498,498,498,498,498,498,498,498,498,498,498,498,498,498,498,498,498,498,498,498,498,498,498,498,498,498,498,498,498,498,498,498,498,365,366,366,366,366,366,367,564,564,564,564,564,564,564,564,564,564,564,564,564,564,564,564,564,564,564,564,564,564,564,564,564,564,564,564,564,564,564,564,564,564,564,564,564,564,564,564,564,564,564,564,564,42,43,43,43,43,43,43,198,198,198,198,198,198,198,198,
198,198,198,198,198,198,198,198,198,198,198,198,198,198,198,198,198,199,498,498,498,498,498,498,498,498,498,498,498,498,498,498,498,498,498,498,498,498,498,498,498,498,498,498,498,498,498,498,498,498,498,498,498,498,498,498,498,498,498,498,498,365,366,366,366,366,366,367,564,564,564,564,564,564,564,564,564,564,564,564,564,564,564,564,564,564,564,564,564,564,564,564,564,564,564,564,564,564,564,564,564,564,564,564,564,564,564,564,564,564,564,564,564,42,43,43,43,43,43,43,198,198,198,198,198,198,198,198,
198,198,198,198,198,198,198,198,198,198,198,198,198,198,198,198,198,199,498,498,498,498,498,498,498,498,498,498,498,498,498,498,498,498,498,498,498,498,498,498,498,498,498,498,498,498,498,498,498,498,498,498,498,498,498,498,498,498,498,498,498,365,366,366,366,366,366,367,564,564,564,564,564,564,564,564,564,564,564,564,564,564,564,564,564,564,564,564,564,564,564,564,564,564,564,564,564,564,564,564,564,564,564,564,564,564,564,564,564,564,564,564,564,42,43,43,43,43,43,43,198,198,198,198,198,198,198,198,
198,198,198,198,198,198,198,198,198,198,198,198,198,202,226,226,226,227,498,498,498,498,498,498,498,498,498,498,498,498,498,498,498,498,498,498,498,498,498,498,498,498,498,498,498,498,498,498,498,498,498,498,498,498,498,498,498,498,498,498,498,393,394,394,394,394,394,395,564,564,564,564,564,564,564,564,564,564,564,564,564,564,564,564,564,564,564,564,564,564,564,564,564,564,564,564,564,564,564,564,564,564,564,564,564,564,564,564,564,564,564,564,564,42,43,43,43,43,43,43,198,198,198,198,198,198,198,198,
198,198,198,198,198,198,198,198,198,198,198,198,198,199,498,498,498,498,498,498,498,498,498,498,498,498,498,498,498,498,498,498,498,498,498,498,498,498,498,498,498,498,498,498,498,498,498,498,498,498,498,498,498,498,498,498,498,498,498,498,498,498,197,198,43,43,44,564,564,564,564,564,564,564,564,564,564,564,564,564,564,564,564,564,564,564,564,564,564,564,564,564,564,564,564,564,564,564,564,564,564,564,564,564,564,564,564,564,564,564,564,564,564,42,43,43,43,43,43,43,198,198,198,198,198,198,198,198,
198,198,198,198,198,198,198,198,198,198,198,198,198,199,498,498,498,498,498,498,498,498,498,498,498,498,498,498,498,498,498,498,498,498,498,498,498,498,498,498,498,498,498,498,498,498,498,498,498,498,498,498,498,498,498,498,498,498,498,498,498,498,197,198,43,43,44,564,564,564,564,564,564,564,564,564,564,564,564,564,564,564,564,564,564,564,564,564,564,564,564,564,564,564,564,564,564,564,564,564,564,564,564,564,564,564,564,564,564,564,564,14,15,76,43,43,43,43,43,43,198,198,198,198,198,198,198,198,
198,198,198,198,198,198,198,198,198,198,198,198,198,199,498,498,498,498,498,498,498,498,498,498,498,498,498,498,498,498,498,498,498,498,498,498,498,498,498,498,498,498,498,498,498,498,498,498,498,498,498,498,498,498,498,498,498,498,498,498,498,498,197,198,43,43,75,15,15,16,564,564,564,564,564,564,564,564,564,564,564,564,564,564,564,564,564,564,564,564,564,564,564,564,564,564,564,564,564,564,564,564,564,564,564,564,564,564,564,564,564,42,43,43,43,43,43,43,43,43,198,198,198,198,198,198,198,198,
198,198,198,198,198,198,198,198,198,198,198,198,198,199,498,498,498,498,498,498,498,498,498,498,498,498,498,498,498,498,498,498,498,498,498,498,498,498,498,498,498,498,498,498,498,498,498,498,498,498,498,498,498,498,498,498,498,498,498,498,498,498,197,198,43,43,43,43,43,44,564,564,564,564,564,564,564,564,564,564,564,564,564,564,564,564,564,564,564,564,564,564,564,564,564,564,564,564,564,564,564,564,564,564,564,564,564,564,564,564,564,42,43,43,43,43,43,43,198,198,198,198,198,198,198,198,198,198,
198,198,198,198,198,198,198,198,198,198,198,198,198,199,498,498,498,498,498,498,498,498,498,498,498,498,498,498,498,498,498,498,498,498,498,498,498,498,498,498,498,498,498,498,498,498,498,498,498,498,498,498,498,498,498,498,498,498,498,498,498,498,197,198,198,43,43,43,43,44,564,564,564,564,564,564,564,564,564,564,564,564,564,564,564,564,564,564,564,564,564,564,564,564,564,564,564,564,564,564,564,564,564,564,564,564,564,564,564,564,564,42,43,43,43,43,43,43,198,198,198,198,198,198,198,198,198,198,
198,198,198,198,198,198,198,198,198,198,198,198,198,199,498,498,498,498,498,498,498,498,498,498,498,498,498,498,498,498,498,498,498,498,498,498,498,498,498,498,498,498,498,498,498,498,498,498,498,498,498,498,498,498,498,498,498,498,498,498,498,498,225,203,198,198,198,43,43,44,564,564,564,564,564,564,564,564,564,564,564,564,564,564,564,564,564,564,564,564,564,564,564,564,564,564,564,564,564,564,564,564,564,564,564,564,564,564,564,564,564,42,43,43,43,43,43,43,198,198,198,198,198,198,198,198,198,198,
198,198,198,198,198,198,198,198,198,198,198,198,198,199,498,498,498,498,498,498,498,498,498,498,498,498,498,498,498,498,498,498,498,498,498,498,498,498,498,498,498,498,498,498,498,498,498,498,498,498,498,498,498,498,498,498,498,498,498,498,498,498,498,197,198,198,198,43,43,75,15,15,16,564,564,564,564,564,564,564,564,564,564,564,564,564,564,564,564,564,564,564,564,564,564,564,564,564,564,564,564,564,564,564,564,564,564,564,564,564,564,42,43,43,43,43,43,43,198,198,198,198,198,198,198,198,198,198,
198,198,198,198,198,198,198,198,198,198,198,198,198,199,498,498,498,498,498,498,498,498,498,498,498,498,498,498,498,498,498,498,498,498,498,498,498,498,498,498,498,498,498,498,498,498,498,498,498,498,498,498,498,498,498,498,498,498,498,498,498,498,498,197,198,198,198,43,43,43,43,43,44,564,564,564,564,564,564,564,564,564,564,564,564,564,564,564,564,564,564,564,564,564,564,564,564,564,564,564,564,564,564,564,564,564,564,564,564,564,564,42,43,43,43,43,43,43,198,198,198,198,198,198,198,198,198,198,
198,198,198,198,198,198,198,198,198,198,198,198,198,199,498,498,498,498,498,498,498,498,498,498,498,498,498,498,498,498,498,498,498,498,498,498,498,498,498,498,498,498,498,498,498,498,498,498,498,498,498,498,498,498,498,498,498,498,498,498,498,498,498,197,198,198,198,43,43,43,43,43,44,564,564,564,564,564,564,564,564,564,564,564,564,564,564,564,564,564,564,564,564,564,564,564,564,564,564,564,564,564,564,564,564,564,564,564,564,564,564,42,43,43,43,43,43,43,198,198,198,198,198,198,198,198,198,198,
198,198,198,198,198,198,198,198,198,198,198,198,198,199,498,498,498,498,498,498,498,498,498,498,498,498,498,498,498,498,498,498,498,498,498,498,498,498,498,498,498,498,498,498,498,498,498,498,498,498,498,498,498,498,498,498,498,498,498,498,498,498,498,197,198,198,198,43,43,43,43,43,44,564,564,564,564,564,564,564,564,564,564,564,564,564,564,564,564,564,564,564,564,564,564,564,564,564,564,564,564,564,564,564,564,564,564,564,564,564,564,42,43,43,43,43,43,43,198,198,198,198,198,198,198,198,198,198,
198,198,198,198,198,198,198,198,198,198,198,198,198,199,498,498,498,498,498,498,498,498,498,498,498,498,498,498,498,498,498,498,498,498,498,498,498,498,498,498,498,498,498,498,498,498,498,498,498,498,498,498,498,498,498,498,498,498,498,498,498,498,498,197,198,198,198,43,43,43,43,43,44,564,564,564,564,564,564,564,564,564,564,564,564,564,564,564,564,564,564,564,564,564,564,564,564,564,564,564,564,564,564,564,564,564,564,564,564,564,564,42,43,43,43,43,43,43,198,198,198,198,198,198,198,198,198,198,
198,198,198,198,198,198,198,198,198,198,198,198,198,199,498,498,498,498,498,498,498,498,498,498,498,498,498,498,498,498,498,498,498,498,498,498,498,498,498,498,498,498,498,498,498,498,498,498,498,498,498,498,498,498,498,498,498,498,498,498,498,498,498,197,198,198,198,43,43,43,43,43,44,564,564,564,564,564,564,564,564,564,564,564,564,564,564,564,564,564,564,564,564,564,564,564,564,564,564,564,564,564,564,564,564,564,564,564,564,564,564,42,43,43,43,43,43,43,198,198,198,198,198,198,198,198,198,198,
198,198,198,198,198,198,198,198,198,198,198,198,198,199,498,498,498,498,498,498,498,498,498,498,498,498,498,498,498,498,498,498,498,498,498,498,498,498,498,498,498,498,498,498,498,498,498,498,498,498,498,498,498,498,498,498,498,498,498,498,498,498,498,197,198,198,198,43,43,43,43,43,44,564,564,564,564,564,564,564,564,564,564,564,564,564,564,564,564,564,564,564,564,564,564,564,564,564,564,564,564,564,564,564,564,564,564,564,564,564,564,42,43,43,43,43,43,43,198,198,198,198,198,198,198,198,198,198,
198,198,198,198,198,198,198,198,198,198,198,198,198,199,498,498,498,498,498,498,498,498,498,498,498,498,498,498,498,498,498,498,498,498,498,498,498,498,498,498,498,498,498,498,498,498,498,498,498,498,498,498,498,498,498,498,498,498,498,498,498,498,498,197,198,198,198,43,43,43,43,43,44,564,564,564,564,564,564,564,564,564,564,564,564,564,564,564,564,564,564,564,564,564,564,564,564,564,564,564,564,564,564,564,564,564,564,564,564,564,564,42,43,43,43,43,43,43,43,198,198,198,198,198,198,198,198,198,
198,198,198,198,198,198,198,198,198,198,198,198,198,199,498,498,498,498,498,498,498,498,498,498,498,498,498,498,498,498,498,498,498,498,498,498,498,498,498,498,498,498,498,498,498,498,498,498,498,498,498,498,498,498,498,498,498,498,498,498,498,169,170,231,198,198,198,43,43,43,43,43,44,564,564,564,564,564,564,564,564,564,564,564,564,564,564,564,564,564,564,564,564,564,564,564,564,564,564,564,564,564,564,564,564,564,564,564,564,564,564,70,71,48,43,43,43,43,43,198,198,198,198,198,198,198,198,198,
198,198,198,198,198,198,198,198,198,198,198,198,198,230,170,171,498,498,498,498,498,498,498,498,498,498,498,498,498,498,498,498,498,498,498,498,498,498,498,498,498,498,498,498,498,498,498,498,498,498,498,498,498,498,498,498,498,498,498,498,498,197,198,198,198,198,198,43,43,47,71,71,72,564,564,564,564,564,564,564,564,564,564,564,564,564,564,564,564,564,564,564,564,564,564,564,564,564,564,564,564,564,564,564,564,564,564,564,564,564,564,564,564,42,43,43,43,43,43,198,198,198,198,198,198,198,198,198,
198,198,198,198,198,198,198,198,198,198,198,198,198,198,198,199,498,498,498,498,498,498,498,498,498,498,498,498,498,498,498,498,498,498,498,498,498,498,498,498,498,498,498,498,498,498,498,498,498,498,498,498,498,498,498,498,498,498,498,498,498,197,198,198,43,43,43,43,43,44,564,564,564,564,564,564,564,564,564,564,564,564,564,564,564,564,564,564,564,564,564,564,564,564,564,564,564,564,564,564,564,564,564,564,564,564,564,564,564,564,564,564,564,42,43,43,43,43,43,198,198,198,198,198,198,198,198,198,
198,198,198,198,198,198,198,198,198,198,198,198,198,198,198,199,498,498,498,498,498,498,498,498,498,498,498,498,498,498,498,498,498,498,498,498,498,498,498,498,498,498,498,498,498,498,498,498,498,498,498,498,498,498,498,498,498,498,498,498,498,197,198,198,43,43,43,43,43,44,564,564,564,564,564,564,564,564,564,564,564,564,564,564,564,564,564,564,564,564,564,564,564,564,564,564,564,564,564,564,564,564,564,564,564,564,564,564,564,564,564,564,564,42,43,43,43,43,43,198,198,198,198,198,198,198,198,198,
198,198,198,198,198,198,198,198,198,198,198,198,198,198,198,199,498,498,498,498,498,498,498,498,498,498,498,498,498,498,498,498,498,498,498,498,498,498,498,498,498,498,498,498,498,498,498,498,498,498,498,498,498,498,498,498,498,498,498,498,498,197,198,198,43,43,43,43,43,44,564,564,564,564,564,564,564,564,564,564,564,564,564,564,564,564,564,564,564,564,564,564,564,564,564,564,564,564,564,564,564,564,564,564,564,564,564,564,564,564,564,564,564,42,43,43,43,43,43,198,198,198,198,198,198,198,198,198,
198,198,198,198,198,198,198,198,198,198,198,198,198,198,198,199,498,498,498,498,498,498,498,498,498,498,498,498,498,498,498,498,498,498,498,498,498,498,498,498,498,498,498,498,498,498,498,498,498,498,498,498,498,498,498,498,498,498,498,498,498,197,198,198,43,43,47,71,71,72,564,564,564,564,564,564,564,564,564,564,564,564,564,564,564,564,564,564,564,564,564,564,564,564,564,564,564,564,564,564,564,564,564,564,564,564,564,564,564,564,564,564,564,42,43,43,43,43,43,198,198,198,198,198,198,198,198,198,
198,198,198,198,198,198,198,198,198,198,198,198,198,198,198,199,498,498,498,498,498,498,498,498,498,498,498,498,498,498,498,498,498,498,498,498,498,498,498,498,498,498,498,498,498,498,498,498,498,498,498,498,498,498,498,498,498,498,498,498,498,197,198,198,43,43,44,564,564,564,564,564,564,564,564,564,564,564,564,564,564,564,564,564,564,564,564,564,564,564,564,564,564,564,564,564,564,564,564,564,564,564,564,564,564,564,564,564,564,564,564,564,564,42,43,43,43,43,43,198,198,198,198,198,198,198,198,198,
198,198,198,198,198,198,198,198,198,198,198,198,198,198,198,199,498,498,498,498,498,498,498,498,498,498,498,498,498,498,498,498,498,498,498,498,498,498,498,498,498,498,498,498,498,498,498,498,498,498,498,498,498,498,498,498,498,498,498,498,498,197,198,198,43,43,44,564,564,564,564,564,564,564,564,564,564,564,564,564,564,564,564,564,564,564,564,564,564,564,564,564,564,564,564,564,564,564,564,564,564,564,564,564,564,564,564,564,564,564,564,564,564,42,43,43,43,43,43,198,198,198,198,198,198,198,198,198,
198,198,198,198,198,198,198,198,198,198,198,198,198,198,198,199,498,498,498,498,498,498,498,498,498,498,498,498,498,498,498,498,498,498,498,498,498,498,498,498,498,498,498,498,498,498,498,498,498,498,498,498,498,498,498,498,498,498,498,498,498,197,198,198,43,43,44,564,564,564,564,564,564,564,564,564,564,564,564,564,564,564,564,564,564,564,564,564,564,564,564,564,564,564,564,564,564,564,564,564,564,564,564,564,564,564,564,564,564,564,564,564,564,42,43,43,43,43,43,198,198,198,198,198,198,198,198,198,
198,198,198,198,198,198,198,198,198,198,198,198,198,198,198,199,498,498,498,498,498,498,498,498,498,498,498,498,498,498,498,498,498,498,498,498,498,498,498,498,498,498,498,498,498,498,498,498,498,498,498,498,498,498,498,498,498,498,498,498,498,197,198,198,43,43,44,564,564,564,564,564,564,564,564,564,564,564,564,564,564,564,564,564,564,564,564,564,564,564,564,564,564,564,564,564,564,564,564,564,564,564,564,564,564,564,564,564,564,564,564,564,564,42,43,43,43,43,43,43,198,198,198,198,198,198,198,198,
198,198,198,198,198,198,198,198,198,198,202,226,226,226,226,227,498,498,498,498,498,498,498,498,498,498,498,498,498,498,498,498,498,498,498,498,498,498,498,498,498,498,498,498,498,498,498,498,498,498,498,498,498,498,498,498,498,498,498,498,498,197,198,198,43,43,75,15,16,564,564,564,564,564,564,564,564,564,564,564,564,564,564,564,564,564,564,564,564,564,564,564,564,564,564,564,564,564,564,564,564,564,564,564,564,564,564,564,564,564,564,564,564,42,43,43,43,43,43,43,198,198,198,198,198,198,198,198,
198,198,198,198,198,198,198,198,198,198,199,498,498,498,498,498,498,498,498,498,498,498,498,498,498,498,498,498,498,498,498,498,498,498,498,498,498,498,498,498,498,498,498,498,498,498,498,498,498,498,498,498,498,498,498,498,498,498,498,498,498,197,198,198,43,43,43,43,44,564,564,564,564,564,564,564,564,564,564,564,564,564,564,564,564,564,564,564,564,564,564,564,564,564,564,564,564,564,564,564,564,564,564,564,564,564,564,564,564,564,564,564,564,70,71,48,43,43,43,43,198,198,198,198,198,198,198,198,
198,198,198,198,198,198,198,198,198,198,199,498,498,498,498,498,498,498,498,498,498,498,498,498,498,498,498,498,498,498,498,498,498,498,498,498,498,498,498,498,498,498,498,498,498,498,498,498,498,498,498,498,498,498,498,498,498,498,498,498,498,197,198,198,43,43,43,43,75,15,15,16,564,564,564,564,564,564,564,564,564,564,564,564,564,564,564,564,564,564,564,564,564,564,564,564,564,564,564,564,564,564,564,564,564,564,564,564,564,564,564,564,564,564,564,42,43,43,43,43,198,198,198,198,198,198,198,198,
198,198,198,198,198,198,198,198,198,198,199,498,498,498,498,498,498,498,498,498,498,498,498,498,498,498,498,498,498,498,498,498,498,498,498,498,498,498,498,498,498,498,498,498,498,498,498,498,498,498,498,498,498,498,498,498,498,498,498,498,498,197,198,198,198,198,198,43,43,43,43,44,564,564,564,564,564,564,564,564,564,564,564,564,564,564,564,564,564,564,564,564,564,564,564,564,564,564,564,564,564,564,564,564,564,564,564,564,564,564,564,564,564,564,564,42,43,43,43,43,198,198,198,198,198,198,198,198,
198,198,198,198,198,198,198,198,198,198,199,498,498,498,498,498,498,498,498,498,498,498,498,498,498,498,498,498,498,498,498,498,498,498,498,498,498,498,498,498,498,498,498,498,498,498,498,498,498,498,498,498,498,498,498,498,498,498,498,498,498,225,226,203,198,198,198,198,43,43,43,44,564,564,564,564,564,564,564,564,564,564,564,564,564,564,564,564,564,564,564,564,564,564,564,564,564,564,564,564,564,564,564,564,564,564,564,564,564,564,564,564,564,564,564,42,43,43,43,43,198,198,198,198,198,198,198,198,
198,198,198,198,198,198,198,198,198,198,199,498,498,498,498,498,498,498,498,498,498,498,498,498,498,498,498,498,498,498,498,498,498,498,498,498,498,498,498,498,498,498,498,498,498,498,498,498,498,498,498,498,498,498,498,498,498,498,498,498,498,498,498,197,198,198,198,198,43,43,43,44,564,564,564,564,564,564,564,564,564,564,564,564,564,564,564,564,564,564,564,564,564,564,564,564,564,564,564,564,564,564,564,564,564,564,564,564,564,564,564,564,564,564,564,42,43,43,43,43,198,198,198,198,198,198,198,198,
198,198,198,198,198,198,198,198,198,198,199,498,498,498,498,498,498,498,498,498,498,498,498,498,498,498,498,498,498,498,498,498,498,498,498,498,498,498,498,498,498,498,498,498,498,498,498,498,498,498,498,498,498,498,498,498,498,498,498,498,498,498,498,197,198,198,198,198,43,43,43,44,564,564,564,564,564,564,564,564,564,564,564,564,564,564,564,564,564,564,564,564,564,564,564,564,564,564,564,564,564,564,564,564,564,564,564,564,564,564,564,564,564,564,564,42,43,43,43,43,198,198,198,198,198,198,198,198,
198,198,198,198,198,198,198,198,198,198,199,498,498,498,498,498,498,498,498,498,498,498,498,498,498,498,498,498,498,498,498,498,498,498,498,498,498,498,498,498,498,498,498,498,498,498,498,498,498,498,498,498,498,498,498,498,498,498,498,498,498,498,498,197,198,198,43,43,43,43,43,44,564,564,564,564,564,564,564,564,564,564,564,564,564,564,564,564,564,564,564,564,564,564,564,564,564,564,564,564,564,564,564,564,564,564,564,564,564,564,564,564,564,564,564,42,43,43,43,43,198,198,198,198,198,198,198,198,
198,198,198,198,198,198,198,198,198,198,199,498,498,498,498,498,498,498,498,498,498,498,498,498,498,498,498,498,498,498,498,498,498,498,498,498,498,498,498,498,498,498,498,498,498,498,498,498,498,498,498,498,498,498,498,498,498,498,498,498,498,498,498,197,198,198,43,43,47,71,71,72,564,564,564,564,564,564,564,564,564,564,564,564,564,564,564,564,564,564,564,564,564,564,564,564,564,564,564,564,564,564,564,564,564,564,564,564,564,564,564,564,564,564,564,42,43,43,43,43,198,198,198,198,198,198,198,198,
198,198,198,198,198,198,198,198,198,198,199,498,498,498,498,498,498,498,498,498,498,498,498,498,498,498,498,498,498,498,498,498,498,498,498,498,498,498,498,498,498,498,337,338,338,338,339,498,498,498,498,498,498,498,498,498,498,498,498,498,498,498,498,197,198,198,43,43,44,564,564,564,564,564,14,15,15,15,15,15,15,15,15,15,15,15,15,16,564,564,564,564,564,564,564,564,564,564,564,564,564,564,564,564,564,564,14,15,15,15,15,15,15,15,15,76,43,43,43,43,198,198,198,198,198,198,198,198,
198,198,198,198,198,198,198,198,198,198,230,170,170,170,170,170,170,170,170,170,170,170,171,498,498,498,498,498,498,498,498,498,498,498,498,169,170,170,170,170,170,170,365,366,366,366,367,170,170,170,170,170,170,170,171,498,498,498,498,498,498,498,498,197,198,198,43,43,44,564,564,564,564,564,42,43,43,43,43,43,43,43,43,43,43,43,43,44,564,564,564,564,564,564,564,564,564,564,564,564,564,564,564,564,564,564,42,43,43,43,43,43,43,43,43,43,43,43,43,43,198,198,198,198,198,198,198,198,
198,198,198,198,198,198,198,198,198,198,198,198,198,198,198,198,198,198,198,198,198,198,199,498,498,498,498,498,498,498,498,498,498,498,498,197,198,198,198,198,198,198,365,366,366,366,367,198,198,198,198,198,198,198,230,170,170,170,170,170,170,170,170,231,198,198,43,43,75,15,15,15,15,15,76,43,43,43,43,43,43,43,43,43,43,43,43,44,564,564,564,564,564,564,337,338,338,338,339,564,564,564,564,564,564,564,42,43,43,43,43,43,43,43,43,43,43,43,43,43,198,198,198,198,198,198,198,198,
198,198,198,198,198,198,198,198,198,198,198,198,198,198,198,198,198,198,198,198,198,198,230,170,170,170,170,170,170,170,170,170,170,170,170,231,198,198,198,198,198,198,365,366,366,366,367,198,198,198,198,198,198,198,198,198,198,198,198,198,198,198,198,198,198,198,43,43,43,43,43,43,43,43,43,43,43,43,43,43,43,43,43,43,43,43,43,75,15,15,15,15,15,15,365,366,366,366,367,15,15,15,15,15,15,15,76,43,43,43,43,43,43,43,43,43,43,43,43,43,198,198,198,198,198,198,198,198,
198,198,198,198,198,198,198,198,198,198,198,198,198,198,198,198,198,198,198,198,198,198,198,198,198,198,198,198,198,198,198,198,198,198,198,198,198,198,198,198,198,198,365,366,366,366,367,198,198,198,198,198,198,198,198,198,198,198,198,198,198,198,198,198,198,198,43,43,43,43,43,43,43,43,43,43,43,43,198,198,198,198,43,43,43,43,43,43,43,43,43,43,43,43,365,366,366,366,367,43,43,43,43,43,43,43,43,43,43,43,43,43,43,43,43,43,43,43,43,43,198,198,198,198,198,198,198,198,
198,198,198,198,198,198,198,198,198,198,198,198,198,198,198,198,198,198,198,198,198,198,198,198,198,198,198,198,198,198,198,198,198,198,198,198,198,198,198,198,198,198,365,366,366,366,367,198,198,198,198,198,198,198,198,198,198,198,198,198,198,198,198,198,198,198,43,43,43,43,43,43,43,43,198,198,198,198,198,198,198,198,198,198,198,198,198,43,43,43,43,43,43,43,365,366,366,366,367,43,43,43,43,43,43,43,43,43,43,198,198,198,198,198,198,198,198,198,198,198,198,198,198,198,198,198,198,198,
198,198,198,198,198,198,198,198,198,198,198,198,34,58,58,58,58,58,58,35,198,198,198,198,198,198,198,198,198,198,198,198,198,198,198,198,198,198,198,198,198,198,365,366,366,366,367,198,198,198,198,198,198,198,198,198,198,198,198,198,198,198,198,198,198,198,198,198,198,198,198,198,198,198,198,198,198,198,198,198,198,198,198,198,198,198,198,43,43,43,43,43,43,43,365,366,366,366,367,43,43,43,43,43,43,43,43,198,198,198,198,198,198,198,198,198,198,198,198,198,198,198,198,198,198,198,198,198,
198,198,198,198,198,198,198,198,198,198,198,198,31,483,483,483,483,483,483,29,198,198,198,198,198,198,198,198,198,198,198,198,198,198,198,198,34,58,58,58,58,58,365,366,366,366,367,58,58,58,58,58,58,35,198,198,198,198,198,198,198,198,198,198,198,198,198,198,198,198,198,198,198,198,198,198,198,198,198,198,198,198,198,198,198,198,198,198,198,198,198,198,198,198,365,366,366,366,367,198,198,198,198,198,198,198,198,198,198,198,198,198,198,198,198,198,198,198,198,198,198,198,198,198,198,198,198,198,
198,198,198,198,198,198,198,198,198,198,198,198,31,483,483,483,483,483,483,29,198,198,198,198,198,198,198,198,198,198,198,198,198,198,198,198,31,483,483,483,483,483,393,394,394,394,395,483,483,483,483,483,483,29,198,198,198,198,198,198,198,198,198,198,198,198,198,198,198,198,198,198,198,198,198,34,58,58,58,58,58,58,58,58,58,58,35,198,198,198,198,198,198,198,365,366,366,366,367,198,198,198,198,198,198,198,198,34,58,58,58,58,58,58,58,58,58,35,198,198,198,198,198,198,198,198,198,198,
198,198,198,198,198,198,198,198,198,198,198,198,31,483,483,483,483,483,483,57,58,58,58,58,58,58,58,58,58,58,58,58,58,58,58,58,59,483,483,483,483,483,483,483,483,483,483,483,483,483,483,483,483,29,198,198,198,198,198,198,198,198,198,198,198,198,198,198,198,198,198,198,198,198,198,31,483,483,483,483,483,483,483,483,483,483,29,198,198,198,198,198,198,198,365,366,366,366,367,198,198,198,198,198,198,198,198,31,483,483,483,483,483,483,483,483,483,29,198,198,198,198,198,198,198,198,198,198,
198,198,198,198,198,198,198,198,198,198,198,198,31,483,483,483,483,483,483,483,483,483,483,483,483,483,483,483,483,483,483,483,483,483,483,483,483,483,483,483,483,483,483,483,483,483,483,483,483,483,483,483,483,57,58,58,58,58,58,58,58,58,58,58,35,198,198,198,198,198,198,198,198,198,198,31,483,483,483,483,483,483,483,483,483,483,57,58,58,58,58,58,58,58,365,366,366,366,367,58,58,58,58,58,58,58,58,59,483,483,483,483,483,483,483,483,483,29,198,198,198,198,198,198,198,198,198,198,
198,198,198,198,198,198,198,198,198,198,198,198,62,2,3,483,483,483,483,483,483,483,483,483,483,483,483,483,483,483,483,483,483,483,483,483,483,483,483,483,483,483,483,483,483,483,483,483,483,483,483,483,483,483,483,483,483,483,483,483,483,483,483,483,57,58,58,58,58,58,58,58,58,58,58,59,483,483,483,483,483,483,483,483,483,483,483,483,483,483,483,483,483,483,393,394,394,394,395,483,483,483,483,483,483,483,483,483,483,483,483,483,483,483,483,483,483,29,198,198,198,198,198,198,198,198,198,198,
198,198,198,198,198,198,198,198,198,198,198,198,198,198,31,483,483,483,483,483,483,483,483,483,483,483,483,483,483,483,483,483,483,483,483,483,483,483,483,483,483,483,483,483,483,483,483,483,483,483,483,483,483,483,483,483,483,483,483,483,483,483,483,483,483,483,483,483,483,483,483,483,483,483,483,483,483,483,483,483,483,483,483,483,483,483,483,483,483,483,483,483,483,483,483,483,483,483,483,483,483,483,483,483,483,483,483,483,483,483,483,483,483,483,483,483,483,29,198,198,198,198,198,198,198,198,198,198,
198,198,198,198,198,198,198,198,198,198,198,198,198,198,31,483,483,483,483,483,483,483,483,483,483,483,483,483,483,483,483,483,483,483,483,483,483,483,483,483,483,483,483,483,483,483,483,483,483,483,483,483,483,483,483,483,483,483,483,483,483,483,483,483,483,483,483,483,483,483,483,483,483,483,483,483,483,483,483,483,483,483,483,483,483,483,483,483,483,483,483,483,483,483,483,483,483,483,483,483,483,483,483,483,483,483,483,483,483,483,483,483,483,483,483,1,2,63,198,198,198,198,198,198,198,198,198,198,
198,198,198,198,198,198,198,198,198,198,198,198,198,198,31,483,483,483,483,483,483,483,483,483,483,483,483,483,483,483,483,483,483,483,483,483,483,483,483,483,483,483,483,483,483,483,483,483,483,483,483,483,483,483,483,483,483,483,483,483,483,483,483,483,483,483,483,483,483,483,483,483,483,483,483,483,483,483,483,483,483,483,483,483,483,483,483,483,483,483,483,483,483,483,483,483,483,483,483,483,483,483,483,483,483,483,483,483,483,483,483,483,483,483,483,29,198,198,198,198,198,198,198,198,198,198,198,198,
198,198,198,198,198,198,198,198,198,198,198,198,198,198,31,483,483,483,483,483,483,483,483,483,483,483,483,483,483,483,483,483,483,483,483,483,483,483,483,483,483,483,483,483,483,483,483,483,483,483,483,483,483,483,483,483,483,483,483,483,483,483,483,483,483,483,483,483,483,483,483,483,483,483,483,483,483,483,483,483,483,483,483,483,483,483,483,483,483,483,483,483,483,483,483,483,483,483,483,483,483,483,483,483,483,483,483,483,483,483,483,483,483,483,483,29,198,198,198,198,198,198,198,198,198,198,198,198,
198,198,198,198,198,198,198,198,198,198,198,198,198,198,31,483,483,483,483,483,483,483,483,483,483,483,483,483,483,483,483,483,483,483,483,483,483,483,483,483,483,483,483,483,483,483,483,483,483,483,483,483,483,483,483,483,483,483,483,483,483,483,483,483,483,483,483,483,483,483,483,483,483,483,483,483,483,483,483,483,483,483,483,483,483,483,483,483,483,483,483,483,483,483,483,483,483,483,483,483,483,483,483,483,483,483,483,483,483,483,483,483,483,483,483,29,198,198,198,198,198,198,198,198,198,198,198,198,
198,198,198,198,198,198,198,198,198,198,198,198,198,198,31,483,483,483,483,483,483,483,483,483,483,483,483,483,483,483,483,483,483,483,483,483,483,483,483,483,483,483,483,483,483,483,483,483,483,483,483,483,483,483,483,483,483,483,483,483,483,483,483,483,483,483,483,483,483,483,483,483,483,483,483,483,483,483,483,483,483,483,483,483,483,483,483,483,483,483,483,483,483,483,483,483,483,483,483,483,483,483,483,483,483,483,483,483,483,483,483,483,483,483,483,29,198,198,198,198,198,198,198,198,198,198,198,198,
198,198,198,198,198,198,198,198,198,198,198,198,198,198,31,483,483,483,483,483,483,483,483,483,483,483,483,483,483,483,483,483,483,483,483,483,483,483,483,483,483,483,483,483,483,483,483,483,483,483,483,483,483,483,483,483,483,483,483,483,483,483,483,483,483,483,483,483,483,483,483,483,483,483,483,483,483,483,483,483,483,483,483,483,483,483,483,483,483,483,483,483,483,483,483,483,483,483,483,483,483,483,483,483,483,483,483,483,483,483,483,483,483,483,483,29,198,198,198,198,198,198,198,198,198,198,198,198,
198,198,198,198,198,198,198,198,198,198,198,198,198,198,31,483,483,483,483,483,483,483,483,483,483,483,483,483,483,483,483,483,483,483,483,483,483,483,483,483,483,483,483,483,483,483,483,483,483,483,483,483,483,483,483,483,483,483,483,483,483,483,483,483,483,483,483,483,483,483,483,483,483,483,483,483,483,483,483,483,483,483,483,483,483,483,483,483,483,483,483,483,483,483,483,483,483,483,483,483,483,483,483,483,483,483,483,483,483,483,483,483,483,483,483,29,198,198,198,198,198,198,198,198,198,198,198,198,
198,198,198,198,198,198,198,198,198,198,34,58,58,58,59,483,483,483,483,483,483,483,483,483,483,483,483,483,483,483,483,483,483,483,483,483,483,483,483,483,483,483,483,483,483,483,483,483,483,483,483,483,483,483,483,483,483,483,483,483,483,483,483,483,483,483,483,483,483,483,483,483,483,483,483,483,483,483,483,483,483,483,483,483,483,483,483,483,483,483,483,483,483,483,483,483,483,483,483,483,483,483,483,483,483,483,483,483,483,483,483,483,483,483,483,29,198,198,198,198,198,198,198,198,198,198,198,198,
198,198,198,198,198,198,198,198,198,198,31,483,483,483,483,483,483,483,483,483,483,483,483,483,483,483,483,483,483,483,483,483,483,483,483,483,483,483,483,483,483,483,483,483,483,483,483,483,483,483,483,483,483,483,483,483,483,483,483,483,483,483,483,483,483,483,483,483,483,483,483,483,483,483,483,483,483,483,483,483,483,483,483,483,483,483,483,483,483,483,483,483,483,483,483,483,483,483,483,483,483,483,483,483,483,483,483,483,483,483,483,483,483,483,483,29,198,198,198,198,198,198,198,198,198,198,198,198,
198,198,198,198,198,198,198,198,198,198,31,483,483,483,483,483,483,483,483,483,483,483,483,483,483,483,483,483,483,483,483,483,483,483,483,483,483,483,483,483,483,483,483,483,483,483,483,483,483,483,483,483,483,483,483,483,483,483,483,483,483,483,483,483,483,483,483,483,483,483,483,483,483,483,483,483,483,483,483,483,483,483,483,483,483,483,483,483,483,483,483,483,483,483,483,483,483,483,483,483,483,483,483,483,483,483,483,483,483,483,483,483,483,483,483,57,58,35,198,198,198,198,198,198,198,198,198,198,
198,198,198,198,198,198,198,198,198,198,31,483,483,483,483,483,483,483,483,483,483,483,483,483,483,483,483,483,483,483,483,483,483,483,483,483,483,483,483,483,483,483,483,483,483,483,483,483,483,483,483,483,483,483,483,483,483,483,483,483,483,483,483,483,483,483,483,483,483,483,483,483,483,483,483,483,483,483,483,483,483,483,483,483,483,483,483,483,483,483,483,483,483,483,483,483,483,483,483,483,483,483,483,483,483,483,483,483,483,483,483,483,483,483,483,483,483,29,198,198,198,198,198,198,198,198,198,198,
198,198,198,198,198,198,198,198,198,198,62,2,2,2,2,2,3,483,483,483,483,483,483,483,483,483,483,483,483,483,483,483,483,483,483,483,483,483,483,483,483,483,483,483,483,483,483,483,483,483,483,483,483,483,483,483,483,483,483,483,483,483,483,483,483,483,483,483,483,483,483,483,483,483,483,483,483,483,483,483,483,483,483,483,483,483,483,483,483,483,483,483,483,483,483,483,483,483,483,483,483,483,483,483,483,483,483,483,483,483,483,483,483,1,2,2,2,63,198,198,198,198,198,198,198,198,198,198,
198,198,198,198,198,198,198,198,198,198,198,198,198,198,198,198,31,483,483,483,483,483,483,483,483,483,483,483,483,483,483,483,483,483,483,483,483,483,483,483,483,483,483,483,483,483,483,483,483,483,483,483,483,483,483,483,483,483,483,483,483,483,483,483,483,483,483,483,483,483,483,483,483,483,483,483,483,483,483,483,483,483,483,483,483,483,483,483,483,483,483,483,483,483,483,483,483,483,483,483,483,483,483,483,483,483,483,483,483,483,483,483,483,29,198,198,198,198,198,198,198,198,198,198,198,198,198,198,
198,198,198,198,198,198,198,198,198,198,198,198,198,198,198,198,31,483,483,483,483,483,483,483,483,483,483,483,483,483,483,483,483,483,483,483,483,483,483,483,483,483,483,483,483,483,483,483,483,483,483,483,483,483,483,483,483,483,483,483,483,483,483,483,483,483,483,483,483,483,483,483,483,483,483,483,483,483,483,483,483,483,483,483,483,483,483,483,483,483,483,483,483,483,483,483,483,483,483,483,483,483,483,483,483,483,483,483,483,483,483,483,483,29,198,198,198,198,198,198,198,198,198,198,198,198,198,198,
198,198,198,198,198,198,198,198,198,198,198,198,198,198,198,198,31,483,483,483,483,483,483,483,483,483,483,483,483,483,483,483,483,483,483,483,483,483,483,483,483,483,483,483,483,483,483,483,483,483,483,483,483,483,483,483,483,483,483,483,483,483,483,483,483,483,483,483,483,483,483,483,483,483,483,483,483,483,483,483,483,483,483,483,483,483,483,483,483,483,483,483,483,483,483,483,483,483,483,483,483,483,483,483,483,483,483,483,483,483,483,483,483,29,198,198,198,198,198,198,198,198,198,198,198,198,198,198,
198,198,198,198,198,198,198,198,198,198,198,198,198,198,198,198,31,483,483,483,483,483,483,483,483,483,483,483,483,483,483,483,483,483,483,483,483,483,483,483,483,483,483,483,483,483,483,483,483,483,483,483,483,483,483,483,483,483,483,483,483,483,483,483,483,483,483,483,483,483,483,483,483,483,483,483,483,483,483,483,483,483,483,483,483,483,483,483,483,483,483,483,483,483,483,483,483,483,483,483,483,483,483,483,483,483,483,483,483,483,483,483,483,29,198,198,198,198,198,198,198,198,198,198,198,198,198,198,
198,198,198,198,198,198,198,198,198,198,198,198,198,198,198,198,31,483,483,483,483,483,483,483,483,483,483,483,483,483,483,483,483,483,483,483,483,483,483,483,483,483,483,483,483,483,483,483,483,483,483,483,483,483,483,483,483,483,483,483,483,483,483,483,483,483,483,483,483,483,483,483,483,483,483,483,483,483,483,483,483,483,483,483,483,483,483,483,483,483,483,483,483,483,483,483,483,483,483,483,483,483,483,483,483,483,483,483,483,483,483,483,483,29,198,198,198,198,198,198,198,198,198,198,198,198,198,198,
198,198,198,198,198,198,198,198,198,198,198,198,34,58,58,58,59,483,483,483,483,483,483,483,483,483,483,483,483,483,483,483,483,483,483,483,483,483,483,483,483,483,483,483,483,483,483,483,483,483,483,483,483,483,483,483,483,483,483,483,483,483,483,483,483,483,483,483,483,483,483,483,483,483,483,483,483,483,483,483,483,483,483,483,483,483,483,483,483,483,483,483,483,483,483,483,483,483,483,483,483,483,483,483,483,483,483,483,483,483,483,483,483,29,198,198,198,198,198,198,198,198,198,198,198,198,198,198,
198,198,198,198,198,198,198,198,198,198,198,198,31,483,483,483,483,483,483,483,483,483,483,483,483,483,483,483,483,483,483,483,483,483,483,483,483,483,483,483,483,483,483,483,483,483,483,483,483,483,483,483,483,483,483,483,483,483,483,483,483,483,1,2,2,2,2,2,2,2,2,2,2,2,2,2,2,2,2,2,2,2,2,2,2,2,2,2,2,2,2,2,2,2,2,3,483,483,483,483,483,483,483,483,483,483,483,483,483,483,483,483,483,29,198,198,198,198,198,198,198,198,198,198,198,198,198,198,
198,198,198,198,198,198,198,198,198,198,198,198,31,483,483,483,483,483,483,483,483,483,483,483,483,483,483,483,483,483,483,483,483,483,483,483,483,483,483,483,483,483,483,483,483,483,483,483,483,483,483,483,483,483,483,483,483,483,483,483,483,483,29,198,198,198,198,198,198,198,198,198,198,198,198,198,198,198,198,198,198,198,198,198,198,198,198,198,198,198,198,198,198,198,198,31,483,483,483,483,483,483,483,483,483,483,483,483,483,483,483,483,483,29,198,198,198,198,198,198,198,198,198,198,198,198,198,198,
198,198,198,198,198,198,198,198,198,198,198,198,31,483,483,483,483,483,483,483,483,483,483,483,483,483,483,483,483,483,483,483,1,2,2,2,2,2,2,2,2,2,2,2,2,2,2,2,2,2,2,2,2,2,2,2,2,2,2,2,2,2,63,198,198,198,198,198,198,198,198,198,198,198,198,198,198,198,198,198,198,198,198,198,198,198,198,198,198,198,198,198,198,198,198,31,483,483,483,483,483,483,483,483,483,483,483,483,483,483,483,483,483,57,58,58,58,35,198,198,198,198,198,198,198,198,198,198,
198,198,198,198,198,198,198,198,198,198,198,198,62,2,2,2,3,483,483,483,483,483,483,483,483,483,483,483,483,483,483,483,29,198,198,198,198,198,198,198,198,198,198,198,198,198,198,198,198,198,198,198,198,198,198,198,198,198,198,198,198,198,198,198,198,198,198,198,198,198,198,198,198,198,198,198,198,198,198,198,198,198,198,198,198,198,198,198,198,198,198,198,198,198,198,31,483,483,483,483,483,483,483,483,483,483,483,483,483,483,483,483,483,483,483,483,483,29,198,198,198,198,198,198,198,198,198,198,
198,198,198,198,198,198,198,198,198,198,198,198,198,198,198,198,31,483,483,483,483,483,483,483,483,483,483,483,483,483,483,483,29,198,198,198,198,198,198,198,198,198,198,198,198,198,198,198,198,198,198,198,198,198,198,198,198,198,198,198,198,198,198,198,198,198,198,198,198,198,198,198,198,198,198,198,198,198,198,198,198,198,198,198,198,198,198,198,198,198,198,198,198,198,198,31,483,483,483,483,483,483,483,483,483,483,483,483,483,483,483,483,483,483,483,483,483,29,198,198,198,198,198,198,198,198,198,198,
198,198,198,198,198,198,198,198,198,198,198,198,198,198,198,198,62,2,2,2,2,2,2,2,2,2,2,2,2,2,2,2,63,198,198,198,198,198,198,198,198,198,198,198,198,198,198,198,198,198,198,198,198,198,198,198,198,198,198,198,198,198,198,198,198,198,198,198,198,198,198,198,198,198,198,198,198,198,198,198,198,198,198,198,198,198,198,198,198,198,198,198,198,198,198,62,2,2,2,2,2,2,2,2,2,2,2,2,2,2,2,2,2,2,2,2,2,63,198,198,198,198,198,198,198,198,198,198,
198,198,198,198,198,198,198,198,198,198,198,198,198,198,198,198,198,198,198,198,198,198,198,198,198,198,198,198,198,198,198,198,198,198,198,198,198,198,198,198,198,198,198,198,198,198,198,198,198,198,198,198,198,198,198,198,198,198,198,198,198,198,198,198,198,198,198,198,198,198,198,198,198,198,198,198,198,198,198,198,198,198,198,198,198,198,198,198,198,198,198,198,198,198,198,198,198,198,198,198,198,198,198,198,198,198,198,198,198,198,198,198,198,198,198,198,198,198,198,198,198,198,198,198,198,198,198,198,
198,198,198,198,198,198,198,198,198,198,198,198,198,198,198,198,198,198,198,198,198,198,198,198,198,198,198,198,198,198,198,198,198,198,198,198,198,198,198,198,198,198,198,198,198,198,198,198,198,198,198,198,198,198,198,198,198,198,198,198,198,198,198,198,198,198,198,198,198,198,198,198,198,198,198,198,198,198,198,198,198,198,198,198,198,198,198,198,198,198,198,198,198,198,198,198,198,198,198,198,198,198,198,198,198,198,198,198,198,198,198,198,198,198,198,198,198,198,198,198,198,198,198,198,198,198,198,198,
198,198,198,198,198,198,198,198,198,198,198,198,198,198,198,198,198,198,198,198,198,198,198,198,198,198,198,198,198,198,198,198,198,198,198,198,198,198,198,198,198,198,198,198,198,198,198,198,198,198,198,198,198,198,198,198,198,198,198,198,198,198,198,198,198,198,198,198,198,198,198,198,198,198,198,198,198,198,198,198,198,198,198,198,198,198,198,198,198,198,198,198,198,198,198,198,198,198,198,198,198,198,198,198,198,198,198,198,198,198,198,198,198,198,198,198,198,198,198,198,198,198,198,198,198,198,198,198,
198,198,198,198,198,198,198,198,198,198,198,198,198,198,198,198,198,198,198,198,198,198,198,198,198,198,198,198,198,198,198,198,198,198,198,198,198,198,198,198,198,198,198,198,198,198,198,198,198,198,198,198,198,198,198,198,198,198,198,198,198,198,198,198,198,198,198,198,198,198,198,198,198,198,198,198,198,198,198,198,198,198,198,198,198,198,198,198,198,198,198,198,198,198,198,198,198,198,198,198,198,198,198,198,198,198,198,198,198,198,198,198,198,198,198,198,198,198,198,198,198,198,198,198,198,198,198,198,
198,198,198,198,198,198,198,198,198,198,198,198,198,198,198,198,198,198,198,198,198,198,198,198,198,198,198,198,198,198,198,198,198,198,198,198,198,198,198,198,198,198,198,198,198,198,198,198,198,198,198,198,198,198,198,198,198,198,198,198,198,198,198,198,198,198,198,198,198,198,198,198,198,198,198,198,198,198,198,198,198,198,198,198,198,198,198,198,198,198,198,198,198,198,198,198,198,198,198,198,198,198,198,198,198,198,198,198,198,198,198,198,198,198,198,198,198,198,198,198,198,198,198,198,198,198,198,198,
198,198,198,198,198,198,198,198,198,198,198,198,198,198,198,198,198,198,198,198,198,198,198,198,198,198,198,198,198,198,198,198,198,198,198,198,198,198,198,198,198,198,198,198,198,198,198,198,198,198,198,198,198,198,198,198,198,198,198,198,198,198,198,198,198,198,198,198,198,198,198,198,198,198,198,198,198,198,198,198,198,198,198,198,198,198,198,198,198,198,198,198,198,198,198,198,198,198,198,198,198,198,198,198,198,198,198,198,198,198,198,198,198,198,198,198,198,198,198,198,198,198,198,198,198,198,198,198,
198,198,198,198,198,198,198,198,198,198,198,198,198,198,198,198,198,198,198,198,198,198,198,198,198,198,198,198,198,198,198,198,198,198,198,198,198,198,198,198,198,198,198,198,198,198,198,198,198,198,198,198,198,198,198,198,198,198,198,198,198,198,198,198,198,198,198,198,198,198,198,198,198,198,198,198,198,198,198,198,198,198,198,198,198,198,198,198,198,198,198,198,198,198,198,198,198,198,198,198,198,198,198,198,198,198,198,198,198,198,198,198,198,198,198,198,198,198,198,198,198,198,198,198,198,198,198,198,
198,198,198,198,198,198,198,198,198,198,198,198,198,198,198,198,198,198,198,198,198,198,198,198,198,198,198,198,198,198,198,198,198,198,198,198,198,198,198,198,198,198,198,198,198,198,198,198,198,198,198,198,198,198,198,198,198,198,198,198,198,198,198,198,198,198,198,198,198,198,198,198,198,198,198,198,198,198,198,198,198,198,198,198,198,198,198,198,198,198,198,198,198,198,198,198,198,198,198,198,198,198,198,198,198,198,198,198,198,198,198,198,198,198,198,198,198,198,198,198,198,198,198,198,198,198,198,198,
198,198,198,198,198,198,198,198,198,198,198,198,198,198,198,198,198,198,198,198,198,198,198,198,198,198,198,198,198,198,198,198,198,198,198,198,198,198,198,198,198,198,198,198,198,198,198,198,198,198,198,198,198,198,198,198,198,198,198,198,198,198,198,198,198,198,198,198,198,198,198,198,198,198,198,198,198,198,198,198,198,198,198,198,198,198,198,198,198,198,198,198,198,198,198,198,198,198,198,198,198,198,198,198,198,198,198,198,198,198,198,198,198,198,198,198,198,198,198,198,198,198,198,198,198,198,198,198,
198,198,198,198,198,198,198,198,198,198,198,198,198,198,198,198,198,198,198,198,198,198,198,198,198,198,198,198,198,198,198,198,198,198,198,198,198,198,198,198,198,198,198,198,198,198,198,198,198,198,198,198,198,198,198,198,198,198,198,198,198,198,198,198,198,198,198,198,198,198,198,198,198,198,198,198,198,198,198,198,198,198,198,198,198,198,198,198,198,198,198,198,198,198,198,198,198,198,198,198,198,198,198,198,198,198,198,198,198,198,198,198,198,198,198,198,198,198,198,198,198,198,198,198,198,198,198,198
</data>
 </layer>
 <layer id="8" name="FloorDetail" width="128" height="128">
  <data encoding="csv">
0,0,0,0,0,0,0,0,0,0,0,0,0,0,0,0,0,0,0,0,0,0,0,0,0,0,0,0,0,0,0,0,0,0,0,0,0,0,0,0,0,0,0,0,0,0,0,0,0,0,0,0,0,0,0,0,0,0,0,0,0,0,0,0,0,0,0,0,0,0,0,0,0,0,0,0,0,0,0,0,0,0,0,0,0,0,0,0,0,0,0,0,0,0,0,0,0,0,0,0,0,0,0,0,0,0,0,0,0,0,0,0,0,0,0,0,0,0,0,0,0,0,0,0,0,0,0,0,
0,0,0,0,0,0,0,0,0,0,0,0,0,0,0,0,0,0,0,0,0,0,0,0,0,0,0,0,0,0,0,0,0,0,0,0,0,0,0,0,0,0,0,0,0,0,0,0,0,0,0,0,0,0,0,0,0,0,0,0,0,0,0,0,0,0,0,0,0,0,0,0,0,0,0,0,0,0,0,0,0,0,0,0,0,0,0,0,0,0,0,0,0,0,0,0,0,0,0,0,0,0,0,0,0,0,0,0,0,0,0,0,0,0,0,0,0,0,0,0,0,0,0,0,0,0,0,0,
0,0,0,0,0,0,0,0,0,0,0,0,0,0,0,0,0,0,0,0,0,0,0,0,0,0,0,0,0,0,0,0,0,0,0,0,0,0,0,0,0,0,0,0,0,0,0,0,0,0,0,0,0,0,0,0,0,0,0,0,0,0,0,0,0,0,0,0,0,0,0,0,0,0,0,0,0,0,0,0,0,0,0,0,0,0,0,0,0,0,0,0,0,0,0,0,0,0,0,0,0,0,0,0,0,0,0,0,0,0,0,0,0,0,0,0,0,0,0,0,0,0,0,0,0,0,0,0,
0,0,0,0,0,0,0,0,0,0,0,0,0,0,0,0,0,0,0,0,0,0,0,0,0,0,0,0,0,0,0,0,0,0,0,0,0,0,0,0,0,0,0,0,0,0,0,0,0,0,0,0,0,0,0,0,0,0,0,0,0,0,0,0,0,0,0,0,0,0,0,0,0,0,0,0,0,0,0,0,0,0,0,0,0,0,0,0,0,0,0,0,0,0,0,0,0,0,0,0,0,0,0,0,0,0,0,0,0,0,0,0,0,0,0,0,0,0,0,0,0,0,0,0,0,0,0,0,
0,0,0,0,0,0,0,0,0,0,0,0,0,0,0,0,0,0,0,0,0,0,0,0,0,0,0,0,0,0,0,0,0,0,0,0,0,0,0,0,0,0,0,0,0,0,0,0,0,0,0,0,0,0,0,0,0,0,0,0,0,0,0,0,0,0,0,0,0,0,0,0,0,0,0,0,0,0,0,0,0,0,0,0,0,0,0,0,0,0,0,0,0,0,0,0,0,0,0,0,0,0,0,0,0,0,0,0,0,0,0,0,0,0,0,0,0,0,0,0,0,0,0,0,0,0,0,0,
0,0,0,0,0,0,0,0,0,0,0,0,0,0,0,0,0,0,0,0,0,0,0,0,0,0,0,0,0,0,0,0,0,0,0,0,0,0,0,0,0,0,0,0,0,0,0,0,0,0,0,0,0,0,0,0,0,0,0,0,0,0,0,0,0,0,0,0,0,0,0,0,0,0,0,0,0,0,0,0,0,0,0,0,0,0,0,0,0,0,0,0,0,0,0,0,0,0,0,0,0,0,0,0,0,0,0,0,0,0,0,0,0,0,0,0,0,0,0,0,0,0,0,0,0,0,0,0,
0,0,0,0,0,0,0,0,0,0,0,0,0,0,0,0,0,0,0,0,0,0,0,0,0,0,0,0,0,0,0,0,0,630,631,631,631,631,631,631,631,631,631,632,0,0,0,0,0,0,0,0,0,0,0,0,0,0,0,0,0,0,0,0,0,0,0,0,0,0,0,0,0,0,0,0,0,0,0,0,0,0,0,0,0,0,0,0,0,0,0,0,0,0,0,0,0,0,0,0,0,0,0,0,0,0,0,0,0,0,0,0,0,0,0,0,0,0,0,0,0,0,0,0,0,0,0,0,
0,0,0,0,0,0,0,0,0,0,0,0,0,0,0,0,0,0,0,0,0,0,0,0,0,0,0,0,0,0,0,0,0,650,0,0,0,0,0,0,0,0,0,652,0,0,0,0,0,0,0,0,0,0,0,0,0,0,0,0,0,0,0,0,0,0,0,0,0,0,0,0,0,0,0,0,0,0,0,0,0,0,0,0,0,0,0,0,0,0,0,0,0,0,0,0,0,0,0,0,0,0,0,0,0,0,0,0,0,0,0,0,0,0,0,0,0,0,0,0,0,0,0,0,0,0,0,0,
0,0,0,0,0,0,0,0,0,0,0,0,0,0,0,0,0,0,0,0,0,0,0,0,0,0,0,0,0,0,0,630,631,689,0,0,0,0,0,0,0,0,0,690,631,632,0,0,0,0,0,0,0,0,0,0,0,0,0,0,0,0,0,0,0,0,0,0,0,0,0,0,0,0,0,0,0,0,0,0,0,0,0,0,0,0,0,0,0,0,0,0,0,0,0,0,0,0,0,0,0,0,0,0,0,0,0,0,0,0,0,0,0,0,0,0,0,0,0,0,0,0,0,0,0,0,0,0,
0,0,0,0,0,0,0,0,0,0,0,0,0,0,0,0,0,0,0,0,0,0,0,0,0,0,0,0,0,0,0,650,0,0,0,0,0,0,0,0,0,0,0,0,0,652,0,0,0,0,0,0,0,0,0,0,0,0,0,0,0,0,0,0,0,0,0,0,0,0,0,0,0,0,0,0,0,0,0,0,0,0,0,0,0,0,0,0,0,0,0,0,0,0,0,0,0,0,0,0,0,0,0,0,0,0,0,0,0,0,0,0,0,0,0,0,0,0,0,0,0,0,0,0,0,0,0,0,
0,0,0,0,0,0,0,0,0,0,0,0,0,0,0,0,0,0,0,0,0,0,0,0,0,0,0,0,0,0,0,650,0,0,0,0,0,0,0,0,0,0,0,0,0,652,0,0,0,0,0,0,0,0,0,0,0,0,0,0,0,0,0,0,0,0,0,0,0,0,0,0,0,0,0,0,0,0,0,0,0,0,0,0,0,0,0,0,0,0,0,0,0,0,0,0,0,0,0,0,0,0,0,0,0,0,0,0,0,0,0,0,0,0,0,0,0,0,0,0,0,0,0,0,0,0,0,0,
0,0,0,0,0,0,0,0,0,0,0,0,0,0,0,0,0,0,0,0,0,0,0,0,0,0,0,0,0,0,0,650,0,0,0,0,0,0,0,0,0,0,0,0,0,652,0,0,0,0,0,0,0,0,0,1663,0,0,0,0,0,0,0,0,0,0,0,0,0,0,0,0,0,0,0,0,0,0,0,0,0,0,0,0,0,0,0,0,0,0,0,0,0,0,0,0,0,0,0,0,0,0,0,0,0,0,0,0,0,0,0,0,0,0,0,0,0,0,0,0,0,0,0,0,0,0,0,0,
0,0,0,0,0,0,0,0,0,0,0,0,0,0,0,0,0,0,0,0,0,0,0,0,1664,0,0,0,0,0,0,650,0,0,0,0,0,0,0,0,0,0,0,0,0,652,0,0,0,0,0,0,0,0,0,0,0,0,0,0,0,0,0,0,0,0,0,0,0,0,0,0,0,0,0,0,0,0,0,0,0,0,0,0,0,0,0,0,0,0,0,0,0,0,0,0,0,0,0,0,0,0,0,0,0,0,0,0,0,0,0,0,0,0,0,0,0,0,0,0,0,0,0,0,0,0,0,0,
0,0,0,0,0,0,0,0,0,0,0,0,0,0,1663,0,0,1665,0,0,0,0,0,0,0,0,0,0,0,0,0,650,0,0,0,0,0,0,0,0,0,0,0,0,0,652,0,0,0,0,0,0,0,1661,0,0,0,0,0,0,0,0,0,0,0,0,0,0,0,0,0,0,0,0,0,0,0,0,0,0,0,0,0,0,0,0,0,0,0,0,0,0,0,0,0,0,0,0,0,0,0,0,0,0,0,0,0,0,0,0,0,0,0,0,0,0,0,0,0,0,0,0,0,0,0,0,0,0,
0,0,0,0,0,0,0,0,0,0,0,0,0,0,0,0,0,0,1982,1983,1983,1984,1663,0,0,0,0,0,0,0,0,0,0,0,0,0,1506,1507,1507,1507,1508,0,0,0,0,0,0,0,0,0,0,0,0,0,0,1982,1983,1984,0,0,0,0,0,0,0,0,0,0,0,0,0,0,0,0,0,0,0,0,0,0,0,0,0,0,0,0,0,0,0,0,0,0,0,0,0,0,0,0,0,0,0,0,0,0,0,2139,0,0,0,0,0,0,0,0,0,0,0,0,0,0,0,0,0,0,0,0,0,0,
0,0,0,0,0,0,0,0,0,0,0,0,0,0,0,0,0,0,2026,2027,2010,2006,0,0,0,0,0,0,0,0,0,0,0,0,0,0,0,0,0,0,0,0,0,0,0,0,0,0,0,0,0,0,0,0,0,2004,2005,2028,0,0,1663,0,0,0,0,0,0,0,0,0,0,0,0,2136,2137,2137,2137,2137,2138,0,0,0,0,0,0,0,0,0,0,0,0,0,0,0,0,0,0,0,0,0,0,0,0,0,0,2161,0,0,0,0,0,0,0,0,0,0,0,0,0,0,0,0,0,0,0,0,0,0,
0,0,0,0,0,0,0,0,0,0,0,0,0,0,0,0,0,0,0,0,2004,2006,0,0,0,0,0,0,0,0,0,0,0,0,0,0,0,0,0,0,0,0,0,0,0,0,0,0,0,0,0,0,0,0,0,2004,2006,0,0,0,0,0,0,0,0,0,0,0,0,0,0,0,0,2158,2159,2159,2159,2159,2160,0,0,0,0,0,0,0,0,0,0,0,0,0,0,0,0,0,0,0,0,0,0,0,0,0,0,2161,0,0,0,0,0,0,0,0,0,0,0,0,0,0,0,0,0,0,0,0,0,0,
0,0,0,0,0,0,0,0,0,0,0,0,0,0,0,0,0,0,1661,0,2004,2006,0,0,0,0,0,0,0,0,0,0,0,0,0,0,0,0,0,0,0,0,0,0,0,0,0,0,0,0,0,0,0,0,0,2004,2006,0,0,0,0,0,0,0,0,0,0,0,0,0,0,0,0,2158,2159,2159,2159,2159,2160,0,0,0,0,0,0,0,0,0,0,0,0,0,0,0,0,0,0,0,0,0,0,0,0,1683,0,2161,0,0,0,0,0,0,0,0,0,0,0,0,0,0,0,0,0,0,0,0,0,0,
0,0,0,0,0,0,0,0,0,0,0,0,0,0,0,0,0,0,0,0,2004,2006,0,1664,0,0,0,0,0,0,0,0,0,0,0,0,0,0,0,0,0,0,0,0,0,0,0,0,0,0,0,0,1663,0,0,2004,2006,0,0,0,0,0,0,0,0,0,0,0,0,0,0,0,0,2180,2181,2164,2163,2181,2182,0,0,0,0,0,0,0,0,0,0,0,0,0,0,0,0,0,0,0,0,0,0,0,0,0,0,2161,0,0,0,0,0,0,0,0,0,0,0,0,0,0,0,0,0,0,0,0,0,0,
0,0,0,0,0,0,0,0,0,0,0,0,0,0,0,0,0,0,0,0,2004,2006,0,0,0,0,0,0,0,0,0,0,0,0,0,0,0,0,0,0,0,0,0,0,0,0,0,0,0,0,0,0,0,0,0,2004,2006,0,0,0,0,0,0,0,0,0,0,0,0,0,0,0,0,0,0,2158,2160,0,0,0,0,0,0,0,0,0,0,0,0,0,0,0,0,0,0,1679,0,0,0,0,0,2140,2203,2203,2203,2182,0,0,0,0,0,0,0,0,0,0,0,0,0,0,0,0,0,0,0,0,0,0,
0,0,0,0,0,0,0,0,0,0,0,0,0,0,0,0,0,0,0,0,2004,2006,0,0,0,0,0,0,0,0,0,0,0,0,0,0,1572,1573,1573,1573,1574,0,0,0,0,0,0,0,0,0,0,0,0,0,0,2004,2006,0,0,0,0,0,0,0,0,0,0,0,0,0,0,0,0,0,0,2158,2160,0,0,0,0,0,0,0,1679,0,0,0,0,0,0,0,0,0,0,0,0,0,0,0,2136,2188,2138,0,0,0,0,0,0,0,0,0,0,0,0,0,0,0,0,0,0,0,0,0,0,0,0,0,
0,0,0,0,0,0,0,0,0,0,0,0,0,0,0,0,0,0,0,0,2004,2006,0,0,0,0,0,0,0,0,0,0,0,0,0,0,1982,1983,1983,1983,1984,0,0,0,0,0,0,0,0,0,0,0,0,0,0,2004,2006,0,0,0,0,0,0,0,0,0,0,0,0,0,0,0,0,1679,0,2158,2160,0,0,0,2249,2249,2249,2249,2249,2249,2249,2249,2249,0,0,0,0,0,2248,2248,2248,2248,0,0,2158,2159,2160,0,0,0,0,0,0,0,0,0,0,0,0,0,0,0,0,0,0,0,0,0,0,0,0,0,
0,0,0,0,0,0,0,0,0,0,0,0,0,0,0,0,0,0,0,0,2004,2006,0,0,0,0,0,0,0,0,0,0,2095,2095,2095,0,2004,2005,2005,2005,2006,0,0,0,0,0,0,0,0,0,0,0,0,0,1982,2013,2028,0,1664,0,0,0,0,0,0,0,0,1682,0,2250,2250,2250,0,0,0,2158,2160,0,0,0,0,2249,2249,2249,2249,2249,2249,2249,2249,0,0,0,0,2248,2248,2248,2248,2248,0,0,2158,2159,2160,0,0,0,0,0,0,0,0,0,0,0,0,0,0,0,0,0,0,0,0,0,0,0,0,0,
0,0,0,0,0,0,0,0,0,0,0,0,0,0,0,0,0,0,0,0,2004,2006,0,0,0,0,0,0,0,0,0,0,2095,2095,2095,0,2004,2005,2005,2005,2006,0,0,0,0,0,0,0,0,0,0,0,0,0,2004,2006,0,0,0,0,0,0,0,0,0,0,0,0,2250,2250,2250,2250,2250,0,0,2158,2160,0,0,0,0,0,0,2249,2249,2249,2249,2249,0,0,1679,0,0,2248,2248,2248,2248,2248,0,0,2158,2159,2160,0,0,0,0,1681,0,0,0,0,0,2249,2249,2249,0,0,0,0,0,0,0,0,0,0,0,0,
0,0,0,0,0,0,0,0,0,0,0,0,0,0,0,0,0,0,0,0,2004,2006,0,0,0,0,0,2095,2095,2095,2095,0,2095,2095,2095,0,2004,2005,2005,2005,2031,1983,1983,1983,1983,1983,1984,0,0,0,1665,0,0,1663,2004,2006,0,0,0,0,0,0,0,0,0,0,0,0,2250,2250,2250,2250,2250,0,0,2158,2160,0,0,0,0,0,0,2249,2249,2249,2249,2249,0,0,0,0,0,0,2248,2248,2248,0,0,0,2158,2159,2160,0,0,0,0,0,0,2249,2249,2249,2249,2249,2249,2249,0,0,0,0,0,0,0,0,0,0,0,0,
0,0,0,0,0,0,0,0,0,0,0,0,0,0,0,0,0,0,0,0,2004,2031,1983,1983,1983,1984,1663,2095,2095,2095,2095,0,0,0,0,0,2004,2005,2005,2009,2027,2027,2027,2027,2027,2010,2006,0,0,0,0,0,0,0,2004,2006,0,0,0,0,0,0,0,0,0,0,0,0,0,2250,2250,2250,2250,0,0,2158,2160,0,0,0,0,0,0,0,0,0,0,0,0,0,0,0,0,0,0,2248,2248,0,0,0,2158,2159,2160,0,0,0,0,2249,2249,2249,2249,2249,2249,2249,2249,0,0,0,0,0,0,0,0,0,0,0,0,0,
0,0,0,0,0,0,0,0,0,0,0,0,0,0,0,1666,0,0,0,1663,2026,2027,2027,2027,2027,1991,1984,0,0,0,0,0,1665,0,0,0,2004,2005,2005,2006,0,0,1663,0,0,2004,2005,1983,1983,1983,1983,1983,1983,1983,2032,2006,0,0,0,0,0,0,0,0,0,0,0,0,0,0,2250,2250,2250,2250,0,2158,2185,2137,2137,2137,2137,2137,2137,2137,2137,2137,2138,0,0,0,0,0,0,1679,0,2136,2137,2137,2137,2137,2186,2159,2160,0,0,0,0,2249,2249,2249,2249,2249,0,0,0,0,0,0,0,0,0,0,0,0,0,0,0,0,
0,0,0,0,0,0,0,0,0,0,0,0,0,0,0,0,0,0,0,0,0,0,0,0,0,2004,2006,0,0,1662,0,1982,1983,1983,1983,1983,2032,2005,2005,2006,0,0,0,0,0,2026,2027,2027,2027,2027,2027,2027,2027,2027,2027,2028,0,0,0,0,0,0,0,0,0,0,0,0,0,0,2250,2250,2250,2250,0,2158,2159,2159,2159,2159,2159,2159,2159,2159,2159,2159,2160,0,0,0,0,0,0,0,0,2158,2159,2159,2159,2159,2159,2159,2160,0,0,0,0,0,0,0,0,0,0,0,0,0,0,0,0,0,0,0,0,0,0,0,0,0,
0,0,0,0,0,0,0,0,0,0,0,0,0,0,0,0,0,0,0,0,0,0,0,0,0,2004,2006,0,0,0,0,2004,2009,2027,2027,2027,2027,2010,2005,2006,0,0,0,0,2072,2072,2072,2072,0,0,1667,0,0,0,0,2072,2072,0,0,0,0,0,0,0,0,0,0,0,0,0,0,0,2250,0,0,2180,2181,2181,2181,2181,2181,2181,2181,2181,2164,2159,2160,0,0,0,0,0,0,0,0,2158,2159,2163,2181,2181,2181,2181,2182,0,2247,2247,0,0,0,0,0,0,0,0,0,0,0,0,0,0,0,0,0,0,0,0,0,0,
0,0,0,0,0,0,0,0,0,0,0,0,0,0,0,0,0,0,0,0,0,0,0,1662,0,2004,2005,1983,1983,1983,1983,2032,2006,0,0,0,0,2004,2005,2006,0,1665,0,0,2072,2072,2072,2072,0,0,0,0,0,0,0,2072,2072,1663,0,0,0,0,0,0,0,0,0,0,0,0,0,0,0,0,0,0,0,0,0,0,0,0,0,0,2158,2159,2160,0,0,0,0,0,0,0,0,2158,2159,2160,0,0,0,0,0,0,2247,2247,0,0,0,0,0,0,0,0,0,0,0,0,0,0,0,0,0,0,0,0,0,0,
0,0,0,0,0,0,0,0,0,0,0,0,0,0,0,0,0,0,0,0,0,0,0,0,0,2026,2027,2027,2010,2009,2027,2027,2028,0,0,0,0,2004,2005,2006,0,0,0,0,2072,2072,2072,2072,0,0,0,0,0,0,0,2072,2072,0,0,0,0,0,0,0,0,0,0,0,0,0,0,0,0,0,0,0,0,0,0,0,0,0,0,0,2158,2159,2160,0,0,0,0,0,0,0,0,2158,2159,2160,0,0,1681,0,0,2247,2247,2247,2247,2247,0,0,0,0,0,0,0,0,0,0,0,0,0,0,0,0,0,0,0,0,
0,0,0,0,0,0,0,0,0,0,0,0,0,0,0,0,0,0,0,0,0,0,0,0,0,0,0,0,2004,2006,0,0,0,0,0,0,0,2004,2005,2006,0,0,0,0,2072,2072,2072,2072,0,0,0,0,0,0,0,2072,2072,2072,2072,0,0,0,0,0,0,0,0,0,0,0,0,0,0,0,0,0,1683,0,0,0,2250,2250,2250,0,2158,2159,2160,0,0,0,0,0,0,0,0,2158,2159,2160,0,0,0,2247,2247,2247,2247,2247,2247,0,0,0,0,0,0,0,0,0,0,0,0,0,0,0,0,0,0,0,0,0,
0,0,0,0,0,0,0,0,0,0,0,0,0,0,0,0,0,0,0,0,0,0,1665,0,0,2072,2072,0,2004,2006,0,0,1663,0,2094,2094,2094,2004,2005,2006,0,0,0,1663,0,0,0,0,0,0,0,1663,0,0,0,0,0,2072,2072,0,0,0,0,0,0,0,0,0,0,0,0,0,0,0,0,0,0,0,0,2250,2250,2250,2250,0,2158,2159,2160,0,0,0,0,0,0,0,0,2158,2159,2160,0,0,0,2247,2247,2247,2247,0,0,0,0,0,0,0,0,0,0,0,0,0,0,0,0,0,0,0,0,0,0,0,
0,0,0,0,0,0,0,0,0,0,0,0,0,0,0,0,0,0,0,0,0,0,0,0,0,2072,2072,0,2004,2006,0,0,0,0,2094,2094,2094,2004,2005,2031,1983,1983,1983,1983,1984,0,0,0,0,0,0,2072,2072,0,0,0,0,2072,2072,0,0,0,0,0,0,0,0,0,0,0,0,0,0,0,0,0,0,0,0,2250,2250,2250,2250,0,2158,2159,2160,0,0,0,0,0,0,0,0,2158,2159,2160,0,0,0,2247,2247,2247,0,0,0,0,0,0,0,0,0,0,0,0,0,0,0,0,0,0,0,0,0,0,0,0,
0,0,0,0,0,0,0,0,0,0,0,0,0,0,0,0,0,0,0,1662,0,0,0,0,0,2072,2072,0,2004,2006,0,0,0,0,2094,2094,2094,2004,2005,2005,2005,2005,2005,2005,2006,0,0,0,0,1665,0,2072,2072,0,0,1666,0,2072,2072,0,0,0,0,0,0,0,0,0,0,0,0,1679,0,0,0,0,0,0,0,0,0,0,0,0,2158,2159,2160,0,0,0,0,0,0,0,0,2158,2159,2160,0,1679,0,0,0,0,0,0,0,0,0,0,0,0,0,0,0,0,0,0,0,0,0,0,0,0,0,0,0,0,
0,0,0,0,0,0,0,0,0,0,0,0,0,0,0,0,0,0,0,0,0,0,0,0,0,2072,2072,0,2004,2006,0,1665,0,0,2094,2094,2094,2026,2027,2027,2027,2027,2010,2005,2006,0,0,2072,2072,2072,0,2072,2072,0,0,0,0,0,0,0,0,0,0,0,0,0,0,0,0,0,0,0,0,0,0,0,0,0,2136,2137,2137,2137,2137,2137,2186,2159,2185,2137,2137,2137,2137,2137,2137,2137,2137,2186,2159,2160,0,0,0,0,0,0,0,0,0,0,0,0,0,0,0,0,0,0,0,0,0,0,0,0,0,0,0,0,0,0,
0,0,0,0,0,0,0,0,0,0,0,0,0,0,0,0,0,0,0,0,0,0,0,0,0,2072,2072,0,2004,2006,0,2094,2094,2094,2094,0,0,0,0,0,0,0,2004,2005,2006,0,0,2072,2072,2072,0,0,1664,2072,2072,2072,0,0,0,0,1665,0,0,0,0,0,0,0,0,0,0,0,0,0,0,0,0,0,2158,2159,2159,2159,2159,2159,2159,2159,2159,2159,2159,2159,2159,2159,2159,2159,2159,2159,2159,2160,0,0,0,0,0,0,0,0,0,0,0,0,0,0,0,0,0,0,0,0,0,0,0,0,0,0,0,0,0,0,
0,0,0,0,0,0,0,0,0,0,0,0,0,0,0,0,0,0,0,0,0,0,0,1663,0,0,0,0,2004,2006,0,2094,2094,2094,2094,0,0,0,0,0,0,0,2004,2005,2006,0,1667,0,0,0,0,0,0,2072,2072,2072,0,1664,0,0,0,0,0,0,0,0,0,0,0,0,0,0,0,1679,0,0,0,0,2158,2159,2163,2181,2181,2181,2181,2181,2181,2181,2181,2181,2164,2159,2163,2181,2181,2181,2181,2182,0,0,0,0,0,0,0,2250,2250,0,0,0,0,0,0,0,0,0,0,0,0,0,0,0,0,0,0,0,0,0,
0,0,0,0,0,0,0,0,0,0,0,0,0,0,0,0,0,0,0,0,1667,0,2072,2072,2072,2072,2072,0,2004,2006,0,2094,2094,2094,2094,1663,0,0,0,1663,0,0,2004,2005,2006,0,0,0,0,0,0,0,0,0,0,0,0,0,0,0,0,0,0,0,0,0,0,0,0,0,0,0,0,0,0,0,0,0,2158,2159,2160,0,0,0,0,0,0,0,0,0,2158,2159,2160,0,0,0,0,0,0,0,0,1678,0,0,2250,2250,2250,0,0,1681,0,0,0,0,0,0,0,0,0,0,0,0,0,0,0,0,0,0,
0,0,0,0,0,0,0,0,0,0,0,0,0,0,0,0,0,0,0,0,0,0,2072,2072,2072,2072,2072,0,2004,2006,0,0,0,0,0,0,0,0,0,0,0,0,2004,2005,2006,0,2072,2072,2072,0,0,1663,0,0,0,1664,0,0,0,0,0,0,0,0,0,0,0,0,0,0,0,0,0,0,0,0,1679,0,2158,2159,2160,0,0,0,0,0,0,0,0,0,2158,2159,2160,0,0,0,0,0,0,0,0,0,0,2250,2250,2250,2250,2250,0,0,0,0,0,0,0,0,0,0,0,0,0,0,0,0,0,0,0,0,
0,0,0,0,0,0,0,0,0,0,0,0,0,0,0,0,0,0,0,0,0,0,2072,2072,2072,2072,2072,0,2004,2006,0,1662,0,0,0,0,0,1982,1983,1983,1983,1983,2032,2005,2006,0,2072,2072,2072,0,0,0,0,0,0,0,0,0,0,0,0,0,0,0,0,0,0,0,0,0,0,0,0,0,0,0,0,0,2158,2159,2160,0,0,14,15,15,16,0,0,0,2158,2159,2160,0,0,0,0,0,0,0,0,0,2250,2250,2250,2250,2250,2250,0,0,0,0,0,0,0,0,0,0,0,0,0,0,0,0,0,0,0,0,
0,0,0,0,0,0,0,0,0,0,0,0,0,0,0,0,0,0,0,0,0,0,0,0,0,1665,0,0,2004,2031,1983,1983,1983,1983,1983,1983,1983,2032,2005,2005,2005,2005,2005,2005,2006,0,2072,2072,2072,0,0,0,0,0,0,0,0,2072,2072,0,0,0,0,0,0,0,0,0,0,0,0,0,0,0,0,0,0,0,2158,2159,2160,0,0,42,43,43,44,0,1681,0,2158,2159,2160,0,0,0,0,0,0,0,0,0,2250,2250,2250,2250,2250,0,0,0,0,0,0,0,0,0,0,0,0,0,0,0,0,0,0,0,0,0,
0,0,0,0,0,0,0,0,0,0,0,0,0,0,0,0,0,0,0,0,1662,0,0,0,0,0,0,0,2026,2027,2027,2027,2027,2027,2027,2027,2027,2010,2005,2009,2027,2027,2027,2027,2028,0,0,0,0,0,0,0,0,0,0,1663,0,2072,2072,0,0,0,0,0,0,0,0,0,0,0,0,1679,0,0,0,0,0,0,2158,2159,2160,0,0,42,43,43,44,0,0,0,2158,2159,2160,0,0,0,0,0,0,0,0,0,2250,2250,0,0,0,0,0,0,0,0,0,0,0,0,0,0,0,0,0,0,0,0,0,0,0,0,
0,0,0,0,0,0,0,0,0,0,0,0,0,0,0,0,0,0,0,0,0,0,0,0,0,0,0,2072,2072,1663,0,0,0,0,1662,0,0,2004,2005,2006,0,0,0,0,0,1662,0,0,0,1663,0,0,0,0,0,0,0,0,0,0,0,0,0,0,0,0,0,0,0,0,0,0,0,0,0,0,0,0,2158,2159,2160,0,0,42,43,43,44,0,0,0,2158,2159,2160,0,0,0,0,0,0,0,0,0,0,0,0,1681,0,0,0,0,0,0,0,0,0,0,0,0,0,0,0,0,0,0,0,0,0,0,
0,0,0,0,0,0,0,0,0,0,0,0,0,0,0,0,0,0,0,0,0,0,1663,0,0,0,0,2072,2072,0,0,0,0,0,0,0,0,2004,2005,2006,0,0,0,0,0,0,0,0,0,0,0,0,0,1982,1983,1983,1983,1983,1983,1983,1983,0,0,0,0,0,0,0,2137,2137,2137,2137,2137,2137,2137,2137,2137,2137,2186,2159,2160,0,0,42,43,43,44,0,0,0,2158,2159,2160,0,0,0,0,0,0,0,0,0,0,0,0,0,0,0,0,0,0,0,0,0,0,0,0,0,0,0,0,0,0,0,0,0,0,0,
0,0,0,0,0,0,0,0,0,0,0,0,0,0,0,0,0,0,0,0,0,0,0,0,0,1662,0,2072,2072,0,0,0,0,0,0,0,0,2004,2005,2006,0,0,1663,0,2072,2072,0,0,0,0,0,0,0,2004,2005,2005,2005,2005,2005,2005,2005,0,0,0,0,0,0,0,2159,2159,2159,2159,2159,2159,2159,2159,2159,2159,2159,2159,2160,0,0,42,43,43,75,15,16,0,2158,2159,2185,2137,2137,2137,2137,2137,2137,2137,2137,2138,0,0,0,0,0,0,0,0,0,0,0,0,0,0,0,0,0,0,0,0,0,0,0,0,0,0,
0,0,0,0,0,0,0,0,0,0,0,0,0,0,0,0,0,0,0,0,0,0,0,0,0,0,0,0,0,0,0,0,0,0,0,0,0,2004,2005,2006,0,0,0,0,2072,2072,0,0,0,0,0,0,0,2004,2005,2009,2027,2027,2027,2027,2027,0,0,0,0,0,0,0,2181,2181,2181,2181,2181,2181,2181,2181,2164,2159,2163,2181,2182,0,0,42,43,43,43,43,44,0,2158,2159,2159,2159,2159,2159,2159,2159,2159,2159,2159,2160,0,0,0,0,0,0,0,0,0,0,0,0,0,0,0,0,0,0,0,0,0,0,0,0,0,0,
0,0,0,0,0,0,0,0,0,0,0,0,0,0,0,0,0,0,0,0,0,0,2095,2095,2095,1663,0,0,0,0,0,2072,2072,2072,0,0,0,2004,2005,2006,0,0,0,0,2072,2072,0,1665,0,0,0,1663,0,2004,2005,2006,0,0,0,0,0,0,0,0,0,0,0,0,0,0,0,0,0,0,0,0,2158,2159,2160,0,0,0,0,42,43,43,43,43,44,0,2180,2181,2181,2181,2181,2181,2181,2181,2181,2164,2159,2160,0,0,0,0,1683,0,0,0,0,0,0,0,0,0,0,0,0,0,0,0,0,0,0,0,0,0,
0,0,0,0,0,0,0,0,0,0,0,0,0,0,0,0,0,0,0,0,0,0,2095,2095,2095,0,0,0,0,0,0,2072,2072,2072,1663,0,0,2004,2005,2006,0,0,1663,0,0,0,0,0,0,0,0,0,0,2004,2005,2006,0,0,0,0,0,0,0,0,0,0,0,0,0,0,1682,0,0,0,0,0,2158,2159,2160,0,0,0,0,42,43,43,43,43,44,0,0,0,0,0,0,0,0,0,0,2158,2159,2160,0,0,0,0,0,0,0,0,0,0,0,0,0,0,0,0,0,0,0,0,0,0,0,0,0,0,
0,0,0,0,0,0,0,0,0,0,0,0,0,0,0,0,1667,0,0,2095,2095,0,1662,0,0,0,0,0,0,1661,0,2072,2072,2072,0,0,0,2004,2005,2006,0,0,0,0,0,1982,1983,1983,1983,1983,1983,1983,1983,2032,2005,2006,0,0,0,0,0,0,0,0,0,0,0,0,0,0,0,0,0,0,0,0,2158,2159,2160,0,0,1679,0,70,71,48,43,43,75,15,15,15,15,16,0,2250,0,2250,0,2158,2159,2160,0,0,2248,2248,2248,0,0,0,0,0,0,0,0,0,0,0,0,0,0,0,0,0,0,0,0,0,
0,0,0,0,0,0,0,0,0,0,0,0,0,0,0,0,0,0,0,2095,2095,0,0,0,0,0,0,0,0,0,0,0,0,0,0,0,0,2004,2005,2006,0,0,0,0,0,2004,2005,2005,2005,2005,2005,2005,2005,2005,2005,2006,0,0,0,0,0,0,0,0,0,0,0,0,0,0,0,0,0,1681,0,0,2158,2159,2160,0,0,0,0,0,0,42,43,43,43,43,43,43,43,44,0,2250,2250,2250,0,2158,2159,2160,0,0,2248,2248,2248,2248,0,0,0,0,0,0,0,0,0,0,0,0,0,0,0,0,0,0,0,0,
0,0,0,0,0,0,0,0,0,0,0,0,0,0,0,0,0,1666,0,2095,2095,0,0,0,0,0,0,0,2095,2095,2095,0,0,0,0,0,0,2004,2005,2006,0,0,0,0,0,2004,2005,2009,2027,2027,2027,2027,2027,2027,2027,2028,0,0,0,0,0,0,0,0,0,0,0,0,0,0,0,0,0,0,0,0,2158,2159,2160,0,0,0,0,0,0,42,43,43,43,43,43,43,43,44,0,2250,2250,2250,0,2158,2159,2160,0,0,2248,2248,2248,2248,0,0,0,0,0,0,0,0,0,0,0,0,0,0,0,0,0,0,0,0,
0,0,0,0,0,0,0,0,0,0,0,0,0,0,0,0,0,0,0,2095,2095,0,0,0,0,0,0,0,2095,2095,2095,0,0,0,0,2072,2072,2004,2005,2031,1983,1983,1983,1983,1983,2032,2005,2006,1663,0,0,0,0,0,1667,0,0,0,1663,0,0,0,0,0,0,0,0,0,0,0,0,0,0,0,0,0,2158,2159,2160,0,0,0,0,0,0,70,71,71,71,71,48,43,43,44,0,0,0,0,0,2158,2159,2160,0,0,0,2248,0,0,0,0,0,0,0,0,0,0,0,0,0,0,0,0,0,0,0,0,0,0,
0,0,0,0,0,0,0,0,0,0,0,0,0,0,0,0,0,0,0,0,0,0,0,1663,0,0,0,0,2095,2095,2095,0,0,1662,0,2072,2072,2004,2005,2005,2005,2005,2005,2005,2005,2005,2005,2006,0,0,0,0,2095,2095,2095,0,0,0,0,0,0,0,0,0,0,0,0,0,0,0,0,0,0,0,0,0,2158,2159,2160,0,0,0,0,0,0,0,0,0,0,0,42,43,43,44,0,0,1681,0,0,2158,2159,2160,0,0,1676,0,0,0,0,0,0,0,0,0,0,0,0,0,0,0,0,0,0,0,0,0,0,0,
0,0,0,0,0,0,0,0,0,0,0,0,0,0,0,1665,0,0,1660,0,0,0,0,0,0,0,0,1665,0,0,0,0,0,0,0,0,0,2004,2005,2009,2027,2027,2027,2027,2027,2027,2027,2028,0,0,0,0,2095,2095,2095,0,0,0,0,0,0,0,0,0,0,0,0,0,0,0,0,0,0,0,0,0,2158,2159,2160,0,0,0,0,0,0,0,1679,0,0,0,42,43,43,44,0,0,0,0,0,2158,2159,2160,0,0,0,0,0,0,0,0,0,0,0,0,0,0,0,0,0,0,0,0,0,0,0,0,0,0,
0,0,0,0,0,0,0,0,0,0,0,0,0,0,0,0,0,0,0,0,1663,0,2095,0,0,0,0,0,0,0,0,0,0,0,0,0,0,2004,2005,2006,0,0,0,0,0,0,0,0,0,0,0,0,2095,2095,2095,0,0,0,0,0,0,0,0,0,0,0,0,0,0,0,0,0,0,0,0,0,2158,2159,2160,0,0,0,0,0,0,0,0,0,0,0,70,71,71,72,0,0,0,0,0,2158,2159,2160,0,0,0,0,0,0,0,0,0,0,0,0,0,0,0,0,0,0,0,0,0,0,0,0,0,0,
0,0,0,0,0,0,0,0,0,0,0,0,0,0,0,0,0,2095,2095,0,0,0,2095,1982,1983,1983,1983,1983,1983,1983,1983,1983,1983,1983,1983,1983,1983,2032,2005,2006,2095,2095,2095,2095,2095,2095,2095,2095,0,0,0,0,0,0,0,0,0,0,0,2094,2094,0,0,0,0,0,0,0,0,0,0,0,0,0,0,0,2158,2159,2160,0,0,0,0,0,0,0,0,0,0,0,0,0,0,0,0,0,0,0,0,2158,2159,2160,0,0,0,0,0,0,0,0,0,0,0,0,0,0,0,0,0,0,0,0,0,0,0,0,0,0,
0,0,0,0,0,0,0,0,0,0,0,0,0,0,1661,0,0,2095,2095,0,0,0,0,2004,2005,2005,2005,2005,2005,2005,2005,2005,2005,2005,2005,2005,2005,2005,2005,2006,2095,2095,2095,2095,2095,2095,2095,2095,2095,2095,0,0,0,1663,0,0,0,0,0,2094,2094,0,0,0,0,0,0,0,0,0,0,0,0,0,0,0,2158,2159,2160,0,0,0,0,0,0,0,2136,2137,2137,2137,2137,2137,2137,2137,2137,2137,2137,2137,2137,2186,2159,2160,0,0,0,0,0,0,0,0,0,0,0,0,0,0,0,0,0,0,0,0,0,0,0,0,0,0,
0,0,0,0,0,0,0,0,0,0,0,0,0,0,0,0,0,2095,2095,0,1662,0,0,2004,2005,2009,2027,2027,2027,2027,2027,2027,2027,2027,2027,2027,2027,2027,2027,2028,2095,2095,2095,1664,0,0,2095,2095,2095,2095,0,0,0,0,0,0,0,1665,0,2094,2094,0,0,0,0,0,0,0,0,0,0,0,0,0,0,0,2158,2159,2160,0,0,0,0,0,0,0,2158,2159,2159,2159,2159,2159,2159,2159,2159,2159,2159,2159,2159,2159,2159,2160,0,0,0,0,0,0,0,0,0,0,0,0,0,0,0,0,0,0,0,0,0,0,0,0,0,0,
0,0,0,0,0,0,0,0,0,0,0,0,0,0,0,0,1667,2095,2095,0,0,0,0,2004,2005,2006,0,0,0,2094,2094,2094,0,0,0,0,0,0,0,0,2095,2095,2095,0,0,0,2095,2095,2095,2095,0,0,0,2095,2095,2095,0,0,0,2094,2094,0,0,0,0,0,0,0,0,0,0,0,0,0,0,0,2158,2159,2160,0,0,0,0,0,0,0,2158,2159,2163,2181,2181,2181,2181,2181,2181,2181,2181,2181,2181,2181,2181,2182,0,0,0,0,0,1676,0,0,0,0,0,0,0,0,0,0,0,0,0,0,0,0,0,0,0,0,
0,0,0,0,0,0,0,0,0,0,0,0,0,0,0,0,0,0,0,0,0,1663,0,2004,2005,2006,0,1663,0,2094,2094,2094,0,0,0,0,0,1663,0,0,2095,2095,2095,2095,2095,1665,2095,2095,2095,2095,0,1663,0,2095,2095,2095,0,0,0,2094,2094,0,0,0,0,0,0,0,0,0,0,0,0,0,0,0,2158,2159,2185,2137,2137,2137,2137,2137,2137,2137,2186,2159,2160,0,0,0,0,0,0,0,0,0,0,0,0,0,0,0,0,0,0,0,0,0,0,0,0,0,0,0,0,0,0,0,0,0,0,0,0,0,0,0,
0,0,0,0,0,0,0,0,0,0,0,0,0,0,0,0,0,0,0,0,0,0,0,2004,2005,2006,0,0,0,2094,2094,2094,0,0,0,0,0,0,0,0,0,0,2095,2095,2095,0,0,0,0,0,0,0,0,2095,2095,2095,0,0,0,0,0,0,0,0,0,0,0,0,0,0,0,0,0,0,0,0,2158,2159,2159,2159,2159,2159,2159,2159,2159,2159,2159,2159,2160,0,0,0,0,0,0,0,0,0,0,0,0,0,0,0,1679,0,0,0,0,0,0,0,0,0,0,0,0,0,0,0,0,0,0,0,0,0,0,0,
0,0,0,0,0,0,0,0,0,0,0,0,0,0,0,0,1661,0,1982,1983,1983,1983,1983,2005,2005,2006,0,0,0,2094,2094,2094,2093,2093,2093,2093,0,0,0,0,0,1663,0,0,1664,0,0,0,0,0,0,0,0,0,1664,0,0,0,0,0,0,0,0,0,0,0,0,0,0,0,0,0,0,0,0,0,2180,2181,2181,2181,2181,2181,2181,2181,2181,2181,2164,2159,2160,0,0,0,0,0,0,0,0,0,0,0,0,0,0,0,0,0,0,0,0,0,0,0,0,0,0,0,0,0,0,0,0,0,0,0,0,0,0,0,
0,0,0,0,0,0,0,0,0,0,0,0,0,0,0,0,0,0,2004,2009,2027,2027,2027,2027,2027,2028,0,0,1660,0,0,0,2093,2093,2093,2093,0,0,1660,0,0,0,0,0,0,0,0,0,0,0,0,0,2094,2094,2094,0,0,0,0,1667,0,0,0,0,0,0,0,0,0,0,0,0,0,0,0,0,0,0,0,0,0,0,0,0,0,0,2158,2159,2160,0,0,0,0,0,0,0,14,15,15,15,15,15,16,0,0,0,0,0,0,0,0,0,0,0,0,0,0,0,0,0,0,0,0,0,0,0,0,0,
0,0,0,0,0,0,0,0,0,0,0,0,0,0,0,0,0,0,2004,2006,0,0,0,0,0,0,0,0,0,0,1663,2093,2093,2093,2093,2093,0,0,0,0,0,0,0,0,0,0,0,0,0,0,0,0,2094,2094,2094,0,0,0,0,0,0,0,0,0,0,0,0,0,0,0,0,0,0,0,0,0,0,0,0,0,0,0,0,0,0,0,2158,2159,2160,0,0,0,0,0,0,0,42,43,43,43,43,43,44,0,0,0,0,0,0,0,1682,0,0,0,0,0,0,0,0,0,0,0,0,0,0,0,0,0,
0,0,0,0,0,0,0,0,0,0,0,0,0,0,0,0,0,0,2004,2006,0,0,0,0,0,0,1661,0,0,0,0,2093,2093,2093,2093,1663,0,0,1982,1983,1983,1983,1983,1983,1983,1983,1983,1983,1983,1983,1984,0,0,0,1665,0,0,0,1664,2094,2094,0,0,0,0,0,0,0,0,0,0,0,0,0,0,0,0,0,1681,0,0,0,0,0,0,0,2158,2159,2160,0,0,0,0,0,14,15,76,43,43,43,43,43,44,0,0,0,0,0,0,0,0,0,0,0,0,0,0,0,0,0,0,0,0,0,0,0,0,0,
0,0,0,0,0,0,0,0,0,0,0,0,0,0,0,0,0,0,2004,2006,0,1661,0,0,0,0,2093,2093,2093,2093,2093,2093,2093,2093,2093,0,0,0,2004,2005,2005,2005,2005,2005,2005,2005,2005,2005,2005,2005,2006,1663,0,0,0,0,0,0,0,2094,2094,0,0,0,0,0,0,0,0,0,0,0,0,0,0,0,0,0,0,0,0,0,0,0,1679,0,2158,2159,2160,0,0,2249,2249,0,42,43,43,43,43,43,43,43,44,0,0,0,0,0,0,0,0,0,0,0,0,0,0,0,0,0,0,0,0,0,0,0,0,0,
0,0,0,0,0,0,0,0,0,0,0,0,0,0,0,0,0,1665,2004,2006,0,0,0,0,0,0,2093,2093,2093,2093,2093,0,0,0,1664,0,1663,0,2004,2005,2009,2027,2027,2027,2027,2027,2027,2027,2005,2005,2006,0,0,0,0,0,0,0,0,2094,2094,0,0,0,0,0,0,0,0,0,0,0,0,0,0,0,0,0,0,0,0,0,0,0,0,0,2158,2159,2160,0,2249,2249,2249,0,42,43,43,43,43,43,43,43,75,15,15,16,0,0,0,0,0,0,0,0,0,0,0,0,0,0,0,0,0,0,0,0,0,0,
0,0,0,0,0,0,0,0,0,0,0,0,0,0,0,0,0,0,2004,2031,1983,1983,1983,1983,1983,1984,0,0,0,0,0,1660,0,0,0,0,0,0,2004,2005,2006,0,0,0,0,0,0,0,2004,2005,2006,0,0,0,0,0,0,1663,0,2094,2094,0,0,0,0,0,0,0,0,0,0,0,0,0,0,0,0,0,1677,0,0,0,0,0,0,0,2158,2159,2160,0,2249,2249,2249,0,70,71,48,43,43,43,43,43,43,43,43,44,0,0,1679,0,0,0,0,0,0,0,0,0,0,0,0,0,0,0,0,0,0,0,
0,0,0,0,0,0,0,0,0,0,0,0,0,0,0,0,0,0,2026,2027,2027,2027,2027,2010,2005,2006,0,0,0,0,0,0,0,0,0,0,0,1664,2004,2005,2006,0,0,0,0,0,0,0,2004,2005,2006,0,1665,0,0,0,0,0,0,0,0,0,0,0,0,0,0,0,0,0,0,0,0,2248,2248,2248,2248,0,0,0,0,0,1679,0,0,0,2158,2159,2160,0,0,0,0,0,0,0,42,43,43,43,43,43,43,43,43,44,0,0,0,0,0,0,0,0,0,0,0,0,0,0,0,0,0,0,0,0,0,0,
0,0,0,0,0,0,0,0,0,0,0,0,0,0,0,0,0,0,0,2095,2095,2095,0,2004,2005,2006,0,0,0,0,0,0,0,0,0,0,0,0,2004,2005,2006,0,0,0,0,0,0,0,2004,2005,2006,0,0,0,0,0,0,0,0,0,0,0,0,0,0,0,0,0,0,0,0,0,2248,2248,2248,2248,2248,0,0,0,0,0,0,0,0,0,2158,2159,2160,0,0,0,0,0,0,0,42,43,43,43,43,43,43,43,43,44,0,0,0,0,0,0,0,0,0,0,0,0,0,0,0,0,0,0,0,0,0,0,
0,0,0,0,0,0,0,0,0,0,0,0,0,0,0,0,1663,0,0,2095,2095,2095,0,2004,2005,2031,1983,1983,1983,1983,1983,1983,1983,1983,1983,1983,1983,1983,2032,2005,2031,1983,1983,1983,1983,1983,1983,1983,2032,2005,2031,1983,1983,1983,1983,1983,1984,0,0,0,0,0,0,0,0,0,0,0,0,0,0,0,2248,2248,2248,2248,2248,0,0,0,0,0,0,0,0,0,2158,2159,2160,0,0,0,0,0,0,0,70,71,71,71,71,71,71,71,71,72,0,0,0,0,0,0,0,0,0,0,0,0,0,0,0,0,0,0,0,0,0,0,
0,0,0,0,0,0,0,0,0,0,0,0,0,0,0,0,0,0,0,0,0,0,0,2004,2005,2005,2005,2005,2005,2005,2005,2005,2005,2005,2005,2005,2005,2005,2005,2005,2005,2005,2005,2005,2005,2005,2005,2005,2005,2005,2005,2005,2005,2005,2005,2005,2006,0,1663,0,0,0,0,0,0,0,0,0,0,0,0,0,2248,2248,2248,2248,2248,0,0,0,0,0,0,0,1678,0,2158,2159,2160,0,0,0,0,0,0,0,0,0,0,0,0,0,0,0,0,0,0,0,0,0,0,0,0,0,0,0,0,0,0,0,0,0,0,0,0,0,0,0,
0,0,0,0,0,0,0,0,0,0,0,0,0,0,0,0,0,0,0,1663,0,0,0,2026,2027,2027,2027,2027,2027,2027,2027,2027,2027,2027,2027,2027,2027,2027,2027,2027,2027,2027,2027,2027,2027,2027,2027,2027,2027,2027,2027,2027,2027,2027,2010,2005,2006,0,0,0,0,0,0,0,0,0,0,0,0,0,0,0,0,2248,2248,2248,2248,0,0,0,0,0,0,0,0,0,2158,2159,2185,2137,2137,2137,2137,2137,2137,2137,2137,2138,0,0,0,0,0,0,0,0,0,0,2247,2247,2247,0,0,0,0,0,0,0,0,0,0,0,0,0,0,0,0,0,
0,0,0,0,0,0,0,0,0,0,0,0,0,0,0,0,0,0,0,0,0,0,0,0,0,0,0,0,0,0,0,0,0,0,0,0,0,0,0,0,0,0,0,0,0,1663,0,0,0,2094,2094,0,0,0,2004,2005,2006,0,0,0,0,0,0,0,0,0,0,0,0,0,0,0,0,2248,2248,2248,0,0,0,0,0,0,0,0,0,0,2158,2159,2159,2159,2159,2159,2159,2159,2159,2159,2159,2160,0,0,1676,0,0,0,0,2247,2247,2247,2247,2247,2247,0,0,0,0,0,0,0,0,0,0,0,0,0,0,0,0,0,
0,0,0,0,0,0,0,0,0,0,0,0,1666,0,0,0,0,0,0,0,0,0,0,0,0,0,0,0,0,0,0,0,2094,2094,2094,2094,0,0,0,0,0,2094,2094,0,0,0,0,0,0,2094,2094,0,1663,0,2004,2005,2006,1665,0,0,0,0,0,0,0,0,0,0,0,0,0,0,0,0,0,0,0,0,0,0,0,0,0,0,0,0,2180,2181,2181,2181,2181,2181,2181,2181,2181,2164,2159,2160,0,0,0,0,0,0,2247,2247,2247,2247,2247,2247,2247,0,1676,0,0,0,0,0,0,0,0,0,0,0,0,0,0,0,
0,0,0,0,0,0,0,0,0,0,0,0,0,0,0,0,0,1667,0,0,0,0,0,1661,0,0,0,0,1665,0,1663,0,2094,2094,2094,2094,0,0,0,1663,0,2094,2094,0,0,0,0,0,0,2094,2094,0,0,0,2004,2005,2006,0,0,0,0,0,0,0,0,0,0,0,0,0,0,0,0,0,0,0,0,0,0,0,1678,0,0,0,0,0,0,1679,0,0,0,0,0,0,0,2158,2159,2160,0,0,0,0,1681,0,2247,2247,2247,0,2247,2247,0,0,0,0,0,0,0,0,0,0,0,0,0,0,0,0,0,0,
0,0,0,0,0,0,0,0,0,0,0,0,0,0,0,1662,0,0,0,1665,0,0,0,0,0,1662,0,0,0,0,0,0,0,0,0,0,0,0,0,0,0,2094,2094,1982,1983,1983,1983,1983,1983,1983,1983,1983,1983,1983,2032,2005,2006,0,0,1663,0,0,0,0,0,0,0,0,0,0,0,0,0,0,1677,0,0,0,0,0,0,0,0,1681,0,0,0,0,0,0,0,0,0,0,0,2158,2159,2160,0,0,0,0,0,0,0,0,0,0,0,0,0,0,0,0,0,0,0,0,0,0,0,0,0,0,0,0,0,0,
0,0,0,0,0,0,0,0,0,0,0,0,1663,0,0,0,0,0,0,0,0,0,1664,0,0,0,0,0,0,0,0,0,0,1662,0,0,0,0,0,0,0,2094,2094,2004,2005,2005,2005,2005,2005,2005,2005,2005,2005,2005,2005,2005,2006,0,2094,2094,0,0,0,0,0,0,0,0,0,0,0,0,0,0,0,0,0,0,0,0,0,0,0,0,0,0,0,0,0,0,0,0,0,0,0,2158,2159,2160,0,0,0,0,0,0,0,0,0,0,0,0,0,0,0,0,0,0,0,0,0,0,0,0,0,0,0,0,0,0,
0,0,0,0,0,0,0,0,0,0,0,0,0,0,1663,0,0,0,0,0,0,0,0,0,0,0,0,0,0,2094,2094,2094,0,0,0,1663,0,0,0,1665,0,2094,2094,2004,2005,2009,2027,2027,2027,2027,2027,2027,2027,2027,2027,2027,2028,0,2094,2094,1667,0,0,0,0,0,0,0,0,0,0,0,0,0,1681,0,0,0,1677,0,0,0,0,0,0,0,0,0,0,0,0,0,1679,0,0,2158,2159,2160,0,0,0,0,0,0,0,0,0,0,0,0,0,0,0,0,0,0,0,0,0,0,0,0,0,0,0,0,0,0,
0,0,0,0,0,0,0,0,0,0,0,0,0,0,0,0,0,1666,0,0,0,1661,0,0,0,0,0,0,0,2094,2094,2094,0,0,0,0,0,0,0,0,0,0,0,2004,2005,2006,0,0,0,0,0,0,0,0,0,0,0,0,2094,2094,0,0,0,0,0,0,0,0,0,0,0,0,0,0,0,0,0,0,0,0,0,0,0,0,0,0,0,0,0,0,0,0,0,0,0,2158,2159,2160,0,0,0,0,0,0,0,0,0,0,0,0,0,0,0,0,0,0,0,0,0,0,0,0,0,0,0,0,0,0,
0,0,0,0,0,0,0,0,0,0,0,0,0,0,0,0,0,0,0,0,0,0,0,0,1661,0,0,0,0,0,0,0,0,0,0,0,0,0,0,0,0,0,0,0,0,0,0,0,0,0,0,0,0,0,0,0,0,0,1663,0,0,0,0,0,0,0,0,0,0,0,0,0,0,0,0,0,0,0,0,0,0,0,0,0,0,0,0,0,0,0,0,0,0,0,0,2158,2159,2160,0,0,0,0,0,0,0,0,0,0,0,0,0,0,0,0,0,0,0,0,0,0,0,0,0,0,0,0,0,0,
0,0,0,0,0,0,0,0,0,0,0,0,0,0,0,0,0,0,0,0,0,0,0,0,0,0,0,0,0,0,1667,0,1665,0,0,0,0,0,0,0,0,0,0,0,0,0,0,0,0,0,0,0,0,0,0,0,0,0,0,0,0,1664,0,0,0,0,0,0,0,0,0,0,0,0,0,0,0,0,0,0,0,0,0,0,0,0,0,0,0,0,0,0,0,0,0,2158,2159,2160,0,0,0,0,0,0,0,0,0,0,0,0,0,0,0,0,0,0,0,0,0,0,0,0,0,0,0,0,0,0,
0,0,0,0,0,0,0,0,0,0,0,0,0,0,0,0,0,0,0,0,0,0,0,0,0,0,0,1663,0,0,0,0,0,0,0,0,0,0,0,0,0,0,0,0,0,0,0,0,0,0,0,0,0,0,0,0,0,0,0,0,0,0,0,0,0,0,0,0,0,0,0,0,0,0,0,0,0,0,0,0,0,0,0,0,0,0,0,0,0,0,0,0,0,0,0,0,0,0,0,0,0,0,0,0,0,0,0,0,0,0,0,0,0,0,0,0,0,0,0,0,0,0,0,0,0,0,0,0,
0,0,0,0,0,0,0,0,0,0,0,0,0,0,0,0,0,0,0,0,0,0,0,0,0,0,0,0,0,0,0,0,0,0,0,0,0,0,0,0,0,0,0,0,0,0,0,0,0,0,0,0,0,0,0,0,0,0,0,0,0,0,0,0,0,0,0,0,0,0,0,0,0,0,0,0,0,0,0,0,0,0,0,0,0,0,0,0,0,0,0,0,0,0,0,0,0,0,0,0,0,0,0,0,0,0,0,0,0,0,0,0,0,0,0,0,0,0,0,0,0,0,0,0,0,0,0,0,
0,0,0,0,0,0,0,0,0,0,0,0,0,0,0,0,0,0,0,0,0,0,0,0,0,0,0,0,0,0,0,0,0,0,0,0,0,0,0,0,0,0,0,0,0,0,0,0,0,0,0,0,0,0,0,0,0,0,0,0,0,0,0,0,0,0,0,0,0,0,0,0,0,0,0,0,0,0,0,0,0,0,0,0,0,0,0,0,0,0,0,0,0,0,0,0,0,0,0,0,0,0,0,0,0,0,0,0,0,0,0,0,0,0,0,0,0,0,0,0,0,0,0,0,0,0,0,0,
0,0,0,0,0,0,0,0,0,0,0,0,0,0,0,0,0,0,0,0,0,0,0,0,0,0,0,0,0,0,0,0,0,0,0,0,0,0,0,0,0,0,0,0,0,0,0,0,0,0,0,0,0,0,0,0,0,0,0,0,0,0,0,0,0,0,0,0,0,0,0,0,0,0,0,0,0,0,0,0,0,0,0,0,0,0,0,0,0,0,0,0,0,0,0,0,0,0,0,0,0,0,0,0,0,0,0,0,0,0,0,0,0,0,0,0,0,0,0,0,0,0,0,0,0,0,0,0,
0,0,0,0,0,0,0,0,0,0,0,0,0,0,0,0,0,0,0,0,0,0,0,0,0,0,0,0,0,0,0,0,0,0,0,0,0,0,0,0,0,0,0,0,0,0,0,0,0,0,0,0,0,0,0,0,0,0,0,0,0,0,0,0,0,0,0,0,0,0,0,0,0,0,0,0,0,0,0,0,0,0,0,0,0,0,0,0,0,0,0,0,0,0,0,0,0,0,0,0,0,0,0,0,0,0,0,0,0,0,0,0,0,0,0,0,0,0,0,0,0,0,0,0,0,0,0,0,
0,0,0,0,0,0,0,0,0,0,0,0,0,0,0,0,0,0,0,0,0,0,0,0,0,0,0,0,0,0,0,0,0,0,0,0,0,0,0,0,0,0,0,0,0,0,0,0,0,0,0,0,0,0,0,0,0,0,0,0,0,0,0,0,0,0,0,0,0,0,0,0,0,0,0,0,0,0,0,0,0,0,0,0,0,0,0,0,0,0,0,0,0,0,0,0,0,0,0,0,0,0,0,0,0,0,0,0,0,0,0,0,0,0,0,0,0,0,0,0,0,0,0,0,0,0,0,0,
0,0,0,0,0,0,0,0,0,0,0,0,0,0,0,0,0,0,0,0,0,0,0,0,0,0,0,0,0,0,0,0,0,0,0,0,0,0,0,0,0,0,0,0,0,0,0,0,0,0,0,0,0,0,0,0,0,0,0,0,0,0,0,0,0,0,0,0,0,0,0,0,0,0,0,0,0,0,0,0,0,0,0,0,0,0,0,0,0,0,0,0,0,0,0,0,0,0,0,0,0,0,0,0,0,0,0,0,0,0,0,0,0,0,0,0,0,0,0,0,0,0,0,0,0,0,0,0,
0,0,0,0,0,0,0,0,0,0,0,0,0,0,0,0,0,0,0,0,0,0,0,0,0,0,0,0,0,0,0,0,0,0,0,0,0,0,0,0,0,0,0,1850,1851,1852,0,0,0,0,0,0,0,0,0,0,0,0,0,0,0,0,0,0,0,0,0,0,0,0,0,0,0,0,0,0,0,0,0,0,0,0,0,0,0,0,0,0,0,0,0,0,0,0,0,0,0,0,0,0,0,0,0,0,0,0,0,0,0,0,0,0,0,0,0,0,0,0,0,0,0,0,0,0,0,0,0,0,
0,0,0,0,0,0,0,0,0,0,0,0,0,0,0,0,0,0,0,0,0,0,0,0,0,1629,0,0,0,0,0,0,0,0,0,0,0,0,0,0,0,0,0,1850,1851,1852,0,0,0,0,0,1630,0,0,0,0,0,0,0,0,0,0,0,0,0,0,0,0,0,0,0,0,0,0,0,0,0,0,0,1642,0,0,0,0,0,0,0,0,0,0,0,0,0,0,0,0,0,0,0,0,0,0,0,0,0,0,0,0,0,0,0,0,0,0,0,1638,0,0,0,0,0,0,0,0,0,0,0,0,
0,0,0,0,0,0,0,0,0,0,0,0,0,0,0,0,0,0,0,0,0,0,0,0,0,0,0,0,0,0,0,0,0,0,0,0,0,0,0,0,0,0,0,1850,1851,1852,0,0,0,0,0,0,0,0,0,0,0,0,0,0,0,0,0,0,0,0,0,0,0,0,0,0,0,0,0,0,1942,1942,0,0,0,0,1942,1942,0,0,0,0,0,0,0,0,0,0,0,0,0,0,0,0,0,0,0,0,0,0,0,0,0,0,1941,1941,1941,0,0,0,0,0,0,0,0,0,0,0,0,0,0,0,
0,0,0,0,0,0,0,0,0,0,0,0,0,0,0,0,0,0,0,0,0,0,0,0,0,0,0,0,0,0,0,0,0,0,0,0,0,1636,0,0,0,0,0,1850,1851,1852,0,0,0,0,0,0,0,0,0,0,0,0,0,0,0,0,0,0,0,0,0,0,0,0,0,0,0,0,0,0,1942,0,0,1831,0,1942,1942,1942,0,0,0,0,0,0,0,0,0,0,0,1850,1851,1852,0,0,0,0,0,0,0,0,0,1941,1941,1941,1941,1941,1941,1941,0,0,0,0,0,0,0,0,0,0,0,0,0,0,
0,0,0,0,0,0,0,0,0,0,0,0,0,0,0,0,0,0,0,0,0,0,0,0,0,0,0,0,0,0,0,0,0,0,0,0,0,0,0,0,0,0,0,1850,1851,1852,0,0,0,0,0,0,0,0,0,0,0,0,0,0,1635,0,0,0,0,0,0,0,0,0,0,0,0,0,0,0,1942,1942,1942,1853,1942,1942,1942,1942,0,0,0,0,1941,1941,1941,1941,1941,0,0,1850,1851,1852,0,0,0,0,0,1637,0,0,0,1941,1941,1941,1941,1941,1941,0,0,0,0,0,0,0,0,0,0,0,0,0,0,0,
0,0,0,0,0,0,0,0,0,0,0,0,0,0,0,0,0,0,0,0,1828,1829,1829,1829,1829,1829,1829,1829,1829,1829,1829,1829,1830,0,0,0,0,0,0,0,0,0,0,1850,1851,1852,0,0,0,0,0,0,0,0,0,0,0,0,0,0,0,0,0,0,0,0,0,0,0,0,0,0,0,0,0,0,0,1942,1942,1853,1942,1942,1942,1942,1942,1942,0,1941,1941,1941,1941,1941,1941,0,0,1850,1851,1852,0,0,0,0,0,0,0,0,1941,1941,1941,1941,1941,1941,1941,0,0,0,0,0,0,0,0,0,0,0,0,0,0,0,
0,0,0,0,0,0,0,0,0,0,0,0,0,0,0,0,0,0,0,0,1850,1851,1851,1851,1851,1851,1851,1851,1851,1851,1851,1851,1852,0,0,0,0,0,0,0,0,0,0,1850,1851,1852,0,0,0,0,0,0,0,0,0,0,0,0,0,0,0,0,0,0,0,0,0,0,0,0,0,0,0,0,0,0,1633,1942,1942,1853,1942,1942,1942,1942,1942,1942,0,1941,1941,1941,1941,1941,1941,0,0,1850,1851,1852,0,0,0,0,0,0,0,0,0,0,0,1941,1941,0,0,0,0,0,0,0,0,0,0,0,0,0,0,0,0,0,
0,0,0,0,0,0,0,0,0,0,0,0,0,0,0,0,0,0,0,0,1850,1851,1855,1873,1873,1873,1873,1873,1873,1873,1856,1851,1852,0,0,1629,0,0,0,0,0,0,0,1850,1851,1852,0,0,0,0,0,0,0,0,0,0,0,0,0,1642,0,0,0,0,0,0,0,1635,0,0,0,0,0,0,0,0,1942,0,1942,1853,1942,1942,1942,1942,1942,1942,1942,0,1941,1941,1941,1941,0,0,0,1850,1851,1877,1829,1829,1829,1829,1829,1829,1829,1829,1830,0,0,0,0,0,0,0,0,0,0,0,0,0,0,0,0,0,0,0,0,0,
0,0,0,0,0,0,0,0,0,0,0,0,0,0,0,0,0,0,0,0,1850,1851,1852,0,0,0,0,0,0,0,1850,1851,1852,0,0,0,0,0,0,0,0,0,0,1850,1851,1852,0,0,0,0,0,0,0,1636,0,0,0,0,0,0,0,0,0,0,0,0,0,0,0,0,0,0,0,0,0,0,1942,0,0,1853,1942,0,1942,1942,1942,1942,1942,0,0,1941,1941,1941,0,0,0,1850,1851,1851,1851,1851,1851,1851,1851,1851,1851,1851,1852,0,0,0,0,0,0,0,0,0,0,0,0,0,0,0,0,0,0,0,0,0,
0,0,0,0,0,0,0,0,0,0,0,0,0,0,0,0,0,0,0,0,1850,1851,1852,0,0,0,0,0,0,0,1850,1851,1852,0,0,0,0,0,0,0,0,0,0,1850,1851,1852,0,0,0,0,0,0,0,0,0,0,0,0,0,0,0,0,0,0,0,0,0,0,0,0,0,0,0,0,0,0,1942,1942,1942,1853,1942,1942,1942,1942,1942,1942,0,0,0,0,0,0,0,0,0,1872,1873,1873,1873,1873,1873,1873,1873,1873,1856,1851,1852,0,0,0,0,0,0,0,0,0,0,0,0,0,0,0,0,0,0,0,0,0,
0,0,0,0,0,0,0,0,0,0,0,0,0,0,0,0,0,0,0,0,1850,1851,1852,0,0,0,0,0,0,0,1850,1851,1877,1829,1829,1829,1829,1829,1829,1829,1829,1829,1829,1878,1851,1852,0,0,0,0,0,0,0,0,0,0,0,0,0,0,0,0,0,0,0,0,0,0,0,0,0,0,0,0,0,0,0,0,0,1853,0,0,0,0,0,0,0,0,0,0,0,0,0,0,0,0,0,0,0,0,0,0,0,0,1850,1851,1852,0,0,0,1638,0,0,0,0,0,0,0,0,0,0,0,0,0,0,0,0,0,
0,0,0,0,0,0,0,0,0,0,0,0,0,0,0,0,0,0,0,0,1850,1851,1852,0,0,0,0,0,0,0,1850,1851,1851,1851,1851,1851,1851,1851,1851,1851,1851,1851,1851,1851,1851,1852,0,0,0,0,0,0,0,0,1828,1829,1829,1829,1829,1829,1829,1829,1829,1829,1829,1829,1829,1829,1829,1829,1829,1829,1829,1829,1829,1829,1829,1829,1829,1880,1829,1829,1829,1829,1829,1829,1829,1829,1830,0,0,0,0,0,0,0,0,0,0,0,0,0,0,0,1850,1851,1852,0,0,0,0,0,1637,0,0,0,0,0,0,0,0,0,0,0,0,0,0,0,
0,0,0,0,0,0,0,0,0,0,0,0,0,0,0,0,0,0,0,0,1850,1851,1852,0,0,0,0,0,0,0,1872,1873,1873,1873,1873,1873,1873,1873,1873,1873,1873,1873,1873,1873,1873,1874,0,0,0,0,0,0,0,0,1850,1851,1851,1851,1851,1851,1851,1851,1851,1851,1851,1851,1851,1851,1851,1851,1851,1851,1851,1851,1851,1851,1851,1851,1851,1851,1851,1851,1851,1851,1851,1851,1851,1851,1852,0,0,0,0,0,1940,1940,1940,1940,1940,0,0,0,0,0,1850,1851,1852,0,0,0,0,1831,0,0,0,0,0,0,0,0,0,0,0,0,0,0,0,0,
0,0,0,0,0,0,0,0,0,0,0,0,0,0,0,0,0,0,0,0,1850,1851,1852,0,0,0,0,0,0,0,0,0,0,0,0,0,0,0,0,0,0,0,0,0,0,0,0,0,0,1630,0,0,0,0,1850,1851,1855,1873,1873,1873,1873,1873,1873,1873,1873,1873,1873,1873,1873,1873,1873,1873,1873,1873,1873,1873,1873,1873,1873,1873,1873,1873,1873,1873,1873,1873,1856,1851,1852,0,0,0,0,0,1940,1940,1940,1940,1940,0,0,0,0,0,1850,1851,1852,0,0,0,1631,1853,0,0,0,0,0,0,0,0,0,0,0,0,0,0,0,0,
0,0,0,0,0,0,0,0,0,0,0,0,0,0,0,0,0,0,0,0,1850,1851,1852,0,0,0,0,0,0,0,0,1941,1941,1941,1941,1941,1941,0,0,0,0,0,0,0,0,0,0,0,0,0,0,0,0,0,1850,1851,1852,0,0,0,0,0,0,0,0,0,0,0,0,0,0,0,0,0,0,0,0,0,0,0,0,0,0,0,0,0,1850,1851,1852,0,1637,0,0,0,1940,1940,1940,1940,1940,0,0,0,0,0,1850,1851,1921,1895,1895,1895,1895,1901,0,0,0,0,1641,0,0,0,0,0,0,0,0,0,0,0,
0,0,0,0,0,0,0,0,0,0,0,0,0,0,0,0,0,0,0,0,1850,1851,1852,0,0,0,0,0,0,0,0,1941,1941,0,1941,1941,1941,1941,1941,0,0,0,0,0,0,0,0,0,0,0,0,0,0,0,1850,1851,1852,0,0,1939,0,0,0,0,0,0,0,1940,1940,1940,1940,1940,1940,1940,1940,0,0,0,0,1941,1941,0,0,0,0,0,1850,1851,1852,0,0,0,0,0,0,0,0,0,0,0,0,0,0,0,1850,1851,1852,0,0,0,0,0,0,0,0,0,0,0,0,0,0,0,0,0,0,0,0,0,
0,0,0,0,0,0,0,0,0,0,0,0,0,0,0,0,0,0,0,0,1850,1851,1852,0,0,0,0,0,0,0,0,0,1941,1941,1941,1941,1941,1941,1941,1941,0,0,0,0,0,0,0,0,0,0,0,0,0,0,1850,1851,1852,0,1939,1939,1939,0,0,0,0,0,0,0,1940,1940,1940,1940,1940,1940,1940,0,0,0,1941,1941,1941,1941,0,1941,1941,0,1850,1851,1877,1829,1829,1829,1829,1829,1829,1829,1829,1829,1829,1829,1829,1829,1829,1829,1878,1851,1852,0,0,0,0,0,0,0,0,0,0,0,0,0,0,0,0,0,0,0,0,0,
0,0,0,0,0,0,0,0,0,0,0,0,0,0,0,0,0,0,0,0,1850,1851,1852,0,0,0,0,0,0,0,0,0,0,1941,1941,1941,1941,1941,1941,1941,0,0,0,0,0,0,0,0,0,0,0,0,0,0,1850,1851,1852,0,1939,1939,1939,0,0,0,0,0,0,1633,0,1940,1940,1940,1940,1940,0,0,1631,0,1941,0,1941,1941,1941,1941,1941,0,1850,1851,1851,1851,1851,1851,1851,1851,1851,1851,1851,1851,1851,1851,1851,1851,1851,1851,1851,1851,1852,0,0,0,0,0,0,0,0,0,0,0,0,0,0,0,0,0,0,0,0,0,
0,0,0,0,0,0,0,0,0,0,0,0,0,0,0,0,0,0,1629,0,1850,1851,1877,1829,1829,1829,1829,1829,1829,1829,1829,1829,1829,1829,1829,1829,1829,1829,1829,1829,1829,1829,1829,1829,1829,1829,1829,1829,1829,1829,1829,1829,1829,1829,1878,1851,1852,0,1939,1939,1939,0,0,0,0,0,0,0,0,0,0,0,0,0,0,0,0,0,1941,1941,1941,1941,1941,1941,0,0,1872,1873,1873,1873,1873,1873,1873,1873,1873,1873,1873,1873,1873,1873,1873,1873,1873,1873,1873,1873,1874,0,1940,1940,1940,1940,0,0,0,0,0,0,0,0,0,0,0,0,0,0,0,0,
0,0,0,0,0,0,0,0,0,0,0,0,0,0,0,0,0,0,0,0,1850,1851,1851,1851,1851,1851,1851,1851,1851,1851,1851,1851,1851,1851,1851,1851,1851,1851,1851,1851,1851,1851,1851,1851,1851,1851,1851,1851,1851,1851,1851,1851,1851,1851,1851,1851,1852,0,0,1939,1939,0,0,0,0,0,0,0,0,0,0,0,0,0,0,0,0,0,0,1941,1941,1941,1941,1941,0,0,0,0,0,0,0,0,0,0,0,0,0,0,0,0,0,0,0,0,0,0,0,0,1940,1940,1940,1940,0,0,0,0,0,0,0,0,0,0,0,0,0,0,0,0,
0,0,0,0,0,0,0,0,0,0,0,0,0,0,0,0,0,0,0,0,1872,1873,1873,1873,1873,1873,1873,1873,1873,1873,1873,1873,1873,1873,1873,1873,1873,1873,1873,1873,1873,1873,1873,1873,1873,1873,1873,1873,1873,1873,1873,1873,1873,1873,1873,1873,1874,0,1939,1939,0,0,0,0,0,0,0,0,0,0,0,0,0,0,0,0,0,0,0,0,0,1941,0,0,0,0,0,0,0,0,0,0,0,0,0,0,0,0,0,0,0,0,0,0,0,1940,1940,1940,1940,1940,1940,0,0,0,0,0,0,0,0,0,0,0,0,0,0,0,0,0,
0,0,0,0,0,0,0,0,0,0,0,0,0,0,0,0,0,0,0,0,0,0,0,0,0,0,0,0,0,0,0,0,0,0,0,0,0,0,0,0,0,0,0,0,0,0,0,0,0,0,0,0,0,0,0,0,0,0,1939,0,0,0,0,0,0,0,0,0,0,0,0,0,0,0,0,0,0,0,0,0,0,0,0,0,0,0,0,0,0,0,0,0,0,0,0,0,0,0,0,0,0,0,0,1940,1940,1940,1940,1940,1940,1940,1940,0,0,0,0,0,0,0,0,0,0,0,0,0,0,0,0,0,
0,0,0,0,0,0,0,0,0,0,0,0,0,0,0,0,0,0,0,0,0,0,0,0,0,0,0,1940,1940,1940,0,0,0,0,1630,0,0,0,0,0,0,0,0,0,0,0,0,0,0,0,0,0,0,0,1629,0,0,0,1939,1939,0,0,0,0,0,0,0,0,0,0,0,0,0,0,0,0,0,0,0,0,0,0,0,0,0,0,0,0,0,0,0,0,0,0,0,0,0,0,1940,1940,1940,1940,1940,1940,1940,1940,1940,1940,1940,1940,1940,0,0,0,0,0,0,0,0,0,0,0,0,0,0,0,0,0,
0,0,0,0,0,0,0,0,0,0,0,0,0,0,0,0,0,0,0,0,0,0,0,0,0,0,0,1940,1940,1940,1940,0,0,0,0,0,0,0,0,0,0,0,0,0,0,0,0,0,0,0,0,0,0,0,0,0,0,0,0,0,0,0,0,0,0,0,0,0,0,0,0,0,0,0,0,0,0,0,0,0,0,0,0,0,0,0,0,0,0,0,0,0,0,0,0,0,0,0,1940,1940,1940,1940,1940,1940,1940,1940,1940,1940,1940,1940,0,0,0,0,0,0,0,0,0,0,0,0,0,0,0,0,0,0,
0,0,0,0,0,0,0,0,0,0,0,0,0,0,0,0,0,0,0,0,0,0,0,0,0,0,0,1940,1940,1940,1940,1940,0,0,0,0,0,0,0,0,0,0,0,0,0,0,0,0,0,0,0,0,0,0,0,0,0,0,0,0,0,0,0,0,0,0,0,0,0,0,0,0,0,0,0,0,0,0,0,0,0,0,0,0,0,0,0,0,0,0,0,0,0,0,0,0,0,0,1940,1940,1940,1940,0,0,0,1940,1940,1940,1940,0,0,0,0,0,0,0,0,0,0,0,0,0,0,0,0,0,0,0,
0,0,0,0,0,0,0,0,0,0,0,0,0,0,0,0,0,0,0,0,0,0,0,0,0,0,0,0,1940,1940,1940,0,0,0,0,0,0,0,0,0,0,0,0,0,0,0,0,0,0,0,0,0,0,0,0,0,0,0,0,0,0,0,0,0,0,0,0,0,0,0,0,0,0,0,0,0,0,0,0,0,0,0,0,0,0,0,0,0,0,0,0,0,0,0,0,0,0,0,0,0,0,0,0,0,0,0,0,0,0,0,0,1631,0,0,0,0,0,0,0,0,0,0,0,0,0,0,0,0,
0,0,0,0,0,0,0,0,0,0,0,0,0,0,0,0,0,0,0,0,0,0,0,0,0,0,0,0,0,0,0,0,0,0,0,0,0,0,0,0,0,0,0,0,0,0,0,0,0,0,0,0,0,0,0,0,0,0,0,0,0,0,0,0,0,0,0,0,0,0,0,0,0,0,0,0,0,0,0,0,0,0,0,0,0,0,0,0,0,0,0,0,0,0,0,0,0,1638,0,0,0,0,0,0,0,0,0,0,0,0,0,0,0,0,0,0,0,0,0,0,0,0,0,0,0,0,0,0,
0,0,0,0,0,0,0,0,0,0,0,0,0,0,0,0,0,0,0,0,0,0,0,0,0,0,0,0,0,0,0,0,0,0,0,0,0,0,0,0,0,0,0,0,0,0,0,0,0,0,0,0,0,0,0,0,0,0,0,0,0,0,0,0,0,0,0,0,0,0,0,0,0,0,0,0,0,0,0,0,0,0,0,0,0,0,0,0,0,0,0,0,0,0,0,0,0,0,0,0,0,0,0,0,0,0,0,0,0,0,0,0,0,0,0,0,0,0,0,0,0,0,0,0,0,0,0,0,
0,0,0,0,0,0,0,0,0,0,0,0,0,0,0,0,0,0,0,0,0,0,0,0,0,0,0,0,0,0,0,0,0,0,0,0,0,0,0,0,0,0,0,0,0,0,0,0,0,0,0,0,0,0,0,0,0,0,0,0,0,0,0,0,0,0,0,0,0,0,0,0,0,0,0,0,0,0,0,0,0,0,0,0,0,0,0,0,0,0,0,0,0,0,0,0,0,0,0,0,0,0,0,0,0,0,0,0,0,0,0,0,0,0,0,0,0,0,0,0,0,0,0,0,0,0,0,0,
0,0,0,0,0,0,0,0,0,0,0,0,0,0,0,0,0,0,0,0,0,0,0,0,0,0,0,0,0,0,0,0,0,0,0,0,0,0,0,0,0,0,0,0,0,0,0,0,0,0,0,0,0,0,0,0,0,0,0,0,0,0,0,0,0,0,0,0,0,0,0,0,0,0,0,0,0,0,0,0,0,0,0,0,0,0,0,0,0,0,0,0,0,0,0,0,0,0,0,0,0,0,0,0,0,0,0,0,0,0,0,0,0,0,0,0,0,0,0,0,0,0,0,0,0,0,0,0,
0,0,0,0,0,0,0,0,0,0,0,0,0,0,0,0,0,0,0,0,0,0,0,0,0,0,0,0,0,0,0,0,0,0,0,0,0,0,0,0,0,0,0,0,0,0,0,0,0,0,0,0,0,0,0,0,0,0,0,0,0,0,0,0,0,0,0,0,0,0,0,0,0,0,0,0,0,0,0,0,0,0,0,0,0,0,0,0,0,0,0,0,0,0,0,0,0,0,0,0,0,0,0,0,0,0,0,0,0,0,0,0,0,0,0,0,0,0,0,0,0,0,0,0,0,0,0,0,
0,0,0,0,0,0,0,0,0,0,0,0,0,0,0,0,0,0,0,0,0,0,0,0,0,0,0,0,0,0,0,0,0,0,0,0,0,0,0,0,0,0,0,0,0,0,0,0,0,0,0,0,0,0,0,0,0,0,0,0,0,0,0,0,0,0,0,0,0,0,0,0,0,0,0,0,0,0,0,0,0,0,0,0,0,0,0,0,0,0,0,0,0,0,0,0,0,0,0,0,0,0,0,0,0,0,0,0,0,0,0,0,0,0,0,0,0,0,0,0,0,0,0,0,0,0,0,0,
0,0,0,0,0,0,0,0,0,0,0,0,0,0,0,0,0,0,0,0,0,0,0,0,0,0,0,0,0,0,0,0,0,0,0,0,0,0,0,0,0,0,0,0,0,0,0,0,0,0,0,0,0,0,0,0,0,0,0,0,0,0,0,0,0,0,0,0,0,0,0,0,0,0,0,0,0,0,0,0,0,0,0,0,0,0,0,0,0,0,0,0,0,0,0,0,0,0,0,0,0,0,0,0,0,0,0,0,0,0,0,0,0,0,0,0,0,0,0,0,0,0,0,0,0,0,0,0,
0,0,0,0,0,0,0,0,0,0,0,0,0,0,0,0,0,0,0,0,0,0,0,0,0,0,0,0,0,0,0,0,0,0,0,0,0,0,0,0,0,0,0,0,0,0,0,0,0,0,0,0,0,0,0,0,0,0,0,0,0,0,0,0,0,0,0,0,0,0,0,0,0,0,0,0,0,0,0,0,0,0,0,0,0,0,0,0,0,0,0,0,0,0,0,0,0,0,0,0,0,0,0,0,0,0,0,0,0,0,0,0,0,0,0,0,0,0,0,0,0,0,0,0,0,0,0,0,
0,0,0,0,0,0,0,0,0,0,0,0,0,0,0,0,0,0,0,0,0,0,0,0,0,0,0,0,0,0,0,0,0,0,0,0,0,0,0,0,0,0,0,0,0,0,0,0,0,0,0,0,0,0,0,0,0,0,0,0,0,0,0,0,0,0,0,0,0,0,0,0,0,0,0,0,0,0,0,0,0,0,0,0,0,0,0,0,0,0,0,0,0,0,0,0,0,0,0,0,0,0,0,0,0,0,0,0,0,0,0,0,0,0,0,0,0,0,0,0,0,0,0,0,0,0,0,0,
0,0,0,0,0,0,0,0,0,0,0,0,0,0,0,0,0,0,0,0,0,0,0,0,0,0,0,0,0,0,0,0,0,0,0,0,0,0,0,0,0,0,0,0,0,0,0,0,0,0,0,0,0,0,0,0,0,0,0,0,0,0,0,0,0,0,0,0,0,0,0,0,0,0,0,0,0,0,0,0,0,0,0,0,0,0,0,0,0,0,0,0,0,0,0,0,0,0,0,0,0,0,0,0,0,0,0,0,0,0,0,0,0,0,0,0,0,0,0,0,0,0,0,0,0,0,0,0,
0,0,0,0,0,0,0,0,0,0,0,0,0,0,0,0,0,0,0,0,0,0,0,0,0,0,0,0,0,0,0,0,0,0,0,0,0,0,0,0,0,0,0,0,0,0,0,0,0,0,0,0,0,0,0,0,0,0,0,0,0,0,0,0,0,0,0,0,0,0,0,0,0,0,0,0,0,0,0,0,0,0,0,0,0,0,0,0,0,0,0,0,0,0,0,0,0,0,0,0,0,0,0,0,0,0,0,0,0,0,0,0,0,0,0,0,0,0,0,0,0,0,0,0,0,0,0,0,
0,0,0,0,0,0,0,0,0,0,0,0,0,0,0,0,0,0,0,0,0,0,0,0,0,0,0,0,0,0,0,0,0,0,0,0,0,0,0,0,0,0,0,0,0,0,0,0,0,0,0,0,0,0,0,0,0,0,0,0,0,0,0,0,0,0,0,0,0,0,0,0,0,0,0,0,0,0,0,0,0,0,0,0,0,0,0,0,0,0,0,0,0,0,0,0,0,0,0,0,0,0,0,0,0,0,0,0,0,0,0,0,0,0,0,0,0,0,0,0,0,0,0,0,0,0,0,0
</data>
 </layer>
 <layer id="7" name="CollisionObject" width="128" height="128">
  <data encoding="csv">
0,0,0,0,0,0,0,0,0,0,0,0,0,0,0,0,0,0,0,0,0,0,0,0,0,0,0,0,0,0,0,0,0,0,0,0,0,0,0,0,0,0,0,0,0,0,0,0,0,0,0,0,0,0,0,0,0,0,0,0,0,0,0,0,0,0,0,0,0,0,0,0,0,0,0,0,0,0,0,0,0,0,0,0,0,0,0,0,0,0,0,0,0,0,0,0,0,0,0,0,0,0,0,0,0,0,0,0,0,0,0,0,0,0,0,0,0,0,0,0,0,0,0,0,0,0,0,0,
0,0,0,0,0,0,0,0,0,0,0,0,0,0,0,0,0,0,0,0,0,0,0,0,0,0,0,0,0,0,0,0,0,0,0,0,0,0,0,0,0,0,0,0,0,0,0,0,0,0,0,0,0,0,0,0,0,0,0,0,0,0,0,0,0,0,0,0,0,0,0,0,0,0,0,0,0,0,0,0,0,0,0,0,0,0,0,0,0,0,0,0,0,0,0,0,0,0,0,0,0,0,0,0,0,0,0,0,0,0,0,0,0,0,0,0,0,0,0,0,0,0,0,0,0,0,0,0,
0,0,0,0,0,0,0,0,0,0,0,0,0,0,0,0,0,0,0,0,0,0,0,0,0,0,0,0,0,0,0,0,198,198,198,198,198,198,198,198,198,198,198,198,198,0,0,0,0,0,0,0,0,0,0,0,0,0,0,0,0,0,0,0,0,0,0,0,0,0,0,0,0,0,0,0,0,0,0,0,0,0,0,0,0,0,0,0,0,0,0,0,0,0,0,0,0,0,0,0,0,0,0,0,0,0,0,0,0,0,0,0,0,0,0,0,0,0,0,0,0,0,0,0,0,0,0,0,
0,0,0,0,0,0,0,0,0,0,0,0,0,0,0,0,0,0,0,0,0,0,0,0,0,0,0,0,0,0,0,0,198,198,198,198,198,198,198,198,198,198,198,198,198,0,0,0,0,0,0,0,0,0,0,0,0,0,0,0,0,0,0,0,0,0,0,0,0,0,0,0,0,0,0,0,0,0,0,0,0,0,0,0,0,0,0,0,0,0,0,0,0,0,0,0,0,0,0,0,0,0,0,0,0,0,0,0,0,0,0,0,0,0,0,0,0,0,0,0,0,0,0,0,0,0,0,0,
0,0,0,0,0,0,0,0,0,0,0,0,0,0,0,0,0,0,0,0,0,0,0,0,0,0,0,0,0,0,0,0,198,198,198,198,198,198,198,198,198,198,198,198,198,0,0,0,0,0,0,0,0,0,0,0,0,0,0,0,0,0,0,0,0,0,0,0,0,0,0,0,0,0,0,0,0,0,0,0,0,0,0,0,0,0,0,0,0,0,0,0,0,0,0,0,0,0,0,0,0,0,0,0,0,0,0,0,0,0,0,0,0,0,0,0,0,0,0,0,0,0,0,0,0,0,0,0,
0,0,0,0,0,0,198,198,198,198,198,198,198,198,198,198,198,198,198,198,198,198,198,198,198,198,198,198,198,198,198,198,198,198,198,198,198,198,198,198,198,198,198,198,198,198,198,198,198,198,198,198,198,198,198,198,198,198,198,198,198,198,198,198,198,198,198,198,198,198,198,198,198,198,198,198,198,198,43,43,43,43,198,198,198,198,198,198,198,198,198,198,198,198,198,198,198,198,198,198,198,198,198,198,198,198,198,198,198,198,198,198,198,198,198,198,198,198,198,198,198,198,0,0,0,0,0,0,
0,0,0,0,0,0,198,198,198,198,198,198,198,198,198,198,198,198,198,198,198,198,198,198,198,198,198,198,198,198,198,198,198,0,0,0,0,1570,0,1570,0,0,0,0,198,198,198,198,198,198,198,198,198,198,198,198,198,198,198,198,198,198,198,198,198,198,43,43,43,43,43,43,43,43,43,43,43,43,43,43,43,43,43,198,198,198,198,198,198,198,198,198,198,198,198,198,198,198,43,43,43,43,43,43,43,43,43,43,43,198,198,198,198,198,198,198,198,198,198,198,198,198,0,0,0,0,0,0,
0,0,0,0,0,0,198,198,198,198,198,198,198,198,198,198,198,198,198,198,198,198,198,198,198,198,198,198,198,198,198,198,198,0,1570,0,0,1562,0,1562,0,0,1570,0,198,198,198,198,198,198,198,198,198,198,198,198,198,198,198,198,198,198,198,198,198,198,43,43,43,43,43,43,43,43,43,43,43,43,43,43,43,43,43,43,43,43,43,43,43,43,43,198,198,198,198,198,198,43,43,43,43,43,43,43,43,43,43,43,43,43,43,43,198,198,198,198,198,198,198,198,198,198,0,0,0,0,0,0,
0,0,0,0,0,0,198,198,198,198,198,198,198,198,198,198,198,198,198,198,198,198,198,198,198,198,198,198,198,198,198,0,0,0,1603,0,0,0,0,0,0,0,1603,0,0,0,198,198,198,198,198,198,198,198,198,198,198,198,198,198,198,198,198,198,198,198,43,43,43,43,43,43,43,43,43,43,43,43,43,43,43,43,43,43,43,43,43,43,43,43,43,43,43,198,43,43,43,43,43,43,43,43,43,43,43,43,43,43,43,43,43,43,43,198,198,198,198,198,198,198,198,198,0,0,0,0,0,0,
0,0,0,0,0,0,198,198,198,198,198,198,198,198,198,198,198,198,198,198,198,198,198,198,198,198,198,198,198,198,198,0,0,0,0,0,0,0,0,0,0,0,0,0,0,0,198,198,198,198,198,198,198,198,198,198,198,198,198,198,198,198,198,198,198,43,43,43,43,43,43,43,43,43,43,43,43,43,43,43,43,43,43,43,43,43,43,43,43,43,43,43,43,43,43,43,43,43,43,43,43,43,43,43,43,43,43,43,43,43,43,43,43,198,198,198,198,198,198,198,198,198,0,0,0,0,0,0,
0,0,0,0,0,0,198,198,198,198,202,226,226,226,226,226,226,226,226,226,226,226,226,226,226,226,203,198,198,198,198,0,0,0,0,0,0,0,0,0,0,0,0,0,0,0,198,198,198,198,202,226,226,226,226,226,226,226,226,226,226,226,203,198,198,43,43,43,47,71,71,71,71,71,71,71,71,71,48,43,43,43,43,43,43,43,43,43,43,43,43,43,43,43,43,43,43,43,43,43,47,71,71,71,71,71,71,48,43,43,43,43,43,198,198,198,198,198,198,198,198,198,0,0,0,0,0,0,
0,0,0,0,0,0,198,198,198,198,199,1708,0,1708,0,1708,0,1708,0,1708,0,1708,0,1708,0,0,197,198,198,198,198,0,1567,1568,0,0,0,0,0,0,0,0,0,1567,1568,0,198,198,198,198,199,1709,0,1709,0,1709,0,1709,0,1709,0,0,198,198,198,43,43,43,44,0,1713,0,1713,0,1713,0,1713,0,42,43,43,43,43,43,43,43,43,43,43,43,43,43,43,43,43,43,43,43,43,43,44,1499,1500,0,1232,1233,1234,42,43,43,43,43,43,198,198,198,198,198,198,198,198,198,0,0,0,0,0,0,
0,0,0,0,0,0,198,198,198,198,199,0,1708,0,1708,0,1708,0,1708,0,1708,0,1708,0,1708,0,197,198,198,198,198,0,1600,1601,0,0,0,0,0,0,0,0,0,1600,1601,0,198,198,198,198,199,0,1709,0,1709,0,1709,0,1709,0,1709,0,197,198,198,43,43,43,44,1713,0,1713,0,1713,0,1713,0,0,70,71,71,71,71,48,43,43,43,43,43,43,43,43,43,43,43,43,43,43,43,43,44,1532,1533,0,1265,1266,1267,42,43,43,43,43,198,198,198,198,198,198,198,198,198,198,0,0,0,0,0,0,
0,0,0,0,0,0,198,198,198,198,199,1708,0,0,0,0,0,0,0,0,0,0,0,1708,0,0,197,198,198,198,198,0,0,0,0,0,0,0,0,0,0,0,0,0,0,0,198,198,198,198,199,1709,0,0,0,0,0,0,0,1709,0,0,197,198,198,43,43,43,44,0,1713,0,1713,0,1713,0,1713,0,1713,0,1713,0,0,42,43,43,43,43,43,43,43,43,43,43,43,43,43,43,43,43,44,0,0,0,1298,1299,1300,42,43,43,43,43,198,198,198,198,198,198,198,198,198,198,0,0,0,0,0,0,
0,0,0,0,0,0,198,198,198,198,199,0,1708,0,0,0,0,0,0,0,0,0,0,0,1708,0,197,198,198,198,198,633,634,634,634,634,0,0,0,0,0,634,634,634,634,635,198,198,198,198,199,0,1709,0,0,0,0,0,0,0,1709,0,197,198,198,43,43,43,44,1712,0,0,0,0,0,0,0,0,0,1712,0,1713,0,42,43,43,43,43,43,43,43,43,43,43,43,43,43,43,43,43,44,0,0,0,0,0,0,42,43,43,43,43,198,198,198,198,198,198,198,198,198,198,0,0,0,0,0,0,
0,0,0,0,0,0,198,198,198,198,199,1708,0,1708,0,1708,0,0,0,0,0,0,0,1708,0,0,197,198,198,198,198,653,654,654,654,654,0,0,0,0,0,654,654,654,654,655,198,198,198,198,199,1709,0,0,0,0,0,0,0,1709,0,0,197,198,198,43,43,43,44,0,1712,0,0,0,0,0,0,0,0,0,1712,0,0,70,71,71,71,71,71,71,71,71,71,71,71,71,71,71,71,0,0,1713,0,0,0,0,0,42,43,43,43,43,198,198,198,198,198,198,198,198,198,198,0,0,0,0,0,0,
0,0,0,0,0,0,198,198,198,198,199,0,1708,0,1708,0,1708,0,0,0,0,0,0,0,1708,0,197,198,198,198,198,653,654,654,654,654,0,0,0,0,0,654,654,654,654,655,198,198,198,198,199,0,1709,0,0,0,0,0,1709,0,1709,0,197,198,198,43,43,43,44,1712,0,0,0,0,0,0,0,0,0,0,0,1712,0,1713,0,1713,0,1713,0,0,1497,1498,0,0,1713,0,1713,0,1713,0,1713,0,0,0,0,0,0,42,43,43,43,43,198,198,198,198,198,198,198,198,198,198,0,0,0,0,0,0,
0,0,0,0,0,0,198,198,198,198,230,170,170,170,170,171,0,1708,0,0,0,0,0,1708,0,0,197,198,198,198,198,653,654,654,654,654,0,0,0,0,0,654,654,654,654,655,198,198,198,198,199,1709,0,0,0,0,0,0,1709,0,169,198,231,198,198,43,43,43,44,0,1712,0,0,0,0,0,0,0,0,0,0,0,1712,0,1712,0,1712,0,0,0,1530,1531,0,0,0,1713,0,1713,0,1713,0,0,0,0,0,0,0,42,43,43,43,43,198,198,198,198,198,198,198,198,198,198,0,0,0,0,0,0,
0,0,0,0,0,0,198,198,198,198,198,198,198,198,198,199,1708,0,0,0,0,0,0,0,1708,0,197,198,198,198,198,653,654,654,654,654,0,0,0,0,0,654,654,654,654,655,198,198,198,198,199,0,1709,0,0,0,0,1709,0,0,197,198,198,43,43,43,43,43,44,1712,0,0,0,0,0,0,0,0,0,0,0,0,0,0,0,0,0,0,0,0,1563,1564,0,0,0,0,0,0,0,0,0,0,0,0,0,0,0,42,43,43,43,43,43,43,43,43,43,43,43,43,43,198,0,0,0,0,0,0,
0,0,0,0,0,0,198,198,198,198,198,198,198,198,198,199,0,1708,0,0,0,0,0,1708,0,0,197,198,198,198,198,653,654,654,654,654,0,0,0,0,0,654,654,654,654,655,198,198,198,198,199,1709,0,0,0,0,0,0,1709,0,197,198,198,43,43,43,43,43,44,0,1712,0,0,0,0,0,0,0,0,0,0,0,0,0,0,0,0,0,0,0,0,0,0,0,0,0,0,0,0,0,0,0,0,0,0,0,0,42,43,43,43,43,43,43,43,43,43,43,43,43,43,43,0,0,0,0,0,0,
0,0,0,0,0,0,0,0,0,0,198,198,198,198,198,199,1708,0,0,0,0,0,0,0,1708,0,225,226,226,226,226,673,674,674,674,674,0,0,0,0,0,674,674,674,674,675,226,226,226,226,227,0,1709,0,0,0,0,1709,0,0,197,198,198,43,43,47,71,71,72,1712,0,0,0,0,0,0,0,0,0,0,0,0,0,0,0,0,0,0,0,0,0,0,0,0,0,0,0,0,0,0,0,0,0,0,0,0,0,42,43,43,43,43,43,43,43,43,43,43,43,43,43,43,0,0,0,0,0,0,
0,0,0,0,0,0,0,0,0,0,198,198,198,198,198,199,0,1708,0,0,0,0,0,1708,0,1708,0,1708,0,1708,0,0,0,0,0,0,0,0,0,0,0,0,0,0,0,0,0,1709,0,1709,0,1709,0,0,0,0,0,0,1709,0,197,198,198,43,43,44,0,0,0,0,0,0,0,0,0,0,0,0,0,0,0,0,0,0,0,0,0,0,0,0,0,0,0,0,0,0,0,0,0,0,0,0,0,0,0,0,0,70,71,71,71,71,71,71,71,71,71,48,43,43,43,43,0,0,0,0,0,0,
0,0,0,0,0,0,0,0,0,0,198,198,198,198,198,199,1708,0,0,0,0,0,0,0,1708,0,1708,0,1708,0,1708,0,0,0,0,0,0,0,0,0,0,0,0,0,0,0,1709,0,1709,0,1709,0,0,0,0,0,0,1709,0,0,197,198,198,43,43,44,0,0,0,0,0,0,0,0,0,0,0,0,0,0,0,0,0,0,0,0,0,0,0,0,0,0,0,0,0,0,0,0,0,0,0,0,0,0,0,0,0,0,0,0,0,0,0,0,0,0,0,42,43,43,43,43,0,0,0,0,0,0,
0,0,0,0,0,0,0,0,0,0,198,198,198,198,198,199,0,1708,0,0,0,0,0,0,0,0,0,0,0,0,0,0,0,0,0,0,0,0,0,0,0,0,0,0,0,0,0,0,0,0,0,0,0,0,0,0,0,0,1709,0,197,198,198,43,43,44,0,0,0,0,0,0,0,0,0,0,0,0,0,0,0,0,0,0,0,0,0,0,0,0,0,0,0,0,0,0,0,0,0,0,0,0,0,0,0,0,0,0,0,0,1714,0,0,0,0,0,0,42,43,43,43,43,0,0,0,0,0,0,
0,0,0,0,0,0,0,0,0,0,198,198,198,202,226,227,1708,0,0,0,0,0,0,0,0,0,0,0,0,0,0,0,0,0,0,0,0,0,0,0,0,0,0,0,0,0,0,0,0,0,0,0,0,0,0,0,0,1709,0,0,197,198,198,43,43,44,0,0,0,0,0,0,0,0,0,0,0,0,0,0,0,0,0,0,0,0,0,0,0,0,0,0,0,0,0,0,0,0,0,0,0,0,0,0,0,0,0,0,0,0,0,0,0,0,1565,1566,0,42,43,43,43,43,0,0,0,0,0,0,
0,0,0,0,0,0,0,0,0,0,198,198,198,199,0,1708,0,0,0,0,0,0,0,0,0,0,0,0,0,0,0,0,0,0,0,0,0,0,0,0,0,0,0,0,0,0,0,0,0,0,0,0,0,0,0,0,0,0,1709,0,197,198,198,43,43,44,0,0,0,0,0,0,0,0,0,0,0,0,0,0,0,0,0,0,0,0,0,0,0,0,0,0,0,0,0,0,0,0,0,0,0,0,0,0,0,0,0,0,0,0,0,0,0,0,1598,1599,0,42,43,43,43,43,0,0,0,0,0,0,
0,0,0,0,0,0,0,0,0,0,198,198,198,199,1708,0,0,0,0,0,0,0,0,0,0,0,0,0,0,0,0,0,0,0,0,0,0,0,0,0,0,0,0,0,0,0,0,0,0,0,0,0,0,0,0,0,0,1709,0,0,197,198,198,43,43,44,0,0,0,0,0,0,0,0,0,0,0,0,0,0,0,0,0,0,0,0,0,0,0,0,0,0,0,0,0,0,0,0,0,0,0,0,0,0,0,0,0,0,0,0,0,0,0,0,0,0,0,42,43,43,43,43,0,0,0,0,0,0,
0,0,0,0,0,0,0,0,0,0,198,198,198,199,0,1708,0,0,0,0,0,0,0,0,0,0,0,0,0,0,0,0,0,0,0,0,0,0,0,0,0,0,0,0,0,0,0,0,0,0,0,0,0,0,0,0,0,0,1709,0,197,198,198,43,43,75,15,15,15,16,0,0,0,0,0,0,0,0,0,0,0,0,0,0,0,0,0,0,0,0,0,0,0,0,0,0,0,0,0,0,0,0,0,0,0,0,0,0,0,0,0,0,0,14,15,15,15,76,43,43,43,43,0,0,0,0,0,0,
0,0,0,0,0,0,0,0,0,0,198,198,198,199,1708,0,0,0,0,0,0,0,0,0,0,0,0,0,0,0,0,0,0,0,0,0,0,0,0,0,0,0,0,0,0,0,0,0,0,0,0,0,0,0,0,0,0,1709,0,0,197,198,198,43,43,43,43,43,43,44,0,0,0,0,0,0,0,0,0,0,0,0,0,0,0,0,0,0,0,0,1713,0,0,0,0,0,0,0,0,0,0,0,0,0,0,0,0,0,0,0,0,1714,0,42,43,43,43,43,43,43,43,0,0,0,0,0,0,0,
0,0,0,0,0,0,0,0,0,0,198,198,198,230,170,170,170,171,0,0,0,0,0,0,0,0,0,0,0,0,0,0,0,0,0,0,0,0,0,0,0,0,0,0,0,0,0,0,0,0,0,0,0,0,0,0,0,0,1709,0,197,198,198,198,198,43,43,43,43,44,0,0,0,0,0,0,0,0,0,0,0,0,0,0,0,0,0,0,0,1713,0,1713,0,0,0,0,0,0,0,0,0,0,0,0,0,0,0,1714,0,0,0,0,0,42,43,43,43,43,43,43,0,0,0,0,0,0,0,0,
0,0,0,0,0,0,0,0,0,0,198,198,198,198,198,198,198,199,1709,0,0,0,0,0,0,0,0,0,0,0,0,0,0,0,0,0,0,0,0,0,0,0,0,0,0,0,0,0,0,1709,0,0,0,0,0,0,0,0,0,0,225,226,226,0,198,198,43,43,43,44,0,0,0,0,0,0,0,0,0,0,0,0,0,0,0,0,0,0,0,0,1713,0,0,0,0,0,0,0,0,0,0,0,0,0,0,0,0,0,0,0,0,0,0,42,43,43,43,43,43,43,0,0,0,0,0,0,0,0,
0,0,0,0,0,0,0,0,0,0,198,198,198,198,198,198,198,199,0,1709,0,0,0,0,0,0,0,0,0,0,0,1709,0,0,0,0,0,0,0,0,0,0,0,0,0,0,0,0,0,0,0,0,0,0,0,0,0,0,0,1708,0,1708,0,0,0,198,43,43,43,44,0,0,1503,0,0,0,0,0,0,0,0,0,0,0,0,0,0,0,0,1713,0,1713,0,0,0,0,0,0,0,0,0,0,0,0,0,0,0,0,0,0,1714,0,0,42,43,43,43,43,43,43,0,0,0,0,0,0,0,0,
0,0,0,0,0,0,0,0,0,0,198,198,198,198,198,198,198,199,1709,0,0,0,0,0,0,0,0,0,0,0,0,0,1709,0,0,0,0,0,0,0,0,0,0,0,0,0,0,0,0,0,0,0,0,1708,0,0,0,0,1708,0,1708,0,0,197,198,198,43,43,43,44,0,0,1536,0,0,0,0,0,0,0,0,0,0,0,0,0,0,0,1713,0,1713,0,1713,0,0,0,0,0,0,0,0,0,0,0,0,0,0,0,0,0,0,0,0,42,43,43,43,43,43,43,0,0,0,0,0,0,0,0,
0,0,0,0,0,0,0,0,0,0,198,198,198,198,198,198,198,199,0,1709,0,0,0,0,0,0,0,0,0,0,0,1709,0,0,0,0,0,0,0,0,0,0,0,0,0,1708,0,0,0,0,0,0,0,0,0,0,0,0,0,1708,0,1708,0,197,198,198,43,43,43,44,0,0,0,0,0,0,0,0,0,0,0,0,0,0,0,0,0,0,0,0,0,0,0,0,0,0,0,0,0,0,0,0,0,0,0,0,1713,0,0,0,0,0,0,42,43,43,43,43,43,43,43,0,0,0,0,0,0,0,
0,0,0,0,0,0,0,0,0,0,198,198,198,198,198,198,198,199,1709,0,0,0,0,0,0,0,0,0,0,0,0,0,1709,0,0,0,0,0,0,0,0,0,0,0,0,0,0,0,0,0,0,0,0,0,0,0,0,0,1708,0,1708,0,0,197,198,198,43,43,43,44,0,0,0,0,1503,0,0,0,0,0,0,0,0,0,0,0,0,0,0,0,0,0,0,0,0,0,0,0,0,0,0,0,0,0,0,0,0,0,0,0,0,1714,0,42,43,43,43,43,43,43,43,43,0,0,0,0,0,0,
0,0,0,0,0,0,0,0,0,0,198,198,198,198,198,198,198,199,0,1709,0,0,0,0,0,0,0,0,0,0,0,1709,0,0,0,0,0,0,0,0,0,0,0,0,0,0,0,0,0,0,0,0,0,0,0,0,0,0,0,1708,0,1708,0,197,198,198,43,43,43,44,0,0,0,0,1536,0,0,0,0,0,0,0,0,0,0,0,0,0,0,0,0,0,0,0,0,0,0,0,0,0,0,0,0,0,1714,0,0,0,0,0,0,0,0,70,71,71,71,48,43,43,43,43,0,0,0,0,0,0,
0,0,0,0,0,0,0,0,0,0,198,198,198,198,198,198,198,199,0,0,0,0,0,0,0,0,0,0,0,0,0,0,0,0,0,0,0,0,0,0,0,0,0,0,0,0,0,0,0,0,0,0,0,0,0,0,0,0,1708,0,1708,0,0,197,198,198,43,43,43,44,0,1503,0,0,0,0,0,0,0,0,0,0,0,0,0,0,0,0,0,0,0,0,0,0,0,0,0,0,0,0,0,0,0,0,0,0,0,0,1713,0,0,0,1714,0,1713,0,0,42,43,43,43,43,0,0,0,0,0,0,
0,0,0,0,0,0,0,0,0,0,198,198,198,198,198,198,198,199,1708,0,0,0,0,0,0,0,0,0,0,0,0,0,0,0,0,0,1708,0,1708,0,1708,0,0,0,0,0,0,0,0,1708,0,0,0,169,170,171,0,0,0,1708,0,0,169,231,198,198,43,43,43,44,0,1536,0,0,0,0,0,0,0,0,0,0,0,0,0,0,0,0,0,0,0,0,0,0,0,0,0,0,0,0,0,0,0,0,0,0,0,0,0,0,0,1713,0,1714,0,1713,0,42,43,43,43,43,0,0,0,0,0,0,
0,0,0,0,0,0,0,0,0,0,198,198,198,198,198,198,198,199,0,1708,0,0,0,0,0,0,0,0,0,0,0,0,0,0,0,0,0,1708,0,1708,0,0,0,0,0,0,0,0,0,0,0,0,0,197,198,199,0,0,1708,0,1708,0,197,198,198,43,43,43,43,44,0,0,0,0,0,0,0,0,0,0,0,0,0,0,0,0,0,0,0,0,0,0,0,0,0,0,0,0,0,0,0,0,0,0,0,0,0,0,0,0,0,0,1713,0,1713,0,0,42,43,43,43,43,0,0,0,0,0,0,
0,0,0,0,0,0,0,0,0,0,198,198,198,198,198,198,198,199,1708,0,0,0,0,0,0,0,0,0,0,0,0,0,0,0,0,0,0,0,0,0,0,0,0,0,0,0,0,0,0,0,0,0,0,225,226,227,0,0,0,1708,0,0,197,198,43,43,43,43,43,44,0,0,0,1503,0,0,0,0,0,0,0,0,0,0,0,0,0,0,0,0,0,0,0,0,0,0,0,0,0,0,0,0,0,0,0,0,0,0,0,0,0,1714,0,1713,0,1714,0,42,43,43,43,43,0,0,0,0,0,0,
0,0,0,0,0,0,0,0,0,0,198,198,198,198,198,198,198,199,0,1708,0,0,0,0,0,0,0,0,0,0,0,0,0,0,0,0,0,0,0,0,0,0,0,0,0,0,0,0,0,0,0,0,0,0,0,0,0,0,1708,0,1708,0,197,198,43,43,47,71,71,72,0,0,0,1536,0,0,0,0,0,0,0,0,0,0,0,0,0,0,0,0,0,0,0,0,0,1714,0,1714,0,0,0,0,0,0,0,0,0,0,0,0,0,0,0,14,15,15,15,76,43,43,43,43,0,0,0,0,0,0,
0,0,0,0,0,0,0,0,0,0,198,198,198,198,198,198,198,199,1708,0,0,0,0,0,0,0,0,0,0,0,0,0,0,0,0,0,0,0,0,0,0,0,0,0,0,0,0,0,0,0,0,0,0,0,0,0,0,0,0,1708,0,0,197,198,43,43,44,0,0,0,0,0,0,0,0,0,0,0,0,0,0,0,0,0,0,0,0,0,0,0,0,0,0,0,1714,0,1714,0,1714,0,0,0,0,0,0,0,0,0,0,0,0,0,0,42,43,43,43,43,43,43,0,0,0,0,0,0,0,0,
0,0,0,0,0,0,0,0,0,0,198,198,198,198,198,198,198,199,0,1708,0,0,0,0,0,0,0,0,0,0,0,0,0,0,0,0,0,0,0,0,0,0,0,0,0,0,0,0,0,0,0,0,1708,0,0,0,0,0,0,0,1708,0,197,198,43,43,44,0,0,0,0,0,0,0,0,0,0,0,0,0,0,0,0,0,0,0,0,0,0,0,0,0,0,0,0,1714,0,1714,0,1714,0,0,0,0,0,0,0,0,1713,0,0,0,0,42,43,43,43,43,43,43,0,0,0,0,0,0,0,0,
0,0,0,0,0,0,0,0,0,0,198,198,198,198,198,198,198,199,1708,0,0,0,0,0,0,0,0,0,0,0,0,0,0,0,0,0,0,0,0,0,0,0,0,0,0,0,0,0,0,0,0,0,0,0,0,0,0,0,0,0,0,451,451,451,451,451,451,451,0,0,0,0,0,0,0,0,0,0,0,0,0,0,0,0,0,0,0,0,0,0,0,0,0,0,1714,0,1714,0,1714,0,0,0,0,0,0,0,0,0,0,0,0,0,0,42,43,43,43,43,43,43,0,0,0,0,0,0,0,0,
0,0,0,0,0,0,0,0,0,0,198,198,198,198,198,198,198,199,0,1708,0,0,0,0,0,1709,0,0,0,0,0,0,0,0,0,0,0,0,0,0,0,0,0,0,0,0,0,0,0,0,0,0,0,0,0,0,0,0,0,0,0,0,0,0,0,0,0,0,0,0,0,0,0,0,0,0,0,0,0,0,0,0,0,0,0,0,0,0,0,0,0,0,0,0,0,0,0,0,0,0,0,0,0,0,0,0,0,0,0,0,0,0,0,42,43,43,43,43,43,43,0,0,0,0,0,0,0,0,
0,0,0,0,0,0,0,0,0,0,198,198,198,198,198,198,198,199,1708,0,0,0,0,0,0,0,0,0,0,0,0,1709,0,0,0,0,0,0,0,0,0,0,0,0,0,0,1708,0,0,0,0,0,0,0,0,0,0,0,0,0,0,0,0,0,0,0,0,0,0,0,0,0,0,0,0,0,0,0,0,0,0,0,0,0,0,0,0,0,0,0,0,0,0,0,0,0,0,0,0,0,0,0,0,0,0,0,0,0,0,0,1713,0,0,42,43,43,43,43,43,43,0,0,0,0,0,0,0,0,
0,0,0,0,0,0,0,0,0,0,198,198,198,198,198,198,198,199,0,1708,0,0,0,0,0,0,0,0,0,0,0,0,0,0,0,0,0,0,0,0,0,0,0,0,0,0,0,0,0,0,0,0,0,0,0,0,0,0,0,0,0,0,0,0,0,0,0,0,0,0,0,0,0,0,0,0,0,0,0,0,0,0,0,0,0,0,0,0,0,0,0,0,0,0,0,0,0,0,0,0,0,0,0,0,0,0,0,0,0,0,0,0,0,42,43,43,43,43,43,43,0,0,0,0,0,0,0,0,
0,0,0,0,0,0,0,0,0,0,198,198,198,202,226,226,226,227,1708,0,0,0,0,0,0,0,0,0,0,0,0,0,0,0,0,0,0,0,0,0,0,0,0,0,0,0,0,0,0,0,0,0,0,0,0,0,0,0,0,0,0,451,451,451,451,451,451,451,0,0,0,0,0,0,0,0,0,0,0,0,0,0,0,0,0,0,0,0,0,0,0,0,0,0,0,0,0,0,0,0,0,0,0,0,0,0,0,0,0,0,0,0,0,42,43,43,43,43,43,43,0,0,0,0,0,0,0,0,
0,0,0,0,0,0,0,0,0,0,198,198,198,199,1709,0,1708,0,0,0,0,0,0,0,0,0,0,0,0,0,0,0,0,0,0,0,0,0,0,0,0,0,0,0,0,0,0,0,0,0,0,0,0,0,0,0,0,0,0,0,0,0,197,198,43,43,44,0,0,0,0,0,0,0,0,0,0,0,0,0,0,0,0,0,0,0,0,0,0,0,0,0,0,0,0,0,0,0,0,0,0,0,0,0,0,0,0,0,0,0,0,0,0,42,43,43,43,43,43,43,0,0,0,0,0,0,0,0,
0,0,0,0,0,0,0,0,0,0,198,198,198,199,0,1709,0,0,0,0,0,0,0,0,0,0,0,0,1709,0,0,0,0,1708,0,0,0,0,0,0,1709,0,1709,0,0,0,0,0,0,0,0,0,0,0,0,0,0,0,0,0,1708,0,197,198,43,43,44,0,0,0,0,0,0,0,0,0,0,0,0,0,0,0,0,0,0,0,0,0,0,0,0,0,0,0,0,0,0,0,0,0,0,0,0,0,0,0,0,0,0,0,0,14,15,76,43,43,43,43,43,43,0,0,0,0,0,0,0,0,
0,0,0,0,0,0,0,0,0,0,198,198,198,199,1709,0,1708,0,0,0,0,0,0,0,0,0,0,0,0,0,0,0,0,0,0,0,0,0,0,0,0,1709,0,0,0,0,0,0,0,0,0,0,0,0,0,0,0,0,0,1708,0,0,197,198,43,43,75,15,15,16,0,0,0,0,0,0,0,0,0,0,0,0,0,0,0,0,0,0,0,0,0,0,0,0,0,0,0,0,0,0,0,0,0,0,0,0,0,0,1714,0,0,42,43,43,43,43,43,43,43,43,0,0,0,0,0,0,0,0,
0,0,0,0,0,0,0,0,0,0,198,198,198,199,0,1709,0,0,0,0,0,0,0,0,0,0,0,0,0,0,0,0,0,0,0,0,0,0,0,0,1709,0,1709,0,0,0,0,0,0,0,0,0,0,0,0,0,0,0,0,0,1708,0,197,198,43,43,43,43,43,44,0,0,0,0,0,0,0,0,0,0,0,0,0,0,0,0,0,0,0,0,0,0,0,0,0,0,0,0,0,0,0,0,0,0,0,0,0,0,0,0,0,42,43,43,43,43,43,43,0,0,0,0,0,0,0,0,0,0,
0,0,0,0,0,0,0,0,0,0,198,198,198,199,1709,0,1708,0,0,0,0,0,0,0,0,1708,0,0,0,0,0,0,0,0,1709,0,0,0,0,0,0,0,0,0,0,0,0,0,0,0,0,0,0,0,0,0,0,0,0,0,0,0,197,198,198,43,43,43,43,44,0,0,0,0,0,0,0,0,0,0,1714,0,0,0,0,0,0,0,0,0,0,0,0,0,0,0,0,0,0,0,0,0,0,0,0,0,0,0,0,0,0,42,43,43,43,43,43,43,0,0,0,0,0,0,0,0,0,0,
0,0,0,0,0,0,0,0,0,0,198,198,198,199,0,1709,0,0,0,0,0,0,0,0,0,0,0,0,0,0,0,0,0,0,0,0,0,0,0,0,0,0,0,0,0,0,0,0,0,0,0,0,0,0,0,0,0,0,0,1708,0,0,225,203,198,198,198,43,43,44,0,0,0,0,0,0,0,0,0,0,0,1714,0,0,0,0,0,0,0,0,0,0,0,0,0,0,0,0,0,0,0,0,0,0,0,0,0,0,0,1714,0,42,43,43,43,43,43,43,0,0,0,0,0,0,0,0,0,0,
0,0,0,0,0,0,0,0,0,0,198,198,198,199,1709,0,1708,0,0,0,0,0,0,0,0,0,0,0,0,0,0,1708,0,0,0,0,0,0,0,0,0,0,0,0,0,0,0,0,0,0,0,0,0,0,0,0,0,0,0,0,0,0,0,197,198,198,198,43,43,75,15,15,16,0,0,0,0,0,0,0,1714,0,1714,0,0,0,0,0,0,0,0,0,0,0,0,0,0,0,0,0,0,0,0,0,0,0,0,0,0,0,0,42,43,43,43,43,43,43,0,0,0,0,0,0,0,0,0,0,
0,0,0,0,0,0,0,0,0,0,198,198,198,199,0,1709,0,0,0,0,0,0,0,0,0,0,0,0,0,0,0,0,0,0,0,0,0,0,0,0,0,0,0,0,0,0,0,0,0,0,0,0,0,0,0,0,0,0,0,0,0,1708,0,197,198,198,198,43,43,43,43,43,44,0,0,0,0,0,0,0,0,1714,0,0,0,0,0,0,0,0,0,0,0,0,0,0,0,0,0,0,0,0,0,0,0,0,0,0,0,0,0,42,43,43,43,43,43,43,0,0,0,0,0,0,0,0,0,0,
0,0,0,0,0,0,0,0,0,0,198,198,198,199,1709,0,1708,0,0,0,0,0,0,0,0,0,0,0,0,0,0,0,0,0,0,0,0,0,0,0,0,0,0,0,0,0,0,0,0,1709,0,0,0,0,0,0,1709,0,0,0,0,0,0,197,198,198,198,43,43,43,43,43,44,0,0,0,0,0,0,0,1714,0,1714,0,0,0,0,0,0,0,0,0,0,0,0,0,0,0,0,0,0,0,0,0,0,0,0,1714,0,0,0,42,43,43,43,43,43,43,0,0,0,0,0,0,0,0,0,0,
0,0,0,0,0,0,0,0,0,0,198,198,198,199,0,1709,0,0,0,0,0,0,0,0,0,0,0,0,0,0,0,0,0,0,0,0,0,0,0,0,0,0,0,0,0,0,0,0,0,0,0,0,0,0,0,0,0,0,0,1709,0,0,0,197,198,198,198,43,43,43,43,43,44,0,0,0,0,0,0,0,0,1714,0,1714,0,0,0,0,0,0,0,0,0,0,0,0,0,0,0,0,0,0,0,0,0,0,0,0,0,0,0,42,43,43,43,43,43,43,0,0,0,0,0,0,0,0,0,0,
0,0,0,0,0,0,0,0,0,0,198,198,198,199,1709,0,1708,0,0,0,0,0,0,0,0,0,0,0,0,0,0,0,0,0,0,0,0,0,0,0,0,0,0,0,0,0,0,0,0,0,0,0,0,0,0,0,0,0,0,0,0,0,0,197,198,198,198,43,43,43,43,43,44,0,0,0,0,0,0,0,0,0,1714,0,0,0,0,0,0,0,0,0,0,0,0,0,0,0,0,0,0,0,0,0,0,0,0,0,0,0,0,42,43,43,43,43,43,43,0,0,0,0,0,0,0,0,0,0,
0,0,0,0,0,0,0,0,0,0,198,198,198,199,0,1709,0,0,0,0,0,0,0,0,0,0,0,0,0,0,0,0,0,0,0,0,0,0,0,0,0,0,0,0,0,0,0,0,0,0,0,0,0,0,0,0,0,0,0,0,0,1709,0,197,198,198,198,43,43,43,43,43,44,1712,0,0,0,0,0,0,0,0,0,0,0,0,0,0,0,0,0,0,0,0,0,0,0,0,0,0,0,0,0,0,0,0,0,0,0,1714,0,42,43,43,43,43,43,43,0,0,0,0,0,0,0,0,0,0,
0,0,0,0,0,0,0,0,0,0,198,198,198,199,1709,0,1708,0,0,0,0,0,0,0,0,0,0,0,0,0,0,0,0,0,0,0,0,0,0,0,0,0,0,0,0,0,0,0,0,0,0,0,0,0,0,0,0,0,0,0,0,0,0,197,198,198,198,43,43,43,43,43,44,0,0,0,0,0,0,0,0,0,0,0,0,0,0,0,0,0,0,0,0,0,0,0,0,0,0,0,0,0,0,0,0,0,0,0,0,0,0,42,43,43,43,43,43,43,0,0,0,0,0,0,0,0,0,0,
0,0,0,0,0,0,0,0,0,0,198,198,198,199,0,1709,0,0,0,0,0,0,0,0,0,0,0,0,0,0,0,0,1709,0,0,0,0,0,0,0,0,1709,0,0,0,0,0,0,0,0,0,0,0,0,0,0,0,0,0,0,0,0,0,197,198,198,198,43,43,43,43,43,44,0,0,0,0,0,0,0,0,0,0,0,0,0,0,0,0,0,0,0,0,0,0,0,0,0,0,0,0,0,0,0,0,0,0,0,0,0,0,42,43,43,43,43,43,43,43,0,0,0,0,0,0,0,0,0,
0,0,0,0,0,0,0,0,0,0,198,198,198,199,1709,0,0,0,0,0,0,0,0,0,0,0,0,0,0,0,0,0,0,0,0,0,0,0,0,0,0,0,0,0,0,0,0,0,0,0,0,0,1708,0,0,0,0,1708,0,0,0,169,170,231,198,198,198,43,43,43,43,43,44,0,0,0,0,0,0,0,0,0,0,0,0,0,0,0,0,0,0,1501,1502,0,0,0,0,0,0,0,0,0,0,0,0,0,0,0,0,0,0,70,71,48,43,43,43,43,43,0,0,0,0,0,0,0,0,0,
0,0,0,0,0,0,0,0,0,0,198,198,198,230,170,171,0,0,0,0,0,0,0,0,0,0,0,0,0,0,0,169,170,170,170,171,0,0,0,0,0,0,0,0,0,0,0,1708,0,0,0,0,0,0,0,0,0,0,0,1709,0,197,198,198,198,198,198,43,43,47,71,71,72,0,0,0,0,0,0,0,0,0,0,0,0,0,0,0,0,0,0,1534,1535,0,0,0,0,0,0,0,0,0,0,0,0,0,0,1714,0,0,0,0,0,42,43,43,43,43,43,0,0,0,0,0,0,0,0,0,
0,0,0,0,0,0,0,0,0,0,198,198,198,198,198,199,0,0,0,0,0,0,0,0,0,0,0,0,0,0,0,197,198,198,198,199,0,0,0,0,0,0,0,0,0,0,0,0,0,0,0,0,0,0,1709,0,0,0,0,0,0,197,198,198,43,43,43,43,43,44,0,0,0,0,0,0,0,0,0,0,0,0,0,0,0,0,0,0,0,0,0,0,0,0,0,0,0,0,0,0,0,0,0,0,0,0,0,0,0,0,0,0,0,42,43,43,43,43,43,0,0,0,0,0,0,0,0,0,
0,0,0,0,0,0,0,0,0,0,198,198,198,198,198,199,0,0,0,0,0,1708,0,1708,0,0,0,0,0,0,0,197,198,198,198,199,0,0,0,0,0,0,0,0,0,0,0,0,0,0,0,0,0,0,0,0,0,0,0,0,0,197,198,198,43,43,43,43,43,44,0,0,0,0,0,0,0,0,0,0,0,0,0,0,0,0,0,0,0,0,0,0,0,0,0,0,0,0,0,0,0,0,0,0,0,0,0,0,0,0,0,0,0,42,43,43,43,43,43,0,0,0,0,0,0,0,0,0,
0,0,0,0,0,0,0,0,0,0,198,198,198,198,198,199,0,0,0,0,1708,0,1708,0,0,0,0,0,0,0,0,197,198,198,198,199,0,0,0,0,0,0,0,0,0,0,0,0,0,0,0,0,0,0,0,0,0,1709,0,0,0,197,198,198,43,43,43,43,43,44,0,0,1712,0,0,0,0,0,0,0,0,0,0,0,0,0,0,0,0,0,0,0,0,0,0,0,0,0,0,0,0,0,0,0,0,0,0,0,0,0,0,0,0,42,43,43,43,43,43,0,0,0,0,0,0,0,0,0,
0,0,0,0,0,0,0,0,0,0,198,198,198,198,198,199,0,0,0,0,0,1708,0,1708,0,0,0,0,0,0,0,197,198,198,198,199,0,0,0,0,0,0,0,0,0,0,0,0,0,0,0,0,0,0,0,0,0,0,0,1708,0,197,198,198,43,43,47,71,71,72,0,0,0,0,0,0,0,0,0,0,0,0,0,0,0,0,0,0,0,0,0,0,0,0,0,0,0,0,0,0,0,0,0,0,0,0,0,0,0,0,0,1714,0,42,43,43,43,43,43,0,0,0,0,0,0,0,0,0,
0,0,0,0,0,0,0,0,0,0,198,198,198,198,198,199,0,0,0,0,0,0,0,0,0,0,0,0,0,0,0,197,198,198,198,199,0,0,0,0,0,0,0,0,0,0,0,0,0,0,0,0,0,0,0,0,0,0,0,0,0,197,198,198,43,43,44,0,0,0,0,0,0,0,0,0,0,0,0,0,0,0,0,0,0,0,0,0,0,0,0,0,0,0,0,0,0,0,0,0,0,0,0,0,0,0,0,0,0,0,0,0,0,42,43,43,43,43,43,0,0,0,0,0,0,0,0,0,
0,0,0,0,0,0,0,0,0,0,198,198,198,198,198,199,0,0,0,0,0,0,0,0,0,0,0,1708,0,0,0,225,226,226,226,227,0,0,0,0,0,1709,0,1709,0,1709,0,0,0,0,0,0,0,0,0,0,0,0,0,0,0,197,198,198,43,43,44,0,0,0,0,0,0,0,0,0,0,0,0,0,0,0,0,0,0,0,0,0,0,0,0,1501,1502,0,0,0,0,0,0,0,0,0,0,0,0,0,0,0,0,0,0,0,0,42,43,43,43,43,43,0,0,0,0,0,0,0,0,0,
0,0,0,0,0,0,0,0,0,0,198,198,198,198,198,199,0,0,0,0,0,0,0,0,0,0,0,0,0,0,0,0,0,0,0,0,0,0,0,0,0,0,1709,0,1709,0,1709,0,0,0,0,0,0,0,0,0,1708,0,0,1709,0,197,198,198,43,43,44,0,1712,0,0,0,0,0,0,0,0,0,0,0,0,0,0,0,0,0,0,0,0,0,0,1534,1535,0,0,0,0,0,0,0,0,0,0,0,0,0,0,0,0,0,0,0,0,42,43,43,43,43,43,0,0,0,0,0,0,0,0,0,
0,0,0,0,0,198,198,198,198,198,198,198,198,198,198,199,0,0,0,0,0,0,0,0,0,0,0,0,0,0,0,0,0,0,0,0,0,0,0,0,0,0,0,0,0,0,0,0,0,0,0,0,0,0,0,0,0,0,0,0,0,197,198,198,43,43,44,0,0,0,0,0,0,0,0,0,0,0,0,0,0,0,0,0,0,0,0,0,0,0,0,0,0,0,0,0,0,0,0,0,0,0,0,0,0,0,0,0,0,1714,0,0,0,42,43,43,43,43,43,43,0,0,0,0,0,0,0,0,
0,0,0,0,0,198,198,198,198,198,202,226,226,226,226,227,0,0,0,0,0,0,0,0,0,0,0,0,0,0,0,0,0,0,0,0,0,0,0,0,0,0,0,0,0,0,0,0,0,0,0,0,0,0,0,0,0,0,0,0,0,197,198,198,43,43,75,15,16,0,0,0,0,0,0,0,0,0,1712,0,0,0,0,0,0,0,0,0,0,0,0,0,0,0,0,0,0,0,0,0,0,0,0,0,0,0,0,0,0,0,0,0,0,42,43,43,43,43,43,43,0,0,0,0,0,0,0,0,
0,0,0,0,0,198,198,198,198,198,199,0,0,0,0,0,0,0,0,0,0,0,0,0,0,0,0,0,0,0,0,0,0,0,0,0,0,0,0,0,0,0,0,0,0,0,0,0,0,0,0,0,0,0,0,0,0,0,0,0,0,197,198,198,43,43,43,43,44,0,0,0,0,0,0,0,0,0,0,0,0,0,0,0,0,0,0,0,0,0,0,0,0,0,0,0,0,0,0,0,0,0,0,0,0,0,0,0,0,0,0,0,0,70,71,48,43,43,43,43,0,0,0,0,0,0,0,0,
0,0,0,0,0,198,198,198,198,198,199,0,0,0,0,0,0,0,0,0,0,0,0,0,0,0,0,0,0,0,0,0,0,0,0,0,0,1708,0,0,0,0,0,0,0,0,0,0,0,0,0,0,0,0,0,0,0,0,0,0,0,197,198,198,43,43,43,43,75,15,15,16,0,0,0,0,0,0,0,0,0,0,0,0,0,0,0,0,0,0,0,0,0,0,0,0,0,0,0,0,0,0,0,0,0,0,0,0,0,0,0,0,0,0,0,42,43,43,43,43,0,0,0,0,0,0,0,0,
0,0,0,0,0,198,198,198,198,198,199,0,0,0,1708,0,0,0,0,0,1709,0,0,0,0,0,0,0,0,0,0,0,0,0,0,0,0,0,0,0,0,0,0,0,0,0,0,0,0,0,0,0,0,0,0,0,0,0,0,1708,0,197,198,198,198,198,198,43,43,43,43,44,0,0,0,0,0,0,0,0,0,0,0,0,0,0,0,0,0,0,0,0,0,0,0,0,0,0,0,0,0,0,0,0,0,0,0,0,0,0,0,0,0,0,0,42,43,43,43,43,0,0,0,0,0,0,0,0,
0,0,0,0,0,198,198,198,198,198,199,0,0,0,0,0,0,0,0,0,0,0,0,0,0,0,0,0,0,0,0,0,0,0,0,0,0,0,0,0,0,0,0,0,0,0,0,0,0,0,0,0,0,0,0,0,0,0,0,0,0,225,226,203,198,198,198,198,43,43,43,44,0,0,0,0,0,0,0,0,0,0,0,0,0,0,0,0,0,0,0,0,0,0,0,0,0,0,0,0,0,0,0,0,0,0,0,0,0,0,0,0,0,0,0,42,43,43,43,43,0,0,0,0,0,0,0,0,
0,0,0,0,0,198,198,198,198,198,199,0,0,0,0,0,0,0,0,0,0,0,0,0,0,0,0,0,0,0,0,0,0,0,1708,0,0,0,0,0,0,0,0,0,0,0,0,0,0,0,0,0,0,0,0,0,0,0,0,0,0,0,0,197,198,198,198,198,43,43,43,44,0,0,0,0,1712,0,0,0,0,0,0,0,0,0,0,0,0,0,0,0,0,0,0,0,0,0,0,0,0,0,0,0,0,1713,0,1713,0,1713,0,1713,0,1713,0,42,43,43,43,43,0,0,0,0,0,0,0,0,
0,0,0,0,0,198,198,198,198,198,199,0,0,0,0,0,0,0,0,0,0,0,0,0,0,0,0,0,0,0,0,0,0,0,0,0,0,0,0,0,0,0,0,0,0,0,0,0,0,0,0,0,0,0,0,0,0,0,0,0,0,0,0,197,198,198,198,198,43,43,43,44,0,0,0,0,0,0,0,0,0,0,0,0,0,0,0,0,0,0,0,0,0,0,0,0,0,0,0,0,0,0,0,0,1713,0,1713,0,1713,0,1713,0,1713,0,0,42,43,43,43,43,0,0,0,0,0,0,0,0,
0,0,0,0,0,198,198,198,198,198,199,1709,0,1709,0,1709,0,1709,0,1709,0,1709,0,0,0,0,0,0,0,0,0,0,0,0,0,0,0,0,0,0,0,0,0,0,0,0,0,0,0,0,0,0,0,0,0,0,0,0,1708,0,0,0,0,197,198,198,43,43,43,43,43,44,0,0,0,0,0,0,0,0,0,0,1714,0,1714,0,1714,0,1714,0,0,0,0,0,0,0,0,0,0,0,0,0,0,1713,0,1713,0,1714,0,1714,0,1714,0,1714,0,42,43,43,43,43,0,0,0,0,0,0,0,0,
0,0,0,0,0,198,198,198,198,198,199,0,1708,0,1708,0,1708,0,1708,0,1708,0,1709,0,0,0,0,0,0,0,0,0,0,0,0,0,1709,0,1709,0,1709,0,0,0,0,0,0,0,0,1709,0,1709,0,1709,0,0,0,0,0,0,0,0,0,197,198,198,43,43,47,71,71,72,0,0,0,0,0,0,0,0,0,1714,0,1714,0,1714,0,1714,0,1714,0,0,0,0,0,0,0,0,0,0,0,0,1713,0,1713,0,1714,0,1714,0,1714,0,1714,0,0,42,43,43,43,43,0,0,0,0,0,0,0,0,
0,0,0,0,0,198,198,198,198,198,199,1708,0,1708,0,1708,0,1708,0,1708,0,1708,0,1709,0,0,0,0,0,0,0,0,0,0,0,1708,0,1708,0,1708,0,0,451,0,0,0,451,0,1708,0,1708,0,1708,0,1708,0,0,0,0,0,0,1709,0,197,198,198,43,43,44,0,0,1712,0,0,14,15,15,15,15,15,15,15,15,15,15,15,15,16,1714,0,1714,0,0,0,0,0,0,0,0,0,0,1713,0,1713,0,0,14,15,15,15,15,15,15,15,15,76,43,43,43,43,0,0,0,0,0,0,0,0,
0,0,0,0,0,198,198,198,198,198,230,170,170,170,170,170,170,170,170,170,170,170,171,0,1709,0,1709,0,1709,0,1709,0,1709,0,0,169,170,170,170,170,170,170,451,0,0,0,451,170,170,170,170,170,170,170,171,0,0,0,0,0,0,0,0,197,198,198,43,43,44,0,0,0,0,0,42,43,43,43,43,43,43,43,43,43,43,43,43,44,0,1714,0,1714,0,0,0,0,0,0,0,0,1713,0,1713,0,1713,0,42,43,43,43,43,43,43,43,43,43,43,43,43,43,0,0,0,0,0,0,0,0,
0,0,0,0,0,198,198,198,198,198,198,198,198,198,198,198,198,198,198,198,198,198,199,1708,0,1708,0,1708,0,1708,0,1708,0,1708,0,197,198,198,198,198,198,198,451,0,0,0,451,198,198,198,198,198,198,198,230,170,170,170,170,170,170,170,170,231,198,198,43,43,75,15,15,15,15,15,76,43,43,43,43,43,43,43,43,43,43,43,43,44,1714,0,1714,0,1714,0,451,0,0,0,451,1714,0,1714,0,1714,0,0,42,43,43,43,43,43,43,43,43,43,43,43,43,43,0,0,0,0,0,0,0,0,
0,0,0,0,0,198,198,198,198,198,198,198,198,198,198,198,198,198,198,198,198,198,230,170,170,170,170,170,170,170,170,170,170,170,170,231,198,198,198,198,198,198,451,0,0,0,451,198,198,198,198,198,198,198,198,198,198,198,198,198,198,198,198,198,198,198,43,43,43,43,43,43,43,43,43,43,43,43,43,43,43,43,43,43,43,43,43,75,15,15,15,15,15,15,451,0,0,0,451,15,15,15,15,15,15,15,76,43,43,43,43,43,43,43,43,43,43,43,43,43,0,0,0,0,0,0,0,0,
0,0,0,0,0,198,198,198,198,198,198,198,198,198,198,198,198,198,198,198,198,198,198,198,198,198,198,198,198,198,198,198,198,198,198,198,198,198,198,198,198,198,451,0,0,0,451,198,198,198,198,198,198,198,198,198,198,198,198,198,198,198,198,198,198,198,43,43,43,43,43,43,43,43,43,43,43,43,198,198,198,198,43,43,43,43,43,43,43,43,43,43,43,43,451,0,0,0,451,43,43,43,43,43,43,43,43,43,43,43,43,43,43,43,43,43,43,43,43,43,198,198,198,198,0,0,0,0,
0,0,0,0,0,198,198,198,198,198,198,198,198,198,198,198,198,198,198,198,198,198,198,198,198,198,198,198,198,198,198,198,198,198,198,198,198,198,198,198,198,198,451,0,0,0,451,198,198,198,198,198,198,198,198,198,198,198,198,198,198,198,198,198,198,198,43,43,43,43,43,43,43,43,198,198,198,198,198,198,198,198,198,198,198,198,198,43,43,43,43,43,43,43,451,0,0,0,451,43,43,43,43,43,43,43,43,43,43,0,0,0,0,0,0,0,0,0,0,0,0,0,0,198,0,0,0,0,
0,0,0,0,0,198,198,198,198,198,198,198,34,58,58,58,58,58,58,35,198,198,198,198,198,198,198,198,198,198,198,198,198,198,198,198,198,198,198,198,198,198,451,0,0,0,451,198,198,198,198,198,198,198,198,198,198,198,198,198,198,198,198,198,198,198,198,198,198,198,198,198,198,198,198,198,198,198,198,198,198,198,198,198,198,198,198,43,43,43,43,43,43,43,451,0,0,0,451,43,43,43,43,43,43,43,43,0,0,0,0,0,0,0,0,0,0,0,0,0,0,0,0,198,0,0,0,0,
0,0,0,0,0,198,198,198,198,198,198,198,31,0,0,0,0,1371,0,29,198,198,198,198,198,198,198,198,198,198,198,198,198,198,198,198,34,58,58,58,58,58,451,0,0,0,451,58,58,58,58,58,58,35,198,198,198,198,198,198,198,198,198,198,198,198,198,198,198,198,198,198,198,198,198,198,198,198,198,198,198,198,198,198,198,198,198,198,198,198,198,198,198,198,451,0,0,0,451,0,0,0,0,0,0,0,0,0,0,0,0,0,0,0,0,0,0,0,0,0,0,0,0,198,0,0,0,0,
0,0,0,0,0,198,198,198,198,198,198,198,31,0,1371,0,0,1404,0,29,198,198,198,198,198,198,198,198,198,198,198,198,198,198,198,198,31,0,0,0,0,0,451,0,0,0,451,0,0,0,0,0,0,29,198,198,198,198,198,198,198,198,198,198,198,198,198,198,198,198,198,198,198,198,198,34,58,58,58,58,58,58,58,58,58,58,35,198,198,198,198,198,198,198,451,0,0,0,451,0,0,0,0,0,0,0,0,34,58,58,58,58,58,58,58,58,58,35,198,198,198,198,198,198,0,0,0,0,
0,0,0,0,0,198,198,198,198,198,198,198,31,0,1404,0,0,0,0,57,58,58,58,58,58,58,58,58,58,58,58,58,58,58,58,58,59,0,0,0,0,0,0,0,0,0,0,0,0,0,0,0,0,29,198,198,198,198,198,198,198,198,198,198,198,198,198,198,198,198,198,198,198,198,198,31,0,0,0,0,0,0,0,0,0,0,29,198,198,198,198,198,198,198,451,0,0,0,451,0,0,0,0,0,0,0,0,31,0,0,0,0,0,0,0,0,0,29,198,198,198,198,198,198,0,0,0,0,
0,0,0,0,0,198,198,198,198,198,198,198,31,0,0,0,1371,0,0,0,0,0,0,0,0,0,0,0,1710,0,0,0,0,0,0,0,0,0,0,0,0,0,0,0,0,0,0,0,0,0,0,0,0,57,58,58,58,58,58,58,58,58,58,58,35,198,198,198,198,198,198,198,198,198,198,31,0,0,2487,2488,2489,0,0,0,0,0,57,58,58,58,58,58,58,58,451,0,0,0,451,58,58,58,58,58,58,58,58,59,0,0,0,0,0,0,0,0,0,29,198,198,198,198,198,198,0,0,0,0,
0,0,0,0,0,198,198,198,198,198,198,198,62,2,3,0,1404,0,0,0,0,0,0,0,0,0,0,0,0,0,0,0,0,0,0,0,0,0,0,0,0,0,0,0,0,0,0,0,0,0,0,0,0,1711,0,1711,0,1711,0,1711,0,1711,0,0,57,58,58,58,58,58,58,58,58,58,58,59,0,0,2499,2500,2501,0,0,0,0,0,0,0,0,0,0,0,0,0,451,0,0,0,451,0,0,0,0,0,0,0,0,0,0,0,0,0,0,0,0,0,0,29,198,198,198,198,198,198,0,0,0,0,
0,0,0,0,0,198,198,198,198,198,198,198,198,198,31,0,0,0,0,0,0,0,0,0,0,0,0,0,0,0,0,0,0,0,1710,0,0,0,0,0,0,0,0,0,0,0,0,0,0,0,0,0,0,0,1711,0,1711,0,1711,0,1711,0,1711,0,1711,0,1711,0,1711,0,1711,0,1711,0,0,0,0,0,2511,2512,2513,0,0,0,0,1710,0,0,0,0,0,0,0,0,0,0,0,0,0,0,0,0,0,0,0,0,0,0,0,0,0,0,0,0,0,0,0,29,198,198,198,198,198,198,0,0,0,0,
0,0,0,0,0,198,198,198,198,198,198,198,198,198,31,1711,0,0,0,0,0,0,0,0,0,0,0,0,0,0,0,0,0,0,0,0,0,0,0,0,0,0,0,0,0,0,0,0,0,0,0,0,0,0,0,0,0,0,0,0,0,0,0,1711,0,1711,0,1711,0,1711,0,1711,0,1711,0,0,0,0,0,0,0,0,0,0,0,0,0,0,0,0,0,0,0,0,0,0,0,0,0,0,0,0,0,0,0,0,0,0,0,0,0,0,0,0,0,1,2,63,198,198,198,198,198,198,0,0,0,0,
0,0,0,0,0,198,198,198,198,198,198,198,198,198,31,0,1711,0,0,0,0,0,0,0,0,0,0,0,0,0,0,0,0,0,0,0,0,0,0,0,0,0,0,0,0,0,0,0,0,0,0,1710,0,0,0,0,0,0,0,0,0,0,0,0,0,0,0,0,0,0,0,0,0,0,0,0,0,0,0,0,0,0,0,0,0,0,0,0,0,0,0,0,0,0,0,0,0,0,0,0,0,0,0,0,0,0,0,0,0,0,0,0,0,0,0,29,198,198,198,198,198,198,198,198,0,0,0,0,
0,0,0,0,0,198,198,198,198,198,198,198,198,198,31,1711,0,0,0,0,0,0,0,0,0,0,0,0,0,0,0,0,0,0,0,0,0,0,0,0,0,0,0,0,0,0,0,0,0,0,0,0,0,0,0,0,0,0,0,0,0,0,0,0,0,0,0,0,0,0,0,0,0,0,0,0,0,0,0,0,0,0,0,0,0,0,0,0,0,0,0,0,0,0,0,0,0,0,0,0,0,0,0,0,0,0,0,0,0,0,0,0,0,0,0,29,198,198,198,198,198,198,198,198,0,0,0,0,
0,0,0,0,0,198,198,198,198,198,198,198,198,198,31,0,1711,0,0,0,0,0,0,0,0,0,0,0,0,0,0,0,0,0,0,0,0,0,0,0,0,0,0,0,0,0,0,0,0,0,0,0,0,0,0,0,0,0,0,0,0,0,0,0,0,0,0,0,0,0,0,0,0,0,0,0,0,0,0,0,0,0,0,0,1435,1436,0,0,0,0,0,0,0,0,0,0,0,0,0,0,0,0,0,0,0,0,0,0,0,0,0,0,0,0,0,29,198,198,198,198,198,198,198,198,0,0,0,0,
0,0,0,0,0,198,198,198,198,198,198,198,198,198,31,1711,0,0,0,0,0,0,0,0,0,0,0,0,0,0,0,0,0,0,0,0,0,0,0,0,0,0,0,0,0,0,0,0,0,0,0,0,0,0,0,0,0,0,0,0,0,0,0,0,0,0,0,0,0,0,0,0,0,0,0,0,0,0,0,0,0,0,0,0,1468,1469,0,0,0,0,0,0,0,0,0,0,0,0,0,0,0,0,0,0,0,0,0,0,0,0,0,0,0,0,0,29,198,198,198,198,198,198,198,198,0,0,0,0,
0,0,0,0,0,198,198,198,198,198,198,198,198,198,31,0,1711,0,0,0,0,0,0,0,0,0,0,0,0,0,0,0,0,0,0,0,0,0,0,0,0,0,0,0,0,0,0,0,1710,0,0,0,0,0,0,0,0,0,0,0,0,0,0,0,0,0,0,0,0,0,0,0,0,0,0,0,0,0,0,0,0,0,0,0,0,0,0,0,0,0,0,0,0,0,0,0,0,0,0,0,0,0,0,0,0,0,0,0,0,0,0,0,0,0,0,29,198,198,198,198,198,198,198,198,0,0,0,0,
0,0,0,0,0,198,198,198,198,198,198,198,198,198,31,1711,0,0,0,0,0,0,0,0,1711,0,1711,0,0,0,0,0,0,0,0,0,0,0,0,0,0,0,0,0,0,0,0,0,0,0,0,0,0,0,0,0,0,0,0,0,0,0,0,0,0,0,0,0,0,0,0,0,0,0,0,0,0,0,0,0,0,0,0,0,0,0,0,0,0,0,0,0,0,0,0,0,0,0,0,0,0,0,0,0,0,0,0,0,0,0,1136,1137,1138,0,0,29,198,198,198,198,198,198,198,198,0,0,0,0,
0,0,0,0,0,198,198,198,198,198,34,58,58,58,59,0,1711,0,0,0,0,0,0,0,0,1711,0,1711,0,0,0,0,0,0,0,0,0,0,0,0,0,0,0,0,0,0,0,0,0,0,0,0,0,0,0,0,0,0,0,0,0,0,0,0,0,0,0,0,0,0,0,0,0,0,0,0,0,0,0,0,0,0,0,0,0,0,0,0,0,0,0,0,0,0,0,0,0,0,0,0,0,0,0,0,0,0,0,0,0,0,1169,1170,1171,0,0,29,198,198,198,198,198,198,198,198,0,0,0,0,
0,0,0,0,0,198,198,198,198,198,31,1711,0,1711,0,1711,0,0,0,0,0,0,0,0,1711,0,1711,0,0,0,0,0,0,0,0,0,0,0,0,0,0,0,0,0,0,0,0,0,0,0,0,0,0,0,0,0,0,0,0,0,0,0,0,0,0,0,0,0,0,0,0,0,0,0,0,0,0,0,0,0,0,0,0,0,0,0,0,0,0,0,0,0,0,0,0,0,0,0,0,0,0,1365,1366,0,0,0,0,0,0,0,0,0,0,0,0,29,198,198,198,198,198,198,198,198,0,0,0,0,
0,0,0,0,0,198,198,198,198,198,31,0,1711,0,1711,0,0,0,0,0,0,0,0,0,0,1711,0,0,0,0,0,0,0,0,0,0,0,0,0,0,0,0,0,0,0,0,0,0,0,0,0,0,0,0,0,0,0,0,0,0,0,0,0,0,0,0,0,0,0,0,0,0,0,0,0,0,0,0,0,0,0,0,0,0,0,0,0,0,0,0,0,0,0,0,0,0,0,0,0,0,0,1398,1399,0,0,0,0,0,0,0,0,0,0,0,0,57,58,35,198,198,198,198,198,198,0,0,0,0,
0,0,0,0,0,198,198,198,198,198,31,1711,0,1711,0,1711,0,0,0,0,0,0,0,0,1711,0,1711,0,0,0,0,0,0,0,0,0,0,0,0,0,0,1710,0,0,0,0,0,0,0,0,0,0,0,0,0,0,0,0,0,0,0,0,0,0,0,0,0,0,0,0,0,0,0,0,0,0,0,0,0,0,0,0,0,0,0,0,0,0,0,0,0,0,0,0,0,0,0,0,0,0,0,1431,1432,0,0,0,0,0,0,0,0,0,0,0,0,0,0,29,198,198,198,198,198,198,0,0,0,0,
0,0,0,0,0,198,198,198,198,198,62,2,2,2,2,2,3,0,0,0,0,0,0,0,0,1711,0,1711,0,1711,0,0,0,0,0,0,0,0,0,0,0,0,0,0,0,0,0,0,0,0,1367,1368,0,0,0,0,0,0,0,0,0,0,0,0,0,0,0,0,0,0,0,0,0,0,0,0,0,0,0,0,0,0,0,0,0,0,0,0,0,0,0,0,0,0,0,0,0,0,0,0,0,0,0,0,0,0,0,0,0,0,0,0,0,1,2,2,2,63,198,198,198,198,198,198,0,0,0,0,
0,0,0,0,0,198,198,198,198,198,198,198,198,198,198,198,31,0,0,0,0,0,0,0,1711,0,1711,0,1711,0,0,0,0,0,0,0,0,0,0,0,0,0,0,0,0,0,1710,0,0,0,1400,1401,0,0,0,0,0,0,0,0,0,0,0,0,0,0,0,0,0,0,0,0,0,0,0,0,0,0,0,0,0,0,0,0,0,0,0,0,0,0,0,0,0,0,0,0,0,0,0,0,0,0,0,0,0,0,0,0,0,0,0,0,0,29,198,198,198,198,198,198,198,198,198,198,0,0,0,0,
0,0,0,0,0,198,198,198,198,198,198,198,198,198,198,198,31,0,0,0,0,0,0,0,0,0,0,0,0,0,0,0,0,0,0,0,0,0,0,0,0,0,0,0,0,0,0,0,0,0,0,0,0,0,0,0,0,0,0,0,0,0,0,0,0,0,0,0,0,0,0,0,0,0,0,0,0,0,0,0,0,0,0,0,0,0,0,0,0,0,0,0,0,0,0,0,0,0,0,0,0,0,0,0,0,0,0,0,0,0,0,0,0,29,198,198,198,198,198,198,198,198,198,198,0,0,0,0,
0,0,0,0,0,198,198,198,198,198,198,198,198,198,198,198,31,0,0,0,0,0,0,0,0,0,0,0,0,0,0,0,0,0,0,0,0,0,0,0,0,0,0,0,0,0,0,0,0,0,0,0,0,0,0,0,0,0,0,0,0,0,0,0,0,0,0,0,0,0,0,0,0,0,0,0,0,0,0,0,0,0,0,0,0,0,0,0,0,0,0,0,0,0,0,0,0,0,0,0,0,0,0,0,0,0,0,0,0,0,0,0,0,29,198,198,198,198,198,198,198,198,198,198,0,0,0,0,
0,0,0,0,0,198,198,198,198,198,198,198,198,198,198,198,31,0,0,0,0,0,0,0,0,0,0,0,0,0,0,0,0,0,0,0,0,0,0,0,0,0,0,0,0,0,0,0,0,0,0,0,0,0,0,0,0,0,0,0,0,0,0,0,0,0,0,0,0,0,0,0,0,0,0,0,0,0,0,0,0,0,0,0,0,0,0,0,0,0,0,0,0,0,0,0,0,0,0,0,0,0,0,0,0,0,0,0,0,0,0,0,0,29,198,198,198,198,198,198,198,198,198,198,0,0,0,0,
0,0,0,0,0,198,198,198,198,198,198,198,198,198,198,198,31,0,0,0,0,0,0,0,0,0,0,0,0,0,0,0,0,0,0,0,0,0,0,0,0,0,0,0,0,0,0,0,0,0,0,0,0,0,0,0,0,0,0,0,0,0,1710,0,1710,0,1710,0,1710,0,1710,0,1710,0,1710,0,1710,0,0,0,0,0,0,0,0,0,0,0,0,0,0,0,0,0,0,0,0,0,0,0,0,0,0,0,0,0,0,0,0,0,0,0,0,29,198,198,198,198,198,198,198,198,198,198,0,0,0,0,
0,0,0,0,0,198,198,198,198,198,198,198,34,58,58,58,59,0,0,0,0,0,0,0,0,0,0,0,0,0,0,0,0,0,0,0,0,0,0,0,0,0,0,0,0,0,0,0,0,0,0,0,0,0,0,0,0,0,0,0,0,1710,0,1710,0,1710,0,1710,0,1710,0,1710,0,1710,0,1710,0,1710,0,0,0,0,0,0,0,0,0,0,0,0,0,0,0,0,0,0,0,0,0,0,0,0,0,0,0,0,0,0,0,0,0,0,0,29,198,198,198,198,198,198,198,198,198,198,0,0,0,0,
0,0,0,0,0,198,198,198,198,198,198,198,31,1710,0,1710,0,0,0,0,0,0,0,0,0,0,0,0,0,0,0,0,0,0,0,0,0,0,0,0,0,0,0,0,0,0,0,0,0,0,0,0,0,0,0,0,0,0,0,0,0,0,1,2,2,2,2,2,2,2,2,2,2,2,2,2,2,2,2,2,2,2,2,2,2,2,2,2,2,2,2,2,2,2,2,3,0,0,0,0,0,0,0,0,0,0,0,0,0,0,0,0,0,29,198,198,198,198,198,198,198,198,198,198,0,0,0,0,
0,0,0,0,0,198,198,198,198,198,198,198,31,0,1710,0,1710,0,0,0,0,0,0,0,0,0,0,0,0,0,0,0,0,0,0,0,0,0,0,0,0,0,0,0,0,0,0,0,0,0,0,0,0,0,0,0,0,0,0,0,0,0,29,198,198,198,198,198,198,198,198,198,198,198,198,198,198,198,198,198,198,198,198,198,198,198,198,198,198,198,198,198,198,198,198,31,0,0,0,0,0,0,0,0,0,0,0,0,0,0,0,0,0,29,198,198,198,198,198,198,198,198,198,198,0,0,0,0,
0,0,0,0,0,198,198,198,198,198,198,198,31,1710,0,1710,0,1710,0,0,0,0,0,0,0,0,0,0,0,0,0,0,1,2,2,2,2,2,2,2,2,2,2,2,2,2,2,2,2,2,2,2,2,2,2,2,2,2,2,2,2,2,63,198,198,198,198,198,198,198,198,198,198,198,198,198,198,198,198,198,198,198,198,198,198,198,198,198,198,198,198,198,198,198,198,31,0,0,0,0,0,0,0,0,0,0,0,0,0,0,0,0,0,57,58,58,58,35,198,198,198,198,198,198,0,0,0,0,
0,0,0,0,0,198,198,198,198,198,198,198,62,2,2,2,3,0,1710,0,1710,0,1710,0,1710,0,0,0,0,0,0,0,29,198,198,198,198,198,198,198,198,198,198,198,198,198,198,198,198,198,198,198,198,198,198,198,198,198,198,198,198,198,198,198,198,198,198,198,198,198,198,198,198,198,198,198,198,198,198,198,198,198,198,198,198,198,198,198,198,198,198,198,198,198,198,31,0,0,0,1710,0,0,0,1710,0,0,0,1710,0,0,0,0,0,0,1433,1434,0,29,198,198,198,198,198,198,0,0,0,0,
0,0,0,0,0,198,198,198,198,198,198,198,198,198,198,198,31,1710,0,1710,0,1710,0,1710,0,0,0,0,0,0,0,0,29,198,198,198,198,198,198,198,198,198,198,198,198,198,198,198,198,198,198,198,198,198,198,198,198,198,198,198,198,198,198,198,198,198,198,198,198,198,198,198,198,198,198,198,198,198,198,198,198,198,198,198,198,198,198,198,198,198,198,198,198,198,198,31,0,1710,0,0,0,1710,0,0,0,1710,0,0,0,1710,0,0,0,0,1466,1467,0,29,198,198,198,198,198,198,0,0,0,0,
0,0,0,0,0,198,198,198,198,198,198,198,198,198,198,198,62,2,2,2,2,2,2,2,2,2,2,2,2,2,2,2,63,198,198,198,198,198,198,198,198,198,198,198,198,198,198,198,198,198,198,198,198,198,198,198,198,198,198,198,198,198,198,198,198,198,198,198,198,198,198,198,198,198,198,198,198,198,198,198,198,198,198,198,198,198,198,198,198,198,198,198,198,198,198,62,2,2,2,2,2,2,2,2,2,2,2,2,2,2,2,2,2,2,2,2,2,63,198,198,198,198,198,198,0,0,0,0,
0,0,0,0,0,198,198,198,198,198,198,198,198,198,198,198,198,198,198,198,198,198,198,198,198,198,198,198,198,198,198,198,198,198,198,198,198,198,198,198,198,198,198,198,198,198,198,198,198,198,198,198,198,198,198,198,198,198,198,198,198,198,198,198,198,198,198,198,198,198,198,198,198,198,198,198,198,198,198,198,198,198,198,198,198,198,198,198,198,198,198,198,198,198,198,198,198,198,198,198,198,198,198,198,198,198,198,198,198,198,198,198,198,198,198,198,198,198,198,198,198,198,198,198,0,0,0,0,
0,0,0,0,0,198,198,198,198,198,198,198,198,198,198,198,198,198,198,198,198,198,198,198,198,198,198,198,198,198,198,198,198,198,198,198,198,198,198,198,198,198,198,198,198,198,198,198,198,198,198,198,198,198,198,198,198,198,198,198,198,198,198,198,198,198,198,198,198,198,198,198,198,198,198,198,198,198,198,198,198,198,198,198,198,198,198,198,198,198,198,198,198,198,198,198,198,198,198,198,198,198,198,198,198,198,198,198,198,198,198,198,198,198,198,198,198,198,198,198,198,198,198,198,0,0,0,0,
0,0,0,0,0,198,198,198,198,198,198,198,198,198,198,198,198,198,198,198,198,198,198,198,198,198,198,198,198,198,198,198,198,198,198,198,198,198,198,198,198,198,198,198,198,198,198,198,198,198,198,198,198,198,198,198,198,198,198,198,198,198,198,198,198,198,198,198,198,198,198,198,198,198,198,198,198,198,198,198,198,198,198,198,198,198,198,198,198,198,198,198,198,198,198,198,198,198,198,198,198,198,198,198,198,198,198,198,198,198,198,198,198,198,198,198,198,198,198,198,198,198,198,198,0,0,0,0,
0,0,0,0,0,198,198,198,198,198,198,198,198,198,198,198,198,198,198,198,198,198,198,198,198,198,198,198,198,198,198,198,198,198,198,198,198,198,198,198,198,198,198,198,198,198,198,198,198,198,198,198,198,198,198,198,198,198,198,198,198,198,198,198,198,198,198,198,198,198,198,198,198,198,198,198,198,198,198,198,198,198,198,198,198,198,198,198,198,198,198,198,198,198,198,198,198,198,198,198,198,198,198,198,198,198,198,198,198,198,198,198,198,198,198,198,198,198,198,198,198,198,198,198,0,0,0,0,
0,0,0,0,0,198,198,198,198,198,198,198,198,198,198,198,198,198,198,198,198,198,198,198,198,198,198,198,198,198,198,198,198,198,198,198,198,198,198,198,198,198,198,198,198,198,198,198,198,198,198,198,198,198,198,198,198,198,198,198,198,198,198,198,198,198,198,198,198,198,198,198,198,198,198,198,198,198,198,198,198,198,198,198,198,198,198,198,198,198,198,198,198,198,198,198,198,198,198,198,198,198,198,198,198,198,198,198,198,198,198,198,198,198,198,198,198,198,198,198,198,198,198,198,0,0,0,0,
0,0,0,0,0,0,0,0,0,0,0,0,0,0,0,0,0,0,0,0,0,0,0,0,0,0,0,0,0,0,0,0,0,0,0,0,0,0,0,0,0,0,0,0,0,0,0,0,0,0,0,0,0,0,0,0,0,0,0,0,0,0,0,0,0,0,0,0,0,0,0,0,0,0,0,0,0,0,0,0,0,0,0,0,0,0,0,0,0,0,0,0,0,0,0,0,0,0,0,0,0,0,0,0,0,0,0,0,0,0,0,0,0,0,0,0,0,0,0,0,0,0,0,0,0,0,0,0,
0,0,0,0,0,0,0,0,0,0,0,0,0,0,0,0,0,0,0,0,0,0,0,0,0,0,0,0,0,0,0,0,0,0,0,0,0,0,0,0,0,0,0,0,0,0,0,0,0,0,0,0,0,0,0,0,0,0,0,0,0,0,0,0,0,0,0,0,0,0,0,0,0,0,0,0,0,0,0,0,0,0,0,0,0,0,0,0,0,0,0,0,0,0,0,0,0,0,0,0,0,0,0,0,0,0,0,0,0,0,0,0,0,0,0,0,0,0,0,0,0,0,0,0,0,0,0,0,
0,0,0,0,0,0,0,0,0,0,0,0,0,0,0,0,0,0,0,0,0,0,0,0,0,0,0,0,0,0,0,0,0,0,0,0,0,0,0,0,0,0,0,0,0,0,0,0,0,0,0,0,0,0,0,0,0,0,0,0,0,0,0,0,0,0,0,0,0,0,0,0,0,0,0,0,0,0,0,0,0,0,0,0,0,0,0,0,0,0,0,0,0,0,0,0,0,0,0,0,0,0,0,0,0,0,0,0,0,0,0,0,0,0,0,0,0,0,0,0,0,0,0,0,0,0,0,0,
0,0,0,0,0,0,0,0,0,0,0,0,0,0,0,0,0,0,0,0,0,0,0,0,0,0,0,0,0,0,0,0,0,0,0,0,0,0,0,0,0,0,0,0,0,0,0,0,0,0,0,0,0,0,0,0,0,0,0,0,0,0,0,0,0,0,0,0,0,0,0,0,0,0,0,0,0,0,0,0,0,0,0,0,0,0,0,0,0,0,0,0,0,0,0,0,0,0,0,0,0,0,0,0,0,0,0,0,0,0,0,0,0,0,0,0,0,0,0,0,0,0,0,0,0,0,0,0,
0,0,0,0,0,0,0,0,0,0,0,0,0,0,0,0,0,0,0,0,0,0,0,0,0,0,0,0,0,0,0,0,0,0,0,0,0,0,0,0,0,0,0,0,0,0,0,0,0,0,0,0,0,0,0,0,0,0,0,0,0,0,0,0,0,0,0,0,0,0,0,0,0,0,0,0,0,0,0,0,0,0,0,0,0,0,0,0,0,0,0,0,0,0,0,0,0,0,0,0,0,0,0,0,0,0,0,0,0,0,0,0,0,0,0,0,0,0,0,0,0,0,0,0,0,0,0,0
</data>
 </layer>
</map>
